assets/luts/leica_classic.cube
TITLE "leica_classic"
LUT_3D_SIZE 9
DOMAIN_MIN 0.0 0.0 0.0
DOMAIN_MAX 1.0 1.0 1.0
0.030184 0.021399 0.011146
0.161369 0.036751 0.026560
0.289452 0.051138 0.040993
0.416537 0.065126 0.055015
0.541943 0.078876 0.068790
0.664539 0.092464 0.082395
0.783073 0.105935 0.095874
0.885357 0.119316 0.109256
0.923930 0.131720 0.121655
0.043451 0.144478 0.024516
0.161369 0.146611 0.026560
0.289452 0.161661 0.040993
0.416537 0.176265 0.055015
0.541943 0.190594 0.068790
0.664539 0.204729 0.082395
0.783073 0.218716 0.095874
0.885357 0.232588 0.109256
0.923930 0.245425 0.121655
0.057355 0.268019 0.038505
0.173875 0.268019 0.038505
0.289452 0.270687 0.040993
0.416537 0.285706 0.055015
0.541943 0.300418 0.068790
0.664539 0.314908 0.082395
0.783073 0.329225 0.095874
0.885357 0.343402 0.109256
0.923930 0.356503 0.121655
0.071042 0.391941 0.052258
0.188261 0.391941 0.052258
0.301599 0.391941 0.052258
0.416537 0.394936 0.055015
0.541943 0.409864 0.068790
0.664539 0.424546 0.082395
0.783073 0.439032 0.095874
0.885357 0.453356 0.109256
0.923930 0.466577 0.121655
0.084615 0.515402 0.065878
0.202495 0.515402 0.065878
0.316246 0.515402 0.065878
0.428387 0.515402 0.065878
0.541943 0.518564 0.068790
0.664539 0.533284 0.082395
0.783073 0.547789 0.095874
0.885357 0.562113 0.109256
0.923930 0.575315 0.121655
0.098119 0.637249 0.079413
0.216626 0.637249 0.079413
0.330763 0.637249 0.079413
0.443094 0.637249 0.079413
0.553490 0.637249 0.079413
0.664539 0.640443 0.082395
0.783073 0.654822 0.095874
0.885357 0.669003 0.109256
0.923930 0.682057 0.121655
0.111582 0.756242 0.092891
0.230685 0.756242 0.092891
0.345180 0.756242 0.092891
0.457677 0.756242 0.092891
0.568064 0.756242 0.092891
0.675746 0.756242 0.092891
0.783073 0.759355 0.095874
0.885357 0.773254 0.109256
0.923930 0.786032 0.121655
0.125020 0.868511 0.106330
0.244690 0.868511 0.106330
0.359517 0.868511 0.106330
0.472156 0.868511 0.106330
0.582512 0.868511 0.106330
0.690001 0.868511 0.106330
0.793882 0.868511 0.106330
0.885357 0.870730 0.109256
0.923930 0.879312 0.121655
0.138444 0.919817 0.119741
0.258652 0.919817 0.119741
0.373785 0.919817 0.119741
0.486543 0.919817 0.119741
0.596847 0.919817 0.119741
0.704123 0.919817 0.119741
0.807638 0.919817 0.119741
0.891094 0.919817 0.119741
0.923930 0.920335 0.121655
0.039885 0.031136 0.114192
0.161369 0.036751 0.120036
0.289452 0.051138 0.134988
0.416537 0.065126 0.149495
0.541943 0.078876 0.163724
0.664539 0.092464 0.177759
0.783073 0.105935 0.191646
0.885357 0.119316 0.205416
0.923930 0.131720 0.218158
0.043451 0.144478 0.117917
0.161369 0.146611 0.120036
0.289452 0.161661 0.134988
0.416537 0.176265 0.149495
0.541943 0.190594 0.163724
0.664539 0.204729 0.177759
0.783073 0.218716 0.191646
0.885357 0.232588 0.205416
0.923930 0.245425 0.218158
0.057355 0.268019 0.132413
0.173875 0.268019 0.132413
0.289452 0.270687 0.134988
0.416537 0.285706 0.149495
0.541943 0.300418 0.163724
0.664539 0.314908 0.177759
0.783073 0.329225 0.191646
0.885357 0.343402 0.205416
0.923930 0.356503 0.218158
0.071042 0.391941 0.146644
0.188261 0.391941 0.146644
0.301599 0.391941 0.146644
0.416537 0.394936 0.149495
0.541943 0.409864 0.163724
0.664539 0.424546 0.177759
0.783073 0.439032 0.191646
0.885357 0.453356 0.205416
0.923930 0.466577 0.218158
0.084615 0.515402 0.160717
0.202495 0.515402 0.160717
0.316246 0.515402 0.160717
0.428387 0.515402 0.160717
0.541943 0.518564 0.163724
0.664539 0.533284 0.177759
0.783073 0.547789 0.191646
0.885357 0.562113 0.205416
0.923930 0.575315 0.218158
0.098119 0.637249 0.174684
0.216626 0.637249 0.174684
0.330763 0.637249 0.174684
0.443094 0.637249 0.174684
0.553490 0.637249 0.174684
0.664539 0.640443 0.177759
0.783073 0.654822 0.191646
0.885357 0.669003 0.205416
0.923930 0.682057 0.218158
0.111582 0.756242 0.188574
0.230685 0.756242 0.188574
0.345180 0.756242 0.188574
0.457677 0.756242 0.188574
0.568064 0.756242 0.188574
0.675746 0.756242 0.188574
0.783073 0.759355 0.191646
0.885357 0.773254 0.205416
0.923930 0.786032 0.218158
0.125020 0.868511 0.202406
0.244690 0.868511 0.202406
0.359517 0.868511 0.202406
0.472156 0.868511 0.202406
0.582512 0.868511 0.202406
0.690001 0.868511 0.202406
0.793882 0.868511 0.202406
0.885357 0.870730 0.205416
0.923930 0.879312 0.218158
0.138444 0.919817 0.216193
0.258652 0.919817 0.216193
0.373785 0.919817 0.216193
0.486543 0.919817 0.216193
0.596847 0.919817 0.216193
0.704123 0.919817 0.216193
0.807638 0.919817 0.216193
0.891094 0.919817 0.216193
0.923930 0.920335 0.218158
0.052607 0.043897 0.226427
0.168877 0.043897 0.226427
0.289452 0.051138 0.234150
0.416537 0.065126 0.249029
0.541943 0.078876 0.263605
0.664539 0.092464 0.277963
0.783073 0.105935 0.292153
0.885357 0.119316 0.306205
0.923930 0.131720 0.319195
0.052607 0.154090 0.226427
0.168877 0.154090 0.226427
0.289452 0.161661 0.234150
0.416537 0.176265 0.249029
0.541943 0.190594 0.263605
0.664539 0.204729 0.277963
0.783073 0.218716 0.292153
0.885357 0.232588 0.306205
0.923930 0.245425 0.319195
0.057355 0.268019 0.231506
0.173875 0.268019 0.231506
0.289452 0.270687 0.234150
0.416537 0.285706 0.249029
0.541943 0.300418 0.263605
0.664539 0.314908 0.277963
0.783073 0.329225 0.292153
0.885357 0.343402 0.306205
0.923930 0.356503 0.319195
0.071042 0.391941 0.246106
0.188261 0.391941 0.246106
0.301599 0.391941 0.246106
0.416537 0.394936 0.249029
0.541943 0.409864 0.263605
0.664539 0.424546 0.277963
0.783073 0.439032 0.292153
0.885357 0.453356 0.306205
0.923930 0.466577 0.319195
0.084615 0.515402 0.260526
0.202495 0.515402 0.260526
0.316246 0.515402 0.260526
0.428387 0.515402 0.260526
0.541943 0.518564 0.263605
0.664539 0.533284 0.277963
0.783073 0.547789 0.292153
0.885357 0.562113 0.306205
0.923930 0.575315 0.319195
0.098119 0.637249 0.274819
0.216626 0.637249 0.274819
0.330763 0.637249 0.274819
0.443094 0.637249 0.274819
0.553490 0.637249 0.274819
0.664539 0.640443 0.277963
0.783073 0.654822 0.292153
0.885357 0.669003 0.306205
0.923930 0.682057 0.319195
0.111582 0.756242 0.289016
0.230685 0.756242 0.289016
0.345180 0.756242 0.289016
0.457677 0.756242 0.289016
0.568064 0.756242 0.289016
0.675746 0.756242 0.289016
0.783073 0.759355 0.292153
0.885357 0.773254 0.306205
0.923930 0.786032 0.319195
0.125020 0.868511 0.303135
0.244690 0.868511 0.303135
0.359517 0.868511 0.303135
0.472156 0.868511 0.303135
0.582512 0.868511 0.303135
0.690001 0.868511 0.303135
0.793882 0.868511 0.303135
0.885357 0.870730 0.306205
0.923930 0.879312 0.319195
0.138444 0.919817 0.317192
0.258652 0.919817 0.317192
0.373785 0.919817 0.317192
0.486543 0.919817 0.317192
0.596847 0.919817 0.317192
0.704123 0.919817 0.317192
0.807638 0.919817 0.317192
0.891094 0.919817 0.317192
0.923930 0.920335 0.319195
0.065549 0.056871 0.342731
0.182491 0.056871 0.342731
0.295653 0.056871 0.342731
0.416537 0.065126 0.351652
0.541943 0.078876 0.366456
0.664539 0.092464 0.381021
0.783073 0.105935 0.395398
0.885357 0.119316 0.409619
0.923930 0.131720 0.422750
0.065549 0.167650 0.342731
0.182491 0.167650 0.342731
0.295653 0.167650 0.342731
0.416537 0.176265 0.351652
0.541943 0.190594 0.366456
0.664539 0.204729 0.381021
0.783073 0.218716 0.395398
0.885357 0.232588 0.409619
0.923930 0.245425 0.422750
0.065549 0.276849 0.342731
0.182491 0.276849 0.342731
0.295653 0.276849 0.342731
0.416537 0.285706 0.351652
0.541943 0.300418 0.366456
0.664539 0.314908 0.381021
0.783073 0.329225 0.395398
0.885357 0.343402 0.409619
0.923930 0.356503 0.422750
0.071042 0.391941 0.348682
0.188261 0.391941 0.348682
0.301599 0.391941 0.348682
0.416537 0.394936 0.351652
0.541943 0.409864 0.366456
0.664539 0.424546 0.381021
0.783073 0.439032 0.395398
0.885357 0.453356 0.409619
0.923930 0.466577 0.422750
0.084615 0.515402 0.363331
0.202495 0.515402 0.363331
0.316246 0.515402 0.363331
0.428387 0.515402 0.363331
0.541943 0.518564 0.366456
0.664539 0.533284 0.381021
0.783073 0.547789 0.395398
0.885357 0.562113 0.409619
0.923930 0.575315 0.422750
0.098119 0.637249 0.377833
0.216626 0.637249 0.377833
0.330763 0.637249 0.377833
0.443094 0.637249 0.377833
0.553490 0.637249 0.377833
0.664539 0.640443 0.381021
0.783073 0.654822 0.395398
0.885357 0.669003 0.409619
0.923930 0.682057 0.422750
0.111582 0.756242 0.392221
0.230685 0.756242 0.392221
0.345180 0.756242 0.392221
0.457677 0.756242 0.392221
0.568064 0.756242 0.392221
0.675746 0.756242 0.392221
0.783073 0.759355 0.395398
0.885357 0.773254 0.409619
0.923930 0.786032 0.422750
0.125020 0.868511 0.406514
0.244690 0.868511 0.406514
0.359517 0.868511 0.406514
0.472156 0.868511 0.406514
0.582512 0.868511 0.406514
0.690001 0.868511 0.406514
0.793882 0.868511 0.406514
0.885357 0.870730 0.409619
0.923930 0.879312 0.422750
0.138444 0.919817 0.420726
0.258652 0.919817 0.420726
0.373785 0.919817 0.420726
0.486543 0.919817 0.420726
0.596847 0.919817 0.420726
0.704123 0.919817 0.420726
0.807638 0.919817 0.420726
0.891094 0.919817 0.420726
0.923930 0.920335 0.422750
0.078666 0.070012 0.461511
0.196260 0.070012 0.461511
0.309834 0.070012 0.461511
0.421883 0.070012 0.461511
0.541943 0.078876 0.471113
0.664539 0.092464 0.485764
0.783073 0.105935 0.500209
0.885357 0.119316 0.514482
0.923930 0.131720 0.527646
0.078666 0.181360 0.461511
0.196260 0.181360 0.461511
0.309834 0.181360 0.461511
0.421883 0.181360 0.461511
0.541943 0.190594 0.471113
0.664539 0.204729 0.485764
0.783073 0.218716 0.500209
0.885357 0.232588 0.514482
0.923930 0.245425 0.527646
0.078666 0.290940 0.461511
0.196260 0.290940 0.461511
0.309834 0.290940 0.461511
0.421883 0.290940 0.461511
0.541943 0.300418 0.471113
0.664539 0.314908 0.485764
0.783073 0.329225 0.500209
0.885357 0.343402 0.514482
0.923930 0.356503 0.527646
0.078666 0.400249 0.461511
0.196260 0.400249 0.461511
0.309834 0.400249 0.461511
0.421883 0.400249 0.461511
0.541943 0.409864 0.471113
0.664539 0.424546 0.485764
0.783073 0.439032 0.500209
0.885357 0.453356 0.514482
0.923930 0.466577 0.527646
0.084615 0.515402 0.467967
0.202495 0.515402 0.467967
0.316246 0.515402 0.467967
0.428387 0.515402 0.467967
0.541943 0.518564 0.471113
0.664539 0.533284 0.485764
0.783073 0.547789 0.500209
0.885357 0.562113 0.514482
0.923930 0.575315 0.527646
0.098119 0.637249 0.482559
0.216626 0.637249 0.482559
0.330763 0.637249 0.482559
0.443094 0.637249 0.482559
0.553490 0.637249 0.482559
0.664539 0.640443 0.485764
0.783073 0.654822 0.500209
0.885357 0.669003 0.514482
0.923930 0.682057 0.527646
0.111582 0.756242 0.497019
0.230685 0.756242 0.497019
0.345180 0.756242 0.497019
0.457677 0.756242 0.497019
0.568064 0.756242 0.497019
0.675746 0.756242 0.497019
0.783073 0.759355 0.500209
0.885357 0.773254 0.514482
0.923930 0.786032 0.527646
0.125020 0.868511 0.511367
0.244690 0.868511 0.511367
0.359517 0.868511 0.511367
0.472156 0.868511 0.511367
0.582512 0.868511 0.511367
0.690001 0.868511 0.511367
0.793882 0.868511 0.511367
0.885357 0.870730 0.514482
0.923930 0.879312 0.527646
0.138444 0.919817 0.525618
0.258652 0.919817 0.525618
0.373785 0.919817 0.525618
0.486543 0.919817 0.525618
0.596847 0.919817 0.525618
0.704123 0.919817 0.525618
0.807638 0.919817 0.525618
0.891094 0.919817 0.525618
0.923930 0.920335 0.527646
0.091937 0.083299 0.581308
0.210161 0.083299 0.581308
0.324125 0.083299 0.581308
0.436372 0.083299 0.581308
0.546764 0.083299 0.581308
0.664539 0.092464 0.591155
0.783073 0.105935 0.605548
0.885357 0.119316 0.619752
0.923930 0.131720 0.632838
0.091937 0.195197 0.581308
0.210161 0.195197 0.581308
0.324125 0.195197 0.581308
0.436372 0.195197 0.581308
0.546764 0.195197 0.581308
0.664539 0.204729 0.591155
0.783073 0.218716 0.605548
0.885357 0.232588 0.619752
0.923930 0.245425 0.632838
0.091937 0.305139 0.581308
0.210161 0.305139 0.581308
0.324125 0.305139 0.581308
0.436372 0.305139 0.581308
0.546764 0.305139 0.581308
0.664539 0.314908 0.591155
0.783073 0.329225 0.605548
0.885357 0.343402 0.619752
0.923930 0.356503 0.632838
0.091937 0.414650 0.581308
0.210161 0.414650 0.581308
0.324125 0.414650 0.581308
0.436372 0.414650 0.581308
0.546764 0.414650 0.581308
0.664539 0.424546 0.591155
0.783073 0.439032 0.605548
0.885357 0.453356 0.619752
0.923930 0.466577 0.632838
0.091937 0.523365 0.581308
0.210161 0.523365 0.581308
0.324125 0.523365 0.581308
0.436372 0.523365 0.581308
0.546764 0.523365 0.581308
0.664539 0.533284 0.591155
0.783073 0.547789 0.605548
0.885357 0.562113 0.619752
0.923930 0.575315 0.632838
0.098119 0.637249 0.587960
0.216626 0.637249 0.587960
0.330763 0.637249 0.587960
0.443094 0.637249 0.587960
0.553490 0.637249 0.587960
0.664539 0.640443 0.591155
0.783073 0.654822 0.605548
0.885357 0.669003 0.619752
0.923930 0.682057 0.632838
0.111582 0.756242 0.602370
0.230685 0.756242 0.602370
0.345180 0.756242 0.602370
0.457677 0.756242 0.602370
0.568064 0.756242 0.602370
0.675746 0.756242 0.602370
0.783073 0.759355 0.605548
0.885357 0.773254 0.619752
0.923930 0.786032 0.632838
0.125020 0.868511 0.616653
0.244690 0.868511 0.616653
0.359517 0.868511 0.616653
0.472156 0.868511 0.616653
0.582512 0.868511 0.616653
0.690001 0.868511 0.616653
0.793882 0.868511 0.616653
0.885357 0.870730 0.619752
0.923930 0.879312 0.632838
0.138444 0.919817 0.630823
0.258652 0.919817 0.630823
0.373785 0.919817 0.630823
0.486543 0.919817 0.630823
0.596847 0.919817 0.630823
0.704123 0.919817 0.630823
0.807638 0.919817 0.630823
0.891094 0.919817 0.630823
0.923930 0.920335 0.632838
0.105345 0.096716 0.700697
0.224177 0.096716 0.700697
0.338509 0.096716 0.700697
0.450932 0.096716 0.700697
0.561326 0.096716 0.700697
0.669090 0.096716 0.700697
0.783073 0.105935 0.710415
0.885357 0.119316 0.724429
0.923930 0.131720 0.737325
0.105345 0.209146 0.700697
0.224177 0.209146 0.700697
0.338509 0.209146 0.700697
0.450932 0.209146 0.700697
0.561326 0.209146 0.700697
0.669090 0.209146 0.700697
0.783073 0.218716 0.710415
0.885357 0.232588 0.724429
0.923930 0.245425 0.737325
0.105345 0.319431 0.700697
0.224177 0.319431 0.700697
0.338509 0.319431 0.700697
0.450932 0.319431 0.700697
0.561326 0.319431 0.700697
0.669090 0.319431 0.700697
0.783073 0.329225 0.710415
0.885357 0.343402 0.724429
0.923930 0.356503 0.737325
0.105345 0.429125 0.700697
0.224177 0.429125 0.700697
0.338509 0.429125 0.700697
0.450932 0.429125 0.700697
0.561326 0.429125 0.700697
0.669090 0.429125 0.700697
0.783073 0.439032 0.710415
0.885357 0.453356 0.724429
0.923930 0.466577 0.737325
0.105345 0.537871 0.700697
0.224177 0.537871 0.700697
0.338509 0.537871 0.700697
0.450932 0.537871 0.700697
0.561326 0.537871 0.700697
0.669090 0.537871 0.700697
0.783073 0.547789 0.710415
0.885357 0.562113 0.724429
0.923930 0.575315 0.737325
0.105345 0.644993 0.700697
0.224177 0.644993 0.700697
0.338509 0.644993 0.700697
0.450932 0.644993 0.700697
0.561326 0.644993 0.700697
0.669090 0.644993 0.700697
0.783073 0.654822 0.710415
0.885357 0.669003 0.724429
0.923930 0.682057 0.737325
0.111582 0.756242 0.707277
0.230685 0.756242 0.707277
0.345180 0.756242 0.707277
0.457677 0.756242 0.707277
0.568064 0.756242 0.707277
0.675746 0.756242 0.707277
0.783073 0.759355 0.710415
0.885357 0.773254 0.724429
0.923930 0.786032 0.737325
0.125020 0.868511 0.721373
0.244690 0.868511 0.721373
0.359517 0.868511 0.721373
0.472156 0.868511 0.721373
0.582512 0.868511 0.721373
0.690001 0.868511 0.721373
0.793882 0.868511 0.721373
0.885357 0.870730 0.724429
0.923930 0.879312 0.737325
0.138444 0.919817 0.735340
0.258652 0.919817 0.735340
0.373785 0.919817 0.735340
0.486543 0.919817 0.735340
0.596847 0.919817 0.735340
0.704123 0.919817 0.735340
0.807638 0.919817 0.735340
0.891094 0.919817 0.735340
0.923930 0.920335 0.737325
0.118881 0.110253 0.818261
0.238296 0.110253 0.818261
0.352974 0.110253 0.818261
0.465552 0.110253 0.818261
0.575924 0.110253 0.818261
0.683504 0.110253 0.818261
0.787547 0.110253 0.818261
0.885357 0.119316 0.827529
0.923930 0.131720 0.840122
0.118881 0.223195 0.818261
0.238296 0.223195 0.818261
0.352974 0.223195 0.818261
0.465552 0.223195 0.818261
0.575924 0.223195 0.818261
0.683504 0.223195 0.818261
0.787547 0.223195 0.818261
0.885357 0.232588 0.827529
0.923930 0.245425 0.840122
0.118881 0.333804 0.818261
0.238296 0.333804 0.818261
0.352974 0.333804 0.818261
0.465552 0.333804 0.818261
0.575924 0.333804 0.818261
0.683504 0.333804 0.818261
0.787547 0.333804 0.818261
0.885357 0.343402 0.827529
0.923930 0.356503 0.840122
0.118881 0.443661 0.818261
0.238296 0.443661 0.818261
0.352974 0.443661 0.818261
0.465552 0.443661 0.818261
0.575924 0.443661 0.818261
0.683504 0.443661 0.818261
0.787547 0.443661 0.818261
0.885357 0.453356 0.827529
0.923930 0.466577 0.840122
0.118881 0.552420 0.818261
0.238296 0.552420 0.818261
0.352974 0.552420 0.818261
0.465552 0.552420 0.818261
0.575924 0.552420 0.818261
0.683504 0.552420 0.818261
0.787547 0.552420 0.818261
0.885357 0.562113 0.827529
0.923930 0.575315 0.840122
0.118881 0.659409 0.818261
0.238296 0.659409 0.818261
0.352974 0.659409 0.818261
0.465552 0.659409 0.818261
0.575924 0.659409 0.818261
0.683504 0.659409 0.818261
0.787547 0.659409 0.818261
0.885357 0.669003 0.827529
0.923930 0.682057 0.840122
0.118881 0.763853 0.818261
0.238296 0.763853 0.818261
0.352974 0.763853 0.818261
0.465552 0.763853 0.818261
0.575924 0.763853 0.818261
0.683504 0.763853 0.818261
0.787547 0.763853 0.818261
0.885357 0.773254 0.827529
0.923930 0.786032 0.840122
0.125020 0.868511 0.824542
0.244690 0.868511 0.824542
0.359517 0.868511 0.824542
0.472156 0.868511 0.824542
0.582512 0.868511 0.824542
0.690001 0.868511 0.824542
0.793882 0.868511 0.824542
0.885357 0.870730 0.827529
0.923930 0.879312 0.840122
0.138444 0.919817 0.838185
0.258652 0.919817 0.838185
0.373785 0.919817 0.838185
0.486543 0.919817 0.838185
0.596847 0.919817 0.838185
0.704123 0.919817 0.838185
0.807638 0.919817 0.838185
0.891094 0.919817 0.838185
0.923930 0.920335 0.840122
0.132535 0.123901 0.903262
0.252510 0.123901 0.903262
0.367512 0.123901 0.903262
0.480220 0.123901 0.903262
0.590550 0.123901 0.903262
0.697922 0.123901 0.903262
0.801601 0.123901 0.903262
0.887944 0.123901 0.903262
0.923930 0.131720 0.906347
0.132535 0.237335 0.903262
0.252510 0.237335 0.903262
0.367512 0.237335 0.903262
0.480220 0.237335 0.903262
0.590550 0.237335 0.903262
0.697922 0.237335 0.903262
0.801601 0.237335 0.903262
0.887944 0.237335 0.903262
0.923930 0.245425 0.906347
0.132535 0.348249 0.903262
0.252510 0.348249 0.903262
0.367512 0.348249 0.903262
0.480220 0.348249 0.903262
0.590550 0.348249 0.903262
0.697922 0.348249 0.903262
0.801601 0.348249 0.903262
0.887944 0.348249 0.903262
0.923930 0.356503 0.906347
0.132535 0.458250 0.903262
0.252510 0.458250 0.903262
0.367512 0.458250 0.903262
0.480220 0.458250 0.903262
0.590550 0.458250 0.903262
0.697922 0.458250 0.903262
0.801601 0.458250 0.903262
0.887944 0.458250 0.903262
0.923930 0.466577 0.906347
0.132535 0.567002 0.903262
0.252510 0.567002 0.903262
0.367512 0.567002 0.903262
0.480220 0.567002 0.903262
0.590550 0.567002 0.903262
0.697922 0.567002 0.903262
0.801601 0.567002 0.903262
0.887944 0.567002 0.903262
0.923930 0.575315 0.906347
0.132535 0.673838 0.903262
0.252510 0.673838 0.903262
0.367512 0.673838 0.903262
0.480220 0.673838 0.903262
0.590550 0.673838 0.903262
0.697922 0.673838 0.903262
0.801601 0.673838 0.903262
0.887944 0.673838 0.903262
0.923930 0.682057 0.906347
0.132535 0.777989 0.903262
0.252510 0.777989 0.903262
0.367512 0.777989 0.903262
0.480220 0.777989 0.903262
0.590550 0.777989 0.903262
0.697922 0.777989 0.903262
0.801601 0.777989 0.903262
0.887944 0.777989 0.903262
0.923930 0.786032 0.906347
0.132535 0.874050 0.903262
0.252510 0.874050 0.903262
0.367512 0.874050 0.903262
0.480220 0.874050 0.903262
0.590550 0.874050 0.903262
0.697922 0.874050 0.903262
0.801601 0.874050 0.903262
0.887944 0.874050 0.903262
0.923930 0.879312 0.906347
0.138444 0.919817 0.905611
0.258652 0.919817 0.905611
0.373785 0.919817 0.905611
0.486543 0.919817 0.905611
0.596847 0.919817 0.905611
0.704123 0.919817 0.905611
0.807638 0.919817 0.905611
0.891094 0.919817 0.905611
0.923930 0.920335 0.906347
