assets/luts/leica_contemporary.cube
TITLE "leica_contemporary"
LUT_3D_SIZE 33
DOMAIN_MIN 0.0 0.0 0.0
DOMAIN_MAX 1.0 1.0 1.0
0.000000 0.000000 0.012000
0.027343 0.000547 0.012540
0.055439 0.001109 0.013095
0.084238 0.001685 0.013665
0.113687 0.002274 0.014246
0.143737 0.002875 0.014840
0.174337 0.003487 0.015445
0.205436 0.004109 0.016059
0.236983 0.004740 0.016683
0.268929 0.005379 0.017314
0.301221 0.006024 0.017952
0.333810 0.006676 0.018596
0.366644 0.007333 0.019245
0.399674 0.007993 0.019898
0.432847 0.008657 0.020553
0.466115 0.009322 0.021210
0.499425 0.009988 0.021869
0.532727 0.010655 0.022527
0.565970 0.011319 0.023184
0.599105 0.011982 0.023838
0.632079 0.012642 0.024490
0.664843 0.013297 0.025137
0.697346 0.013947 0.025780
0.729536 0.014591 0.026416
0.761363 0.015227 0.027045
0.792777 0.015856 0.027665
0.823727 0.016475 0.028277
0.854162 0.017083 0.028878
0.884032 0.017681 0.029468
0.913285 0.018266 0.030047
0.941871 0.018837 0.030611
0.969739 0.019395 0.031162
0.996840 0.019937 0.031698
0.000551 0.027560 0.012545
0.027348 0.027560 0.012545
0.055439 0.028118 0.013095
0.084238 0.028694 0.013665
0.113687 0.029283 0.014246
0.143737 0.029884 0.014840
0.174337 0.030496 0.015445
0.205436 0.031118 0.016059
0.236983 0.031749 0.016683
0.268929 0.032388 0.017314
0.301221 0.033034 0.017952
0.333810 0.033685 0.018596
0.366644 0.034342 0.019245
0.399674 0.035003 0.019898
0.432847 0.035666 0.020553
0.466115 0.036332 0.021210
0.499425 0.036998 0.021869
0.532727 0.037664 0.022527
0.565970 0.038329 0.023184
0.599105 0.038991 0.023838
0.632079 0.039651 0.024490
0.664843 0.040306 0.025137
0.697346 0.040956 0.025780
0.729536 0.041600 0.026416
0.761363 0.042236 0.027045
0.792777 0.042865 0.027665
0.823727 0.043484 0.028277
0.854162 0.044092 0.028878
0.884032 0.044690 0.029468
0.913285 0.045275 0.030047
0.941871 0.045847 0.030611
0.969739 0.046404 0.031162
0.996840 0.046946 0.031698
0.001117 0.055835 0.013103
0.027913 0.055835 0.013103
0.055447 0.055835 0.013103
0.084238 0.056403 0.013665
0.113687 0.056992 0.014246
0.143737 0.057593 0.014840
0.174337 0.058205 0.015445
0.205436 0.058827 0.016059
0.236983 0.059458 0.016683
0.268929 0.060097 0.017314
0.301221 0.060743 0.017952
0.333810 0.061394 0.018596
0.366644 0.062051 0.019245
0.399674 0.062712 0.019898
0.432847 0.063375 0.020553
0.466115 0.064041 0.021210
0.499425 0.064707 0.021869
0.532727 0.065373 0.022527
0.565970 0.066038 0.023184
0.599105 0.066700 0.023838
0.632079 0.067360 0.024490
0.664843 0.068015 0.025137
0.697346 0.068665 0.025780
0.729536 0.069309 0.026416
0.761363 0.069946 0.027045
0.792777 0.070574 0.027665
0.823727 0.071193 0.028277
0.854162 0.071802 0.028878
0.884032 0.072399 0.029468
0.913285 0.072984 0.030047
0.941871 0.073556 0.030611
0.969739 0.074113 0.031162
0.996840 0.074655 0.031698
0.001696 0.084776 0.013675
0.028492 0.084776 0.013675
0.056026 0.084776 0.013675
0.084248 0.084776 0.013675
0.113687 0.085354 0.014246
0.143737 0.085955 0.014840
0.174337 0.086567 0.015445
0.205436 0.087189 0.016059
0.236983 0.087820 0.016683
0.268929 0.088459 0.017314
0.301221 0.089105 0.017952
0.333810 0.089757 0.018596
0.366644 0.090413 0.019245
0.399674 0.091074 0.019898
0.432847 0.091737 0.020553
0.466115 0.092403 0.021210
0.499425 0.093069 0.021869
0.532727 0.093735 0.022527
0.565970 0.094400 0.023184
0.599105 0.095063 0.023838
0.632079 0.095722 0.024490
0.664843 0.096377 0.025137
0.697346 0.097027 0.025780
0.729536 0.097671 0.026416
0.761363 0.098308 0.027045
0.792777 0.098936 0.027665
0.823727 0.099555 0.028277
0.854162 0.100164 0.028878
0.884032 0.100761 0.029468
0.913285 0.101346 0.030047
0.941871 0.101918 0.030611
0.969739 0.102475 0.031162
0.996840 0.103017 0.031698
0.002287 0.114336 0.014259
0.029083 0.114336 0.014259
0.056617 0.114336 0.014259
0.084840 0.114336 0.014259
0.113700 0.114336 0.014259
0.143737 0.114924 0.014840
0.174337 0.115536 0.015445
0.205436 0.116158 0.016059
0.236983 0.116789 0.016683
0.268929 0.117428 0.017314
0.301221 0.118074 0.017952
0.333810 0.118725 0.018596
0.366644 0.119382 0.019245
0.399674 0.120043 0.019898
0.432847 0.120706 0.020553
0.466115 0.121372 0.021210
0.499425 0.122038 0.021869
0.532727 0.122704 0.022527
0.565970 0.123369 0.023184
0.599105 0.124031 0.023838
0.632079 0.124691 0.024490
0.664843 0.125346 0.025137
0.697346 0.125996 0.025780
0.729536 0.126640 0.026416
0.761363 0.127276 0.027045
0.792777 0.127905 0.027665
0.823727 0.128524 0.028277
0.854162 0.129132 0.028878
0.884032 0.129730 0.029468
0.913285 0.130315 0.030047
0.941871 0.130887 0.030611
0.969739 0.131444 0.031162
0.996840 0.131986 0.031698
0.002889 0.144467 0.014855
0.029686 0.144467 0.014855
0.057220 0.144467 0.014855
0.085442 0.144467 0.014855
0.114303 0.144467 0.014855
0.143752 0.144467 0.014855
0.174337 0.145065 0.015445
0.205436 0.145687 0.016059
0.236983 0.146317 0.016683
0.268929 0.146956 0.017314
0.301221 0.147602 0.017952
0.333810 0.148254 0.018596
0.366644 0.148911 0.019245
0.399674 0.149571 0.019898
0.432847 0.150235 0.020553
0.466115 0.150900 0.021210
0.499425 0.151566 0.021869
0.532727 0.152232 0.022527
0.565970 0.152897 0.023184
0.599105 0.153560 0.023838
0.632079 0.154219 0.024490
0.664843 0.154875 0.025137
0.697346 0.155525 0.025780
0.729536 0.156169 0.026416
0.761363 0.156805 0.027045
0.792777 0.157433 0.027665
0.823727 0.158052 0.028277
0.854162 0.158661 0.028878
0.884032 0.159258 0.029468
0.913285 0.159844 0.030047
0.941871 0.160415 0.030611
0.969739 0.160973 0.031162
0.996840 0.161515 0.031698
0.003502 0.175122 0.015460
0.030299 0.175122 0.015460
0.057833 0.175122 0.015460
0.086055 0.175122 0.015460
0.114916 0.175122 0.015460
0.144365 0.175122 0.015460
0.174352 0.175122 0.015460
0.205436 0.175728 0.016059
0.236983 0.176359 0.016683
0.268929 0.176998 0.017314
0.301221 0.177644 0.017952
0.333810 0.178296 0.018596
0.366644 0.178953 0.019245
0.399674 0.179613 0.019898
0.432847 0.180277 0.020553
0.466115 0.180942 0.021210
0.499425 0.181608 0.021869
0.532727 0.182274 0.022527
0.565970 0.182939 0.023184
0.599105 0.183602 0.023838
0.632079 0.184261 0.024490
0.664843 0.184916 0.025137
0.697346 0.185567 0.025780
0.729536 0.186210 0.026416
0.761363 0.186847 0.027045
0.792777 0.187475 0.027665
0.823727 0.188094 0.028277
0.854162 0.188703 0.028878
0.884032 0.189300 0.029468
0.913285 0.189885 0.030047
0.941871 0.190457 0.030611
0.969739 0.191014 0.031162
0.996840 0.191556 0.031698
0.004125 0.206253 0.016076
0.030922 0.206253 0.016076
0.058456 0.206253 0.016076
0.086678 0.206253 0.016076
0.115538 0.206253 0.016076
0.144987 0.206253 0.016076
0.174975 0.206253 0.016076
0.205452 0.206253 0.016076
0.236983 0.206868 0.016683
0.268929 0.207507 0.017314
0.301221 0.208152 0.017952
0.333810 0.208804 0.018596
0.366644 0.209461 0.019245
0.399674 0.210121 0.019898
0.432847 0.210785 0.020553
0.466115 0.211450 0.021210
0.499425 0.212116 0.021869
0.532727 0.212783 0.022527
0.565970 0.213447 0.023184
0.599105 0.214110 0.023838
0.632079 0.214770 0.024490
0.664843 0.215425 0.025137
0.697346 0.216075 0.025780
0.729536 0.216719 0.026416
0.761363 0.217355 0.027045
0.792777 0.217984 0.027665
0.823727 0.218603 0.028277
0.854162 0.219211 0.028878
0.884032 0.219809 0.029468
0.913285 0.220394 0.030047
0.941871 0.220965 0.030611
0.969739 0.221523 0.031162
0.996840 0.222065 0.031698
0.004756 0.237813 0.016699
0.031553 0.237813 0.016699
0.059087 0.237813 0.016699
0.087309 0.237813 0.016699
0.116169 0.237813 0.016699
0.145618 0.237813 0.016699
0.175606 0.237813 0.016699
0.206083 0.237813 0.016699
0.237000 0.237813 0.016699
0.268929 0.238435 0.017314
0.301221 0.239081 0.017952
0.333810 0.239732 0.018596
0.366644 0.240389 0.019245
0.399674 0.241050 0.019898
0.432847 0.241713 0.020553
0.466115 0.242379 0.021210
0.499425 0.243045 0.021869
0.532727 0.243711 0.022527
0.565970 0.244376 0.023184
0.599105 0.245038 0.023838
0.632079 0.245698 0.024490
0.664843 0.246353 0.025137
0.697346 0.247003 0.025780
0.729536 0.247647 0.026416
0.761363 0.248284 0.027045
0.792777 0.248912 0.027665
0.823727 0.249531 0.028277
0.854162 0.250139 0.028878
0.884032 0.250737 0.029468
0.913285 0.251322 0.030047
0.941871 0.251894 0.030611
0.969739 0.252451 0.031162
0.996840 0.252993 0.031698
0.005395 0.269753 0.017330
0.032192 0.269753 0.017330
0.059726 0.269753 0.017330
0.087948 0.269753 0.017330
0.116808 0.269753 0.017330
0.146257 0.269753 0.017330
0.176245 0.269753 0.017330
0.206722 0.269753 0.017330
0.237639 0.269753 0.017330
0.268945 0.269753 0.017330
0.301221 0.270382 0.017952
0.333810 0.271034 0.018596
0.366644 0.271691 0.019245
0.399674 0.272351 0.019898
0.432847 0.273015 0.020553
0.466115 0.273680 0.021210
0.499425 0.274346 0.021869
0.532727 0.275012 0.022527
0.565970 0.275677 0.023184
0.599105 0.276340 0.023838
0.632079 0.276999 0.024490
0.664843 0.277655 0.025137
0.697346 0.278305 0.025780
0.729536 0.278948 0.026416
0.761363 0.279585 0.027045
0.792777 0.280213 0.027665
0.823727 0.280832 0.028277
0.854162 0.281441 0.028878
0.884032 0.282038 0.029468
0.913285 0.282623 0.030047
0.941871 0.283195 0.030611
0.969739 0.283753 0.031162
0.996840 0.284295 0.031698
0.006041 0.302026 0.017968
0.032837 0.302026 0.017968
0.060371 0.302026 0.017968
0.088593 0.302026 0.017968
0.117454 0.302026 0.017968
0.146903 0.302026 0.017968
0.176891 0.302026 0.017968
0.207368 0.302026 0.017968
0.238284 0.302026 0.017968
0.269591 0.302026 0.017968
0.301237 0.302026 0.017968
0.333810 0.302662 0.018596
0.366644 0.303319 0.019245
0.399674 0.303979 0.019898
0.432847 0.304643 0.020553
0.466115 0.305308 0.021210
0.499425 0.305974 0.021869
0.532727 0.306640 0.022527
0.565970 0.307305 0.023184
0.599105 0.307968 0.023838
0.632079 0.308627 0.024490
0.664843 0.309283 0.025137
0.697346 0.309933 0.025780
0.729536 0.310577 0.026416
0.761363 0.311213 0.027045
0.792777 0.311841 0.027665
0.823727 0.312460 0.028277
0.854162 0.313069 0.028878
0.884032 0.313666 0.029468
0.913285 0.314252 0.030047
0.941871 0.314823 0.030611
0.969739 0.315381 0.031162
0.996840 0.315923 0.031698
0.006692 0.334586 0.018611
0.033488 0.334586 0.018611
0.061022 0.334586 0.018611
0.089245 0.334586 0.018611
0.118105 0.334586 0.018611
0.147554 0.334586 0.018611
0.177542 0.334586 0.018611
0.208019 0.334586 0.018611
0.238935 0.334586 0.018611
0.270242 0.334586 0.018611
0.301888 0.334586 0.018611
0.333825 0.334586 0.018611
0.366644 0.335227 0.019245
0.399674 0.335887 0.019898
0.432847 0.336551 0.020553
0.466115 0.337216 0.021210
0.499425 0.337882 0.021869
0.532727 0.338548 0.022527
0.565970 0.339213 0.023184
0.599105 0.339876 0.023838
0.632079 0.340535 0.024490
0.664843 0.341191 0.025137
0.697346 0.341841 0.025780
0.729536 0.342485 0.026416
0.761363 0.343121 0.027045
0.792777 0.343749 0.027665
0.823727 0.344368 0.028277
0.854162 0.344977 0.028878
0.884032 0.345574 0.029468
0.913285 0.346160 0.030047
0.941871 0.346731 0.030611
0.969739 0.347289 0.031162
0.996840 0.347831 0.031698
0.007348 0.367383 0.019259
0.034144 0.367383 0.019259
0.061678 0.367383 0.019259
0.089900 0.367383 0.019259
0.118761 0.367383 0.019259
0.148210 0.367383 0.019259
0.178198 0.367383 0.019259
0.208675 0.367383 0.019259
0.239591 0.367383 0.019259
0.270898 0.367383 0.019259
0.302544 0.367383 0.019259
0.334481 0.367383 0.019259
0.366659 0.367383 0.019259
0.399674 0.368029 0.019898
0.432847 0.368692 0.020553
0.466115 0.369357 0.021210
0.499425 0.370024 0.021869
0.532727 0.370690 0.022527
0.565970 0.371355 0.023184
0.599105 0.372017 0.023838
0.632079 0.372677 0.024490
0.664843 0.373332 0.025137
0.697346 0.373982 0.025780
0.729536 0.374626 0.026416
0.761363 0.375262 0.027045
0.792777 0.375891 0.027665
0.823727 0.376510 0.028277
0.854162 0.377118 0.028878
0.884032 0.377716 0.029468
0.913285 0.378301 0.030047
0.941871 0.378873 0.030611
0.969739 0.379430 0.031162
0.996840 0.379972 0.031698
0.008007 0.400370 0.019911
0.034804 0.400370 0.019911
0.062338 0.400370 0.019911
0.090560 0.400370 0.019911
0.119421 0.400370 0.019911
0.148870 0.400370 0.019911
0.178857 0.400370 0.019911
0.209335 0.400370 0.019911
0.240251 0.400370 0.019911
0.271558 0.400370 0.019911
0.303204 0.400370 0.019911
0.335141 0.400370 0.019911
0.367319 0.400370 0.019911
0.399688 0.400370 0.019911
0.432847 0.401020 0.020553
0.466115 0.401685 0.021210
0.499425 0.402352 0.021869
0.532727 0.403018 0.022527
0.565970 0.403682 0.023184
0.599105 0.404345 0.023838
0.632079 0.405005 0.024490
0.664843 0.405660 0.025137
0.697346 0.406310 0.025780
0.729536 0.406954 0.026416
0.761363 0.407590 0.027045
0.792777 0.408219 0.027665
0.823727 0.408838 0.028277
0.854162 0.409446 0.028878
0.884032 0.410044 0.029468
0.913285 0.410629 0.030047
0.941871 0.411200 0.030611
0.969739 0.411758 0.031162
0.996840 0.412300 0.031698
0.008670 0.433501 0.020566
0.035467 0.433501 0.020566
0.063001 0.433501 0.020566
0.091223 0.433501 0.020566
0.120083 0.433501 0.020566
0.149532 0.433501 0.020566
0.179520 0.433501 0.020566
0.209997 0.433501 0.020566
0.240914 0.433501 0.020566
0.272220 0.433501 0.020566
0.303867 0.433501 0.020566
0.335804 0.433501 0.020566
0.367981 0.433501 0.020566
0.400350 0.433501 0.020566
0.432860 0.433501 0.020566
0.466115 0.434153 0.021210
0.499425 0.434819 0.021869
0.532727 0.435485 0.022527
0.565970 0.436150 0.023184
0.599105 0.436813 0.023838
0.632079 0.437473 0.024490
0.664843 0.438128 0.025137
0.697346 0.438778 0.025780
0.729536 0.439422 0.026416
0.761363 0.440058 0.027045
0.792777 0.440687 0.027665
0.823727 0.441306 0.028277
0.854162 0.441914 0.028878
0.884032 0.442512 0.029468
0.913285 0.443097 0.030047
0.941871 0.443668 0.030611
0.969739 0.444226 0.031162
0.996840 0.444768 0.031698
0.009335 0.466727 0.021223
0.036131 0.466727 0.021223
0.063665 0.466727 0.021223
0.091887 0.466727 0.021223
0.120748 0.466727 0.021223
0.150197 0.466727 0.021223
0.180185 0.466727 0.021223
0.210662 0.466727 0.021223
0.241578 0.466727 0.021223
0.272885 0.466727 0.021223
0.304531 0.466727 0.021223
0.336468 0.466727 0.021223
0.368646 0.466727 0.021223
0.401015 0.466727 0.021223
0.433525 0.466727 0.021223
0.466127 0.466727 0.021223
0.499425 0.467381 0.021869
0.532727 0.468047 0.022527
0.565970 0.468712 0.023184
0.599105 0.469374 0.023838
0.632079 0.470034 0.024490
0.664843 0.470689 0.025137
0.697346 0.471339 0.025780
0.729536 0.471983 0.026416
0.761363 0.472619 0.027045
0.792777 0.473248 0.027665
0.823727 0.473867 0.028277
0.854162 0.474475 0.028878
0.884032 0.475073 0.029468
0.913285 0.475658 0.030047
0.941871 0.476230 0.030611
0.969739 0.476787 0.031162
0.996840 0.477329 0.031698
0.010000 0.500000 0.021880
0.036797 0.500000 0.021880
0.064331 0.500000 0.021880
0.092553 0.500000 0.021880
0.121413 0.500000 0.021880
0.150862 0.500000 0.021880
0.180850 0.500000 0.021880
0.211327 0.500000 0.021880
0.242244 0.500000 0.021880
0.273550 0.500000 0.021880
0.305197 0.500000 0.021880
0.337134 0.500000 0.021880
0.369311 0.500000 0.021880
0.401680 0.500000 0.021880
0.434190 0.500000 0.021880
0.466792 0.500000 0.021880
0.499436 0.500000 0.021880
0.532727 0.500655 0.022527
0.565970 0.501319 0.023184
0.599105 0.501982 0.023838
0.632079 0.502642 0.024490
0.664843 0.503297 0.025137
0.697346 0.503947 0.025780
0.729536 0.504591 0.026416
0.761363 0.505227 0.027045
0.792777 0.505856 0.027665
0.823727 0.506475 0.028277
0.854162 0.507083 0.028878
0.884032 0.507681 0.029468
0.913285 0.508266 0.030047
0.941871 0.508837 0.030611
0.969739 0.509395 0.031162
0.996840 0.509937 0.031698
0.010665 0.533273 0.022537
0.037462 0.533273 0.022537
0.064996 0.533273 0.022537
0.093218 0.533273 0.022537
0.122079 0.533273 0.022537
0.151528 0.533273 0.022537
0.181515 0.533273 0.022537
0.211993 0.533273 0.022537
0.242909 0.533273 0.022537
0.274216 0.533273 0.022537
0.305862 0.533273 0.022537
0.337799 0.533273 0.022537
0.369977 0.533273 0.022537
0.402346 0.533273 0.022537
0.434856 0.533273 0.022537
0.467458 0.533273 0.022537
0.500102 0.533273 0.022537
0.532738 0.533273 0.022537
0.565970 0.533927 0.023184
0.599105 0.534590 0.023838
0.632079 0.535249 0.024490
0.664843 0.535905 0.025137
0.697346 0.536555 0.025780
0.729536 0.537199 0.026416
0.761363 0.537835 0.027045
0.792777 0.538463 0.027665
0.823727 0.539082 0.028277
0.854162 0.539691 0.028878
0.884032 0.540288 0.029468
0.913285 0.540874 0.030047
0.941871 0.541445 0.030611
0.969739 0.542003 0.031162
0.996840 0.542545 0.031698
0.011330 0.566499 0.023194
0.038126 0.566499 0.023194
0.065661 0.566499 0.023194
0.093883 0.566499 0.023194
0.122743 0.566499 0.023194
0.152192 0.566499 0.023194
0.182180 0.566499 0.023194
0.212657 0.566499 0.023194
0.243574 0.566499 0.023194
0.274880 0.566499 0.023194
0.306527 0.566499 0.023194
0.338464 0.566499 0.023194
0.370641 0.566499 0.023194
0.403010 0.566499 0.023194
0.435520 0.566499 0.023194
0.468122 0.566499 0.023194
0.500766 0.566499 0.023194
0.533402 0.566499 0.023194
0.565981 0.566499 0.023194
0.599105 0.567151 0.023838
0.632079 0.567811 0.024490
0.664843 0.568466 0.025137
0.697346 0.569116 0.025780
0.729536 0.569760 0.026416
0.761363 0.570396 0.027045
0.792777 0.571025 0.027665
0.823727 0.571644 0.028277
0.854162 0.572252 0.028878
0.884032 0.572850 0.029468
0.913285 0.573435 0.030047
0.941871 0.574006 0.030611
0.969739 0.574564 0.031162
0.996840 0.575106 0.031698
0.011993 0.599630 0.023849
0.038789 0.599630 0.023849
0.066323 0.599630 0.023849
0.094545 0.599630 0.023849
0.123406 0.599630 0.023849
0.152855 0.599630 0.023849
0.182843 0.599630 0.023849
0.213320 0.599630 0.023849
0.244236 0.599630 0.023849
0.275543 0.599630 0.023849
0.307189 0.599630 0.023849
0.339126 0.599630 0.023849
0.371304 0.599630 0.023849
0.403673 0.599630 0.023849
0.436183 0.599630 0.023849
0.468785 0.599630 0.023849
0.501429 0.599630 0.023849
0.534065 0.599630 0.023849
0.566644 0.599630 0.023849
0.599115 0.599630 0.023849
0.632079 0.600279 0.024490
0.664843 0.600934 0.025137
0.697346 0.601584 0.025780
0.729536 0.602228 0.026416
0.761363 0.602864 0.027045
0.792777 0.603492 0.027665
0.823727 0.604111 0.028277
0.854162 0.604720 0.028878
0.884032 0.605318 0.029468
0.913285 0.605903 0.030047
0.941871 0.606474 0.030611
0.969739 0.607032 0.031162
0.996840 0.607574 0.031698
0.012652 0.632617 0.024501
0.039449 0.632617 0.024501
0.066983 0.632617 0.024501
0.095205 0.632617 0.024501
0.124066 0.632617 0.024501
0.153515 0.632617 0.024501
0.183502 0.632617 0.024501
0.213979 0.632617 0.024501
0.244896 0.632617 0.024501
0.276202 0.632617 0.024501
0.307849 0.632617 0.024501
0.339786 0.632617 0.024501
0.371964 0.632617 0.024501
0.404333 0.632617 0.024501
0.436843 0.632617 0.024501
0.469445 0.632617 0.024501
0.502088 0.632617 0.024501
0.534725 0.632617 0.024501
0.567303 0.632617 0.024501
0.599775 0.632617 0.024501
0.632090 0.632617 0.024501
0.664843 0.633262 0.025137
0.697346 0.633912 0.025780
0.729536 0.634556 0.026416
0.761363 0.635192 0.027045
0.792777 0.635820 0.027665
0.823727 0.636439 0.028277
0.854162 0.637048 0.028878
0.884032 0.637645 0.029468
0.913285 0.638231 0.030047
0.941871 0.638802 0.030611
0.969739 0.639360 0.031162
0.996840 0.639902 0.031698
0.013308 0.665414 0.025149
0.040105 0.665414 0.025149
0.067639 0.665414 0.025149
0.095861 0.665414 0.025149
0.124721 0.665414 0.025149
0.154170 0.665414 0.025149
0.184158 0.665414 0.025149
0.214635 0.665414 0.025149
0.245552 0.665414 0.025149
0.276858 0.665414 0.025149
0.308505 0.665414 0.025149
0.340442 0.665414 0.025149
0.372620 0.665414 0.025149
0.404988 0.665414 0.025149
0.437499 0.665414 0.025149
0.470101 0.665414 0.025149
0.502744 0.665414 0.025149
0.535381 0.665414 0.025149
0.567959 0.665414 0.025149
0.600431 0.665414 0.025149
0.632746 0.665414 0.025149
0.664855 0.665414 0.025149
0.697346 0.666053 0.025780
0.729536 0.666697 0.026416
0.761363 0.667333 0.027045
0.792777 0.667962 0.027665
0.823727 0.668581 0.028277
0.854162 0.669189 0.028878
0.884032 0.669787 0.029468
0.913285 0.670372 0.030047
0.941871 0.670944 0.030611
0.969739 0.671501 0.031162
0.996840 0.672043 0.031698
0.013959 0.697974 0.025792
0.040756 0.697974 0.025792
0.068290 0.697974 0.025792
0.096512 0.697974 0.025792
0.125373 0.697974 0.025792
0.154822 0.697974 0.025792
0.184810 0.697974 0.025792
0.215287 0.697974 0.025792
0.246203 0.697974 0.025792
0.277510 0.697974 0.025792
0.309156 0.697974 0.025792
0.341093 0.697974 0.025792
0.373271 0.697974 0.025792
0.405640 0.697974 0.025792
0.438150 0.697974 0.025792
0.470752 0.697974 0.025792
0.503396 0.697974 0.025792
0.536032 0.697974 0.025792
0.568611 0.697974 0.025792
0.601082 0.697974 0.025792
0.633397 0.697974 0.025792
0.665506 0.697974 0.025792
0.697358 0.697974 0.025792
0.729536 0.698605 0.026416
0.761363 0.699241 0.027045
0.792777 0.699870 0.027665
0.823727 0.700489 0.028277
0.854162 0.701097 0.028878
0.884032 0.701695 0.029468
0.913285 0.702280 0.030047
0.941871 0.702852 0.030611
0.969739 0.703409 0.031162
0.996840 0.703951 0.031698
0.014605 0.730247 0.026430
0.041401 0.730247 0.026430
0.068936 0.730247 0.026430
0.097158 0.730247 0.026430
0.126018 0.730247 0.026430
0.155467 0.730247 0.026430
0.185455 0.730247 0.026430
0.215932 0.730247 0.026430
0.246849 0.730247 0.026430
0.278155 0.730247 0.026430
0.309802 0.730247 0.026430
0.341739 0.730247 0.026430
0.373916 0.730247 0.026430
0.406285 0.730247 0.026430
0.438795 0.730247 0.026430
0.471397 0.730247 0.026430
0.504041 0.730247 0.026430
0.536677 0.730247 0.026430
0.569256 0.730247 0.026430
0.601728 0.730247 0.026430
0.634043 0.730247 0.026430
0.666151 0.730247 0.026430
0.698004 0.730247 0.026430
0.729550 0.730247 0.026430
0.761363 0.730870 0.027045
0.792777 0.731498 0.027665
0.823727 0.732117 0.028277
0.854162 0.732725 0.028878
0.884032 0.733323 0.029468
0.913285 0.733908 0.030047
0.941871 0.734480 0.030611
0.969739 0.735037 0.031162
0.996840 0.735579 0.031698
0.015244 0.762188 0.027061
0.042040 0.762188 0.027061
0.069574 0.762188 0.027061
0.097797 0.762188 0.027061
0.126657 0.762188 0.027061
0.156106 0.762188 0.027061
0.186094 0.762188 0.027061
0.216571 0.762188 0.027061
0.247487 0.762188 0.027061
0.278794 0.762188 0.027061
0.310440 0.762188 0.027061
0.342377 0.762188 0.027061
0.374555 0.762188 0.027061
0.406924 0.762188 0.027061
0.439434 0.762188 0.027061
0.472036 0.762188 0.027061
0.504680 0.762188 0.027061
0.537316 0.762188 0.027061
0.569895 0.762188 0.027061
0.602367 0.762188 0.027061
0.634681 0.762188 0.027061
0.666790 0.762188 0.027061
0.698642 0.762188 0.027061
0.730189 0.762188 0.027061
0.761380 0.762188 0.027061
0.792777 0.762799 0.027665
0.823727 0.763418 0.028277
0.854162 0.764027 0.028878
0.884032 0.764624 0.029468
0.913285 0.765209 0.030047
0.941871 0.765781 0.030611
0.969739 0.766339 0.031162
0.996840 0.766881 0.031698
0.015875 0.793747 0.027684
0.042671 0.793747 0.027684
0.070206 0.793747 0.027684
0.098428 0.793747 0.027684
0.127288 0.793747 0.027684
0.156737 0.793747 0.027684
0.186725 0.793747 0.027684
0.217202 0.793747 0.027684
0.248119 0.793747 0.027684
0.279425 0.793747 0.027684
0.311072 0.793747 0.027684
0.343009 0.793747 0.027684
0.375186 0.793747 0.027684
0.407555 0.793747 0.027684
0.440065 0.793747 0.027684
0.472667 0.793747 0.027684
0.505311 0.793747 0.027684
0.537947 0.793747 0.027684
0.570526 0.793747 0.027684
0.602998 0.793747 0.027684
0.635313 0.793747 0.027684
0.667421 0.793747 0.027684
0.699274 0.793747 0.027684
0.730820 0.793747 0.027684
0.762011 0.793747 0.027684
0.792797 0.793747 0.027684
0.823727 0.794347 0.028277
0.854162 0.794955 0.028878
0.884032 0.795553 0.029468
0.913285 0.796138 0.030047
0.941871 0.796709 0.030611
0.969739 0.797267 0.031162
0.996840 0.797809 0.031698
0.016498 0.824878 0.028300
0.043294 0.824878 0.028300
0.070828 0.824878 0.028300
0.099050 0.824878 0.028300
0.127911 0.824878 0.028300
0.157360 0.824878 0.028300
0.187348 0.824878 0.028300
0.217825 0.824878 0.028300
0.248741 0.824878 0.028300
0.280048 0.824878 0.028300
0.311694 0.824878 0.028300
0.343631 0.824878 0.028300
0.375809 0.824878 0.028300
0.408178 0.824878 0.028300
0.440688 0.824878 0.028300
0.473290 0.824878 0.028300
0.505934 0.824878 0.028300
0.538570 0.824878 0.028300
0.571149 0.824878 0.028300
0.603620 0.824878 0.028300
0.635935 0.824878 0.028300
0.668044 0.824878 0.028300
0.699896 0.824878 0.028300
0.731443 0.824878 0.028300
0.762634 0.824878 0.028300
0.793420 0.824878 0.028300
0.823750 0.824878 0.028300
