assets/luts/leica_bw.cube
TITLE "leica_bw"
LUT_3D_SIZE 5
DOMAIN_MIN 0.0 0.0 0.0
DOMAIN_MAX 1.0 1.0 1.0
0.018000 0.018000 0.018000
0.064275 0.064275 0.064275
0.112149 0.112149 0.112149
0.161432 0.161432 0.161432
0.211935 0.211935 0.211935
0.179687 0.179687 0.179687
0.230587 0.230587 0.230587
0.282445 0.282445 0.282445
0.335073 0.335073 0.335073
0.388280 0.388280 0.388280
0.354387 0.354387 0.354387
0.407758 0.407758 0.407758
0.461448 0.461448 0.461448
0.515267 0.515267 0.515267
0.569025 0.569025 0.569025
0.534856 0.534856 0.534856
0.588545 0.588545 0.588545
0.641913 0.641913 0.641913
0.694770 0.694770 0.694770
0.746927 0.746927 0.746927
0.713850 0.713850 0.713850
0.765704 0.765704 0.765704
0.816597 0.816597 0.816597
0.866339 0.866339 0.866339
0.914740 0.914740 0.914740
0.033524 0.033524 0.033524
0.080363 0.080363 0.080363
0.128737 0.128737 0.128737
0.178456 0.178456 0.178456
0.229329 0.229329 0.229329
0.196854 0.196854 0.196854
0.248100 0.248100 0.248100
0.300241 0.300241 0.300241
0.353087 0.353087 0.353087
0.406448 0.406448 0.406448
0.372464 0.372464 0.372464
0.425965 0.425965 0.425965
0.479720 0.479720 0.479720
0.533540 0.533540 0.533540
0.587234 0.587234 0.587234
0.553113 0.553113 0.553113
0.606714 0.606714 0.606714
0.659930 0.659930 0.659930
0.712571 0.712571 0.712571
0.764446 0.764446 0.764446
0.731555 0.731555 0.731555
0.783104 0.783104 0.783104
0.833628 0.833628 0.833628
0.882936 0.882936 0.882936
0.930839 0.930839 0.930839
0.049247 0.049247 0.049247
0.096629 0.096629 0.096629
0.145481 0.145481 0.145481
0.195613 0.195613 0.195613
0.246835 0.246835 0.246835
0.214145 0.214145 0.214145
0.265717 0.265717 0.265717
0.318119 0.318119 0.318119
0.371161 0.371161 0.371161
0.424652 0.424652 0.424652
0.390593 0.390593 0.390593
0.444201 0.444201 0.444201
0.498000 0.498000 0.498000
0.551799 0.551799 0.551799
0.605407 0.605407 0.605407
0.571348 0.571348 0.571348
0.624839 0.624839 0.624839
0.677881 0.677881 0.677881
0.730283 0.730283 0.730283
0.781855 0.781855 0.781855
0.749165 0.749165 0.749165
0.800387 0.800387 0.800387
0.850519 0.850519 0.850519
0.899371 0.899371 0.899371
0.946753 0.946753 0.946753
0.065161 0.065161 0.065161
0.113064 0.113064 0.113064
0.162372 0.162372 0.162372
0.212896 0.212896 0.212896
0.264445 0.264445 0.264445
0.231554 0.231554 0.231554
0.283429 0.283429 0.283429
0.336070 0.336070 0.336070
0.389286 0.389286 0.389286
0.442887 0.442887 0.442887
0.408766 0.408766 0.408766
0.462460 0.462460 0.462460
0.516280 0.516280 0.516280
0.570035 0.570035 0.570035
0.623536 0.623536 0.623536
0.589552 0.589552 0.589552
0.642913 0.642913 0.642913
0.695759 0.695759 0.695759
0.747900 0.747900 0.747900
0.799146 0.799146 0.799146
0.766671 0.766671 0.766671
0.817544 0.817544 0.817544
0.867263 0.867263 0.867263
0.915637 0.915637 0.915637
0.962476 0.962476 0.962476
0.081260 0.081260 0.081260
0.129661 0.129661 0.129661
0.179403 0.179403 0.179403
0.230296 0.230296 0.230296
0.282150 0.282150 0.282150
0.249073 0.249073 0.249073
0.301230 0.301230 0.301230
0.354087 0.354087 0.354087
0.407455 0.407455 0.407455
0.461144 0.461144 0.461144
0.426975 0.426975 0.426975
0.480733 0.480733 0.480733
0.534552 0.534552 0.534552
0.588242 0.588242 0.588242
0.641613 0.641613 0.641613
0.607720 0.607720 0.607720
0.660927 0.660927 0.660927
0.713555 0.713555 0.713555
0.765413 0.765413 0.765413
0.816313 0.816313 0.816313
0.784065 0.784065 0.784065
0.834568 0.834568 0.834568
0.883851 0.883851 0.883851
0.931725 0.931725 0.931725
0.978000 0.978000 0.978000
