assets/luts/leica_artist.cube
TITLE "leica_artist"
LUT_3D_SIZE 9
DOMAIN_MIN 0.0 0.0 0.0
DOMAIN_MAX 1.0 1.0 1.0
0.005747 0.031127 0.074819
0.064226 0.028623 0.068751
0.189330 0.035908 0.072752
0.320928 0.043509 0.077053
0.456111 0.051144 0.081363
0.592254 0.058812 0.085681
0.726735 0.066512 0.090007
0.856930 0.074243 0.094341
0.980217 0.082005 0.098682
0.010575 0.138536 0.061159
0.083496 0.136205 0.055431
0.205363 0.139605 0.055261
0.337549 0.147600 0.059528
0.472993 0.155621 0.063803
0.609072 0.163666 0.068087
0.743164 0.171736 0.072379
0.872645 0.179829 0.076679
0.994892 0.187945 0.080988
0.019051 0.254953 0.051353
0.106499 0.252531 0.045652
0.223688 0.250110 0.039967
0.354219 0.256178 0.042147
0.489884 0.264480 0.046386
0.625860 0.272798 0.050634
0.758625 0.281476 0.055849
0.882766 0.291684 0.065313
1.000000 0.301915 0.074819
0.027577 0.374956 0.041594
0.129776 0.372478 0.035920
0.248072 0.370000 0.030264
0.368203 0.368883 0.027719
0.499000 0.379246 0.037051
0.629922 0.389623 0.046428
0.758625 0.400012 0.055849
0.882766 0.410412 0.065313
1.000000 0.420821 0.074819
0.036314 0.499100 0.037051
0.145439 0.499100 0.037051
0.260145 0.499100 0.037051
0.378607 0.499100 0.037051
0.499000 0.499100 0.037051
0.629922 0.509550 0.046428
0.758625 0.520000 0.055849
0.882766 0.530448 0.065313
1.000000 0.540894 0.074819
0.045535 0.629430 0.046428
0.155218 0.629430 0.046428
0.270323 0.629430 0.046428
0.389026 0.629430 0.046428
0.509500 0.629430 0.046428
0.629922 0.629430 0.046428
0.758625 0.639798 0.055849
0.882766 0.650152 0.065313
1.000000 0.660491 0.074819
0.054811 0.757763 0.055849
0.165038 0.757763 0.055849
0.280529 0.757763 0.055849
0.399458 0.757763 0.055849
0.520000 0.757763 0.055849
0.640331 0.757763 0.055849
0.758625 0.757763 0.055849
0.886347 0.769554 0.065594
1.000000 0.780966 0.074819
0.064141 0.881989 0.065313
0.174898 0.881989 0.065313
0.290760 0.881989 0.065313
0.410809 0.882343 0.065340
0.535791 0.884047 0.065474
0.660289 0.885749 0.065607
0.782273 0.887450 0.065740
0.900561 0.890008 0.066713
1.000000 0.899805 0.074819
0.075695 1.000000 0.074819
0.191093 1.000000 0.074819
0.311682 1.000000 0.074819
0.435439 1.000000 0.074819
0.560340 1.000000 0.074819
0.684360 1.000000 0.074819
0.805475 1.000000 0.074819
0.921663 1.000000 0.074819
1.000000 1.000000 0.074819
0.014618 0.039541 0.194629
0.074852 0.037024 0.188284
0.190944 0.035335 0.182833
0.322604 0.042935 0.187316
0.457815 0.050567 0.191805
0.593953 0.058232 0.196300
0.728397 0.065930 0.200800
0.858522 0.073658 0.205307
0.981705 0.081418 0.209819
0.013065 0.140494 0.173333
0.087218 0.137850 0.167030
0.206987 0.139003 0.164578
0.339229 0.146996 0.169035
0.474698 0.155015 0.173498
0.610769 0.163058 0.177968
0.744819 0.171126 0.182444
0.874226 0.179218 0.186926
0.996365 0.187332 0.191414
0.018992 0.254130 0.160301
0.107869 0.251708 0.154339
0.225125 0.249288 0.148388
0.355904 0.255553 0.150862
0.491590 0.263853 0.155298
0.627553 0.272170 0.159741
0.758625 0.281476 0.167030
0.882766 0.291684 0.176918
1.000000 0.301915 0.186837
0.027517 0.374114 0.150091
0.131162 0.371636 0.144150
0.249520 0.369159 0.138221
0.368203 0.368883 0.137562
0.499000 0.379246 0.147351
0.629922 0.389623 0.157174
0.758625 0.400012 0.167030
0.882766 0.410412 0.176918
1.000000 0.420821 0.186837
0.036314 0.499100 0.147351
0.145439 0.499100 0.147351
0.260145 0.499100 0.147351
0.378607 0.499100 0.147351
0.499000 0.499100 0.147351
0.629922 0.509550 0.157174
0.758625 0.520000 0.167030
0.882766 0.530448 0.176918
1.000000 0.540894 0.186837
0.045535 0.629430 0.157174
0.155218 0.629430 0.157174
0.270323 0.629430 0.157174
0.389026 0.629430 0.157174
0.509500 0.629430 0.157174
0.629922 0.629430 0.157174
0.758625 0.639798 0.167030
0.882766 0.650152 0.176918
1.000000 0.660491 0.186837
0.054811 0.757763 0.167030
0.165038 0.757763 0.167030
0.280529 0.757763 0.167030
0.399458 0.757763 0.167030
0.520000 0.757763 0.167030
0.640331 0.757763 0.167030
0.759441 0.758128 0.166217
0.887786 0.770228 0.171660
1.000000 0.781518 0.176354
0.064141 0.881989 0.176918
0.174898 0.881989 0.176918
0.290760 0.881989 0.176918
0.412290 0.882922 0.174371
0.537279 0.884625 0.169723
0.661759 0.886327 0.165082
0.783701 0.888028 0.160448
0.901991 0.890654 0.156762
1.000000 0.900333 0.160271
0.076986 1.000000 0.182457
0.192455 1.000000 0.177658
0.313093 1.000000 0.172866
0.436874 1.000000 0.168082
0.561776 1.000000 0.163305
0.685774 1.000000 0.158535
0.806844 1.000000 0.153773
0.922963 1.000000 0.149020
1.000000 1.000000 0.144273
0.023547 0.047996 0.318840
0.085544 0.045467 0.312310
0.201334 0.042942 0.305788
0.324280 0.042360 0.301403
0.459518 0.049990 0.306015
0.595652 0.057653 0.310632
0.730058 0.065348 0.315252
0.860112 0.073074 0.319875
0.983192 0.080832 0.324502
0.021983 0.149371 0.296904
0.097983 0.146717 0.290400
0.214423 0.144067 0.283905
0.340910 0.146392 0.282593
0.476403 0.154409 0.287189
0.612465 0.162451 0.291789
0.746473 0.170517 0.296394
0.875805 0.178606 0.301002
0.997837 0.186719 0.305614
0.020421 0.254967 0.275058
0.110505 0.252221 0.268582
0.227570 0.249478 0.262116
0.357590 0.254927 0.263854
0.493296 0.263226 0.268432
0.629245 0.271542 0.273015
0.758625 0.281476 0.282423
0.882766 0.291684 0.292608
1.000000 0.301915 0.302813
0.027458 0.373273 0.262861
0.132548 0.370795 0.256725
0.249995 0.368883 0.251996
0.368203 0.368883 0.251996
0.499000 0.379246 0.262116
0.629922 0.389623 0.272259
0.758625 0.400012 0.282423
0.882766 0.410412 0.292608
1.000000 0.420821 0.302813
0.036314 0.499100 0.262116
0.145439 0.499100 0.262116
0.260145 0.499100 0.262116
0.378607 0.499100 0.262116
0.499000 0.499100 0.262116
0.629922 0.509550 0.272259
0.758625 0.520000 0.282423
0.882766 0.530448 0.292608
1.000000 0.540894 0.302813
0.045535 0.629430 0.272259
0.155218 0.629430 0.272259
0.270323 0.629430 0.272259
0.389026 0.629430 0.272259
0.509500 0.629430 0.272259
0.629922 0.629430 0.272259
0.758625 0.639798 0.282423
0.882766 0.650152 0.292608
1.000000 0.660491 0.302813
0.054811 0.757763 0.282423
0.165038 0.757763 0.282423
0.280529 0.757763 0.282423
0.399458 0.757763 0.282423
0.520000 0.757763 0.282423
0.640331 0.757763 0.282423
0.760951 0.758803 0.280034
0.889225 0.770901 0.285641
1.000000 0.782069 0.290351
0.064141 0.881989 0.292608
0.174898 0.881989 0.292608
0.290760 0.881989 0.292608
0.413772 0.883501 0.288358
0.538766 0.885203 0.283572
0.663228 0.886905 0.278791
0.785128 0.888605 0.274014
0.903419 0.891300 0.270285
1.000000 0.900861 0.273783
0.078278 1.000000 0.296630
0.193818 1.000000 0.291693
0.314503 1.000000 0.286761
0.438309 1.000000 0.281833
0.563212 1.000000 0.276911
0.687188 1.000000 0.271993
0.808213 1.000000 0.267081
0.924263 1.000000 0.262174
1.000000 1.000000 0.257272
0.032531 0.056491 0.445672
0.096299 0.053951 0.439051
0.212653 0.051414 0.432431
0.333819 0.048880 0.425815
0.461222 0.049413 0.422604
0.597351 0.057074 0.427286
0.731718 0.064766 0.431970
0.861701 0.072490 0.436655
0.984677 0.080245 0.441342
0.030957 0.158278 0.423407
0.108810 0.155616 0.416795
0.225792 0.152956 0.410186
0.347365 0.150299 0.403581
0.478108 0.153803 0.403485
0.614160 0.161843 0.408160
0.748126 0.169907 0.412837
0.877383 0.177995 0.417516
0.999307 0.186106 0.422197
0.029386 0.264177 0.401177
0.121401 0.261425 0.394577
0.238987 0.258675 0.387981
0.360942 0.255927 0.381390
0.495001 0.262599 0.384398
0.629922 0.271291 0.390220
0.758625 0.281476 0.400566
0.882766 0.291684 0.410921
1.000000 0.301915 0.421286
0.027816 0.372904 0.378991
0.134069 0.370096 0.372406
0.249995 0.368883 0.369563
0.368203 0.368883 0.369563
0.499000 0.379246 0.379886
0.629922 0.389623 0.390220
0.758625 0.400012 0.400566
0.882766 0.410412 0.410921
1.000000 0.420821 0.421285
0.036314 0.499100 0.379886
0.145439 0.499100 0.379886
0.260145 0.499100 0.379886
0.378607 0.499100 0.379886
0.499000 0.499100 0.379886
0.629922 0.509550 0.390220
0.758625 0.520000 0.400566
0.882766 0.530448 0.410921
1.000000 0.540894 0.421285
0.045535 0.629430 0.390221
0.155218 0.629430 0.390220
0.270323 0.629430 0.390221
0.389026 0.629430 0.390220
0.509500 0.629430 0.390220
0.629922 0.629430 0.390220
0.758625 0.639798 0.400566
0.882766 0.650152 0.410921
1.000000 0.660491 0.421285
0.054811 0.757763 0.400566
0.165038 0.757763 0.400566
0.280529 0.757763 0.400566
0.399458 0.757763 0.400566
0.520000 0.757763 0.400566
0.640331 0.757763 0.400566
0.762460 0.759479 0.396558
0.890662 0.771575 0.402260
1.000000 0.782621 0.406925
0.064141 0.881989 0.410921
0.174898 0.881989 0.410921
0.291730 0.882375 0.409817
0.415254 0.884079 0.404949
0.540254 0.885781 0.400083
0.664698 0.887482 0.395219
0.786554 0.889182 0.390357
0.904847 0.891945 0.386635
1.000000 0.901389 0.390073
0.079571 1.000000 0.413304
0.195182 1.000000 0.408288
0.315914 1.000000 0.403276
0.439744 1.000000 0.398265
0.564648 1.000000 0.393256
0.688602 1.000000 0.388251
0.809581 1.000000 0.383247
0.925562 1.000000 0.378246
1.000000 1.000000 0.373249
0.041569 0.065026 0.573348
0.107116 0.062474 0.566726
0.224015 0.059925 0.560102
0.345534 0.057380 0.553476
0.469657 0.054838 0.546848
0.599049 0.056495 0.544873
0.733378 0.064185 0.549565
0.863289 0.071906 0.554257
0.986160 0.079659 0.558947
0.039987 0.167216 0.551063
0.119696 0.164545 0.544435
0.237203 0.161876 0.537805
0.359107 0.159210 0.531174
0.483394 0.156546 0.524542
0.615855 0.161236 0.525690
0.749779 0.169298 0.530384
0.878960 0.177384 0.535079
1.000000 0.185817 0.540795
0.038406 0.273408 0.528760
0.132355 0.270650 0.522128
0.250444 0.267893 0.515495
0.372709 0.265139 0.508862
0.497135 0.262387 0.502229
0.629922 0.271291 0.509600
0.758625 0.281476 0.520000
0.882766 0.291684 0.530399
1.000000 0.301915 0.540795
0.036826 0.382318 0.506447
0.145088 0.379506 0.499814
0.260145 0.379246 0.499200
0.378607 0.379246 0.499200
0.499000 0.379246 0.499200
0.629922 0.389623 0.509600
0.758625 0.400012 0.520000
0.882766 0.410412 0.530399
1.000000 0.420821 0.540795
0.036314 0.499100 0.499200
0.145439 0.499100 0.499200
0.260145 0.499100 0.499200
0.378607 0.499100 0.499200
0.499000 0.499100 0.499200
0.629922 0.509550 0.509600
0.758625 0.520000 0.520000
0.882766 0.530448 0.530399
1.000000 0.540894 0.540795
0.045535 0.629430 0.509600
0.155218 0.629430 0.509600
0.270323 0.629430 0.509600
0.389026 0.629430 0.509600
0.509500 0.629430 0.509600
0.629922 0.629430 0.509600
0.758625 0.639798 0.520000
0.882766 0.650152 0.530399
1.000000 0.660491 0.540795
0.054811 0.757763 0.520000
0.165038 0.757763 0.520000
0.280529 0.757763 0.520000
0.399458 0.757763 0.520000
0.520000 0.757763 0.520000
0.641209 0.758122 0.519011
0.763969 0.760154 0.514386
0.892098 0.772248 0.520116
1.000000 0.783172 0.524678
0.064141 0.881989 0.530399
0.174898 0.881989 0.530399
0.293182 0.882954 0.527631
0.416737 0.884657 0.522743
0.541742 0.886359 0.517854
0.666166 0.888060 0.512966
0.787980 0.889759 0.508077
0.906273 0.892591 0.504407
1.000000 0.901917 0.507742
0.080865 1.000000 0.531080
0.196546 1.000000 0.526046
0.317326 1.000000 0.521012
0.441180 1.000000 0.515978
0.566084 1.000000 0.510943
0.690015 1.000000 0.505909
0.810948 1.000000 0.500874
0.926860 1.000000 0.495840
1.000000 1.000000 0.490805
0.050661 0.073600 0.700086
0.117993 0.071037 0.693557
0.235419 0.068476 0.687021
0.357273 0.065919 0.680477
0.481539 0.063366 0.673928
0.606200 0.060816 0.667372
0.735037 0.063603 0.666647
0.864876 0.071323 0.671289
0.987643 0.079073 0.675928
0.049069 0.176184 0.678094
0.130641 0.173503 0.671542
0.248653 0.170826 0.664983
0.370872 0.168151 0.658419
0.495280 0.165478 0.651849
0.619861 0.162809 0.645274
0.751431 0.168689 0.647645
0.880536 0.176773 0.652299
1.000000 0.185817 0.659881
0.047479 0.282658 0.656028
0.143364 0.279895 0.649456
0.261938 0.277132 0.642878
0.384496 0.274372 0.636296
0.509022 0.271613 0.629708
0.629922 0.271291 0.628938
0.758625 0.281476 0.639265
0.882766 0.291684 0.649579
1.000000 0.301915 0.659881
0.045890 0.391742 0.633898
0.155218 0.389623 0.628938
0.270323 0.389623 0.628938
0.389026 0.389623 0.628938
0.509500 0.389623 0.628938
0.629922 0.389623 0.628938
0.758625 0.400012 0.639265
0.882766 0.410412 0.649579
1.000000 0.420821 0.659881
0.045535 0.509550 0.628938
0.155218 0.509550 0.628938
0.270323 0.509550 0.628938
0.389026 0.509550 0.628938
0.509500 0.509550 0.628938
0.629922 0.509550 0.628938
0.758625 0.520000 0.639265
0.882766 0.530448 0.649579
1.000000 0.540894 0.659881
0.045535 0.629430 0.628938
0.155218 0.629430 0.628938
0.270323 0.629430 0.628938
0.389026 0.629430 0.628938
0.509500 0.629430 0.628938
0.629922 0.629430 0.628938
0.758625 0.639798 0.639265
0.882766 0.650152 0.649579
1.000000 0.660788 0.658995
0.054811 0.757763 0.639265
0.165038 0.757763 0.639265
0.280529 0.757763 0.639265
0.399458 0.757763 0.639265
0.520000 0.757763 0.639265
0.642683 0.758725 0.636635
0.765477 0.760830 0.632116
0.893534 0.772921 0.637806
1.000000 0.783723 0.642210
0.064141 0.881989 0.649580
0.174898 0.881989 0.649579
0.294636 0.883533 0.645189
0.418219 0.885235 0.640339
0.543229 0.886937 0.635487
0.667635 0.888637 0.630632
0.789405 0.890336 0.625774
0.907698 0.893236 0.622200
1.000000 0.902445 0.625392
0.082160 1.000000 0.648560
0.197911 1.000000 0.643568
0.318738 1.000000 0.638572
0.442615 1.000000 0.633574
0.567520 1.000000 0.628573
0.691427 1.000000 0.623570
0.812314 1.000000 0.618564
0.928157 1.000000 0.613555
1.000000 1.000000 0.608544
0.059806 0.082212 0.824109
0.128929 0.079637 0.817764
0.246864 0.077066 0.811408
0.369034 0.074497 0.805040
0.493425 0.071932 0.798661
0.618018 0.069371 0.792270
0.740798 0.066813 0.785869
0.866462 0.070739 0.786363
0.989123 0.078487 0.790895
0.058205 0.185180 0.802719
0.141642 0.182491 0.796336
0.260142 0.179805 0.789941
0.382656 0.177121 0.783536
0.507167 0.174440 0.777120
0.631660 0.171762 0.770694
0.754117 0.169086 0.764258
0.882110 0.176163 0.767787
1.000000 0.185817 0.777084
0.056605 0.291928 0.781201
0.154429 0.289159 0.774782
0.273469 0.286391 0.768352
0.396301 0.283625 0.761913
0.520000 0.281476 0.756900
0.640331 0.281476 0.756900
0.758625 0.281476 0.756900
0.882766 0.291684 0.767004
1.000000 0.301915 0.777084
0.055007 0.401176 0.759566
0.165038 0.400012 0.756900
0.280529 0.400012 0.756900
0.399458 0.400012 0.756900
0.520000 0.400012 0.756900
0.640331 0.400012 0.756900
0.758625 0.400012 0.756900
0.882766 0.410412 0.767004
1.000000 0.420821 0.777084
0.054811 0.520000 0.756900
0.165038 0.520000 0.756900
0.280529 0.520000 0.756900
0.399458 0.520000 0.756900
0.520000 0.520000 0.756900
0.640331 0.520000 0.756900
0.758625 0.520000 0.756900
0.882766 0.530448 0.767004
1.000000 0.540894 0.777084
0.054811 0.639798 0.756900
0.165038 0.639798 0.756900
0.280529 0.639798 0.756900
0.399458 0.639798 0.756900
0.520000 0.639798 0.756900
0.640331 0.639798 0.756900
0.758625 0.639798 0.756900
0.882766 0.650152 0.767004
1.000000 0.661354 0.774562
0.054811 0.757763 0.756900
0.165038 0.757763 0.756900
0.280529 0.757763 0.756900
0.399458 0.757763 0.756900
0.520000 0.757763 0.756900
0.644157 0.759328 0.752707
0.766985 0.761505 0.748346
0.894968 0.773594 0.753927
1.000000 0.784275 0.758124
0.064141 0.881989 0.767004
0.175911 0.882408 0.765839
0.296090 0.884111 0.761091
0.419702 0.885813 0.756338
0.544717 0.887514 0.751580
0.669103 0.889214 0.746817
0.790829 0.890913 0.742048
0.909122 0.893881 0.738610
1.000000 0.902973 0.741624
0.083455 1.000000 0.764346
0.199277 1.000000 0.759455
0.320150 1.000000 0.754558
0.444051 1.000000 0.749656
0.568955 1.000000 0.744748
0.692840 1.000000 0.739835
0.813680 1.000000 0.734917
0.929453 1.000000 0.729994
1.000000 1.000000 0.725066
0.069001 0.090862 0.943636
0.139922 0.088276 0.937569
0.258346 0.085693 0.931485
0.380815 0.083113 0.925385
0.505312 0.080537 0.919268
0.629820 0.077964 0.913136
0.752322 0.075395 0.906988
0.870802 0.072829 0.900824
0.990603 0.077902 0.902457
0.067391 0.194204 0.923160
0.152698 0.191507 0.917038
0.271667 0.188812 0.910899
0.394458 0.186120 0.904746
0.519054 0.183431 0.898577
0.643440 0.180744 0.892392
0.765598 0.178059 0.886193
0.882766 0.175908 0.881212
1.000000 0.185817 0.890944
0.065783 0.301217 0.902501
0.165546 0.298442 0.896327
0.285034 0.295669 0.890137
0.408122 0.292897 0.883933
0.530498 0.291684 0.881212
0.650724 0.291684 0.881212
0.768755 0.291684 0.881212
0.882766 0.291684 0.881212
1.000000 0.301915 0.890944
0.064176 0.410619 0.881671
0.174898 0.410412 0.881212
0.290760 0.410412 0.881212
0.409902 0.410412 0.881212
0.530498 0.410412 0.881212
0.650724 0.410412 0.881212
0.768755 0.410412 0.881212
0.882766 0.410412 0.881212
1.000000 0.420821 0.890944
0.064141 0.530448 0.881212
0.174898 0.530448 0.881212
0.290760 0.530448 0.881212
0.409902 0.530448 0.881212
0.530498 0.530448 0.881212
0.650724 0.530448 0.881212
0.768755 0.530448 0.881212
0.882766 0.530448 0.881212
1.000000 0.540894 0.890944
0.064141 0.650152 0.881212
0.174898 0.650152 0.881212
0.290760 0.650152 0.881212
0.409902 0.650152 0.881212
0.530498 0.650152 0.881212
0.650724 0.650152 0.881212
0.768755 0.650152 0.881212
0.882766 0.650152 0.881212
1.000000 0.661920 0.886911
0.064141 0.767880 0.881212
0.174898 0.767880 0.881212
0.290760 0.767880 0.881212
0.409902 0.767880 0.881212
0.531337 0.768146 0.880078
0.655305 0.769351 0.874941
0.776863 0.770555 0.869795
0.896402 0.774267 0.867076
1.000000 0.784826 0.871022
0.064141 0.881989 0.881212
0.177312 0.882986 0.878530
0.297544 0.884689 0.873939
0.421185 0.886391 0.869340
0.546204 0.888092 0.864734
0.670571 0.889791 0.860120
0.792253 0.891489 0.855499
0.910546 0.894526 0.852236
1.000000 0.903500 0.855041
0.084752 1.000000 0.877040
0.200643 1.000000 0.872309
0.321563 1.000000 0.867570
0.445486 1.000000 0.862823
0.570391 1.000000 0.858069
0.694252 1.000000 0.853306
0.815045 1.000000 0.848536
0.930748 1.000000 0.843759
1.000000 1.000000 0.838974
0.073523 0.094747 1.000000
0.146568 0.092643 1.000000
0.265799 0.090542 1.000000
0.388983 0.088443 1.000000
0.514078 0.086346 1.000000
0.639041 0.084251 1.000000
0.761831 0.082158 1.000000
0.880403 0.080067 1.000000
0.992715 0.077979 1.000000
0.073523 0.199964 1.000000
0.161068 0.197771 1.000000
0.280899 0.195579 1.000000
0.404431 0.193388 1.000000
0.529621 0.191200 1.000000
0.654426 0.189012 1.000000
0.776803 0.186827 1.000000
0.892430 0.185817 1.000000
1.000000 0.185817 1.000000
0.073523 0.308901 1.000000
0.175655 0.306645 1.000000
0.296057 0.304390 1.000000
0.419905 0.302136 1.000000
0.540994 0.301915 1.000000
0.661101 0.301915 1.000000
0.778855 0.301915 1.000000
0.892430 0.301915 1.000000
1.000000 0.301915 1.000000
0.073523 0.420821 1.000000
0.184797 0.420821 1.000000
0.301016 0.420821 1.000000
0.420357 0.420821 1.000000
0.540994 0.420821 1.000000
0.661101 0.420821 1.000000
0.778855 0.420821 1.000000
0.892430 0.420821 1.000000
1.000000 0.420821 1.000000
0.073523 0.540894 1.000000
0.184797 0.540894 1.000000
0.301016 0.540894 1.000000
0.420357 0.540894 1.000000
0.540994 0.540894 1.000000
0.661101 0.540894 1.000000
0.778855 0.540894 1.000000
0.892430 0.540894 1.000000
1.000000 0.540894 1.000000
0.073523 0.660491 1.000000
0.184797 0.660491 1.000000
0.301016 0.660491 1.000000
0.420357 0.660491 1.000000
0.540994 0.660491 1.000000
0.661101 0.660491 1.000000
0.778855 0.660491 1.000000
0.893114 0.660733 0.999045
1.000000 0.662486 0.994644
0.073523 0.777969 1.000000
0.184797 0.777970 1.000000
0.301016 0.777969 1.000000
0.420357 0.777969 1.000000
0.543119 0.778643 0.997274
0.666945 0.779845 0.992403
0.788171 0.781045 0.987518
0.904796 0.782246 0.982621
1.000000 0.785377 0.979504
0.073523 0.891687 1.000000
0.188112 0.892754 0.995502
0.308163 0.893907 0.990626
0.431416 0.895060 0.985737
0.555870 0.896212 0.980835
0.679521 0.897364 0.975921
0.800368 0.898515 0.970994
0.916407 0.899665 0.966055
1.000000 0.904028 0.964244
0.086050 1.000000 0.985243
0.202010 1.000000 0.980732
0.322976 1.000000 0.976211
0.446922 1.000000 0.971680
0.571826 1.000000 0.967138
0.695663 1.000000 0.962585
0.816410 1.000000 0.958023
0.932042 1.000000 0.953450
1.000000 1.000000 0.948868
