assets/luts/leica_bw.cube
TITLE "leica_bw"
LUT_3D_SIZE 9
DOMAIN_MIN 0.0 0.0 0.0
DOMAIN_MAX 1.0 1.0 1.0
0.018000 0.018000 0.018000
0.040925 0.040925 0.040925
0.064275 0.064275 0.064275
0.088024 0.088024 0.088024
0.112149 0.112149 0.112149
0.136626 0.136626 0.136626
0.161432 0.161432 0.161432
0.186543 0.186543 0.186543
0.211935 0.211935 0.211935
0.096764 0.096764 0.096764
0.121021 0.121021 0.121021
0.145620 0.145620 0.145620
0.170540 0.170540 0.170540
0.195756 0.195756 0.195756
0.221244 0.221244 0.221244
0.246981 0.246981 0.246981
0.272943 0.272943 0.272943
0.299105 0.299105 0.299105
0.179687 0.179687 0.179687
0.205005 0.205005 0.205005
0.230587 0.230587 0.230587
0.256408 0.256408 0.256408
0.282445 0.282445 0.282445
0.308675 0.308675 0.308675
0.335073 0.335073 0.335073
0.361616 0.361616 0.361616
0.388280 0.388280 0.388280
0.265863 0.265863 0.265863
0.291974 0.291974 0.291974
0.318267 0.318267 0.318267
0.344721 0.344721 0.344721
0.371311 0.371311 0.371311
0.398013 0.398013 0.398013
0.424804 0.424804 0.424804
0.451659 0.451659 0.451659
0.478556 0.478556 0.478556
0.354387 0.354387 0.354387
0.381021 0.381021 0.381021
0.407758 0.407758 0.407758
0.434575 0.434575 0.434575
0.461448 0.461448 0.461448
0.488353 0.488353 0.488353
0.515267 0.515267 0.515267
0.542166 0.542166 0.542166
0.569025 0.569025 0.569025
0.444353 0.444353 0.444353
0.471241 0.471241 0.471241
0.498152 0.498152 0.498152
0.525063 0.525063 0.525063
0.551950 0.551950 0.551950
0.578790 0.578790 0.578790
0.605558 0.605558 0.605558
0.632231 0.632231 0.632231
0.658784 0.658784 0.658784
0.534856 0.534856 0.534856
0.561728 0.561728 0.561728
0.588545 0.588545 0.588545
0.615281 0.615281 0.615281
0.641913 0.641913 0.641913
0.668417 0.668417 0.668417
0.694770 0.694770 0.694770
0.720948 0.720948 0.720948
0.746927 0.746927 0.746927
0.624990 0.624990 0.624990
0.651578 0.651578 0.651578
0.678030 0.678030 0.678030
0.704322 0.704322 0.704322
0.730430 0.730430 0.730430
0.756330 0.756330 0.756330
0.781999 0.781999 0.781999
0.807413 0.807413 0.807413
0.832547 0.832547 0.832547
0.713850 0.713850 0.713850
0.739885 0.739885 0.739885
0.765704 0.765704 0.765704
0.791282 0.791282 0.791282
0.816597 0.816597 0.816597
0.841624 0.841624 0.841624
0.866339 0.866339 0.866339
0.890719 0.890719 0.890719
0.914740 0.914740 0.914740
0.025737 0.025737 0.025737
0.048809 0.048809 0.048809
0.072296 0.072296 0.072296
0.096176 0.096176 0.096176
0.120423 0.120423 0.120423
0.145015 0.145015 0.145015
0.169927 0.169927 0.169927
0.195136 0.195136 0.195136
0.220618 0.220618 0.220618
0.104962 0.104962 0.104962
0.129337 0.129337 0.129337
0.154049 0.154049 0.154049
0.179072 0.179072 0.179072
0.204383 0.204383 0.204383
0.229958 0.229958 0.229958
0.255774 0.255774 0.255774
0.281806 0.281806 0.281806
0.308031 0.308031 0.308031
0.188254 0.188254 0.188254
0.213664 0.213664 0.213664
0.239330 0.239330 0.239330
0.265227 0.265227 0.265227
0.291333 0.291333 0.291333
0.317622 0.317622 0.317622
0.344072 0.344072 0.344072
0.370659 0.370659 0.370659
0.397359 0.397359 0.397359
0.274709 0.274709 0.274709
0.300884 0.300884 0.300884
0.327235 0.327235 0.327235
0.353737 0.353737 0.353737
0.380368 0.380368 0.380368
0.407103 0.407103 0.407103
0.433918 0.433918 0.433918
0.460790 0.460790 0.460790
0.487695 0.487695 0.487695
0.363419 0.363419 0.363419
0.390090 0.390090 0.390090
0.416857 0.416857 0.416857
0.443696 0.443696 0.443696
0.470583 0.470583 0.470583
0.497494 0.497494 0.497494
0.524405 0.524405 0.524405
0.551293 0.551293 0.551293
0.578134 0.578134 0.578134
0.453480 0.453480 0.453480
0.480378 0.480378 0.480378
0.507292 0.507292 0.507292
0.534198 0.534198 0.534198
0.561072 0.561072 0.561072
0.587890 0.587890 0.587890
0.614628 0.614628 0.614628
0.641263 0.641263 0.641263
0.667771 0.667771 0.667771
0.543987 0.543987 0.543987
0.570843 0.570843 0.570843
0.597634 0.597634 0.597634
0.624338 0.624338 0.624338
0.650929 0.650929 0.650929
0.677385 0.677385 0.677385
0.703681 0.703681 0.703681
0.729794 0.729794 0.729794
0.755700 0.755700 0.755700
0.634033 0.634033 0.634033
0.660578 0.660578 0.660578
0.686978 0.686978 0.686978
0.713210 0.713210 0.713210
0.739251 0.739251 0.739251
0.765075 0.765075 0.765075
0.790660 0.790660 0.790660
0.815981 0.815981 0.815981
0.841015 0.841015 0.841015
0.722714 0.722714 0.722714
0.748678 0.748678 0.748678
0.774418 0.774418 0.774418
0.799910 0.799910 0.799910
0.825130 0.825130 0.825130
0.850053 0.850053 0.850053
0.874658 0.874658 0.874658
0.898918 0.898918 0.898918
0.922812 0.922812 0.922812
0.033524 0.033524 0.033524
0.056740 0.056740 0.056740
0.080363 0.080363 0.080363
0.104370 0.104370 0.104370
0.128737 0.128737 0.128737
0.153440 0.153440 0.153440
0.178456 0.178456 0.178456
0.203760 0.203760 0.203760
0.229329 0.229329 0.229329
0.113201 0.113201 0.113201
0.137693 0.137693 0.137693
0.162513 0.162513 0.162513
0.187636 0.187636 0.187636
0.213040 0.213040 0.213040
0.238699 0.238699 0.238699
0.264591 0.264591 0.264591
0.290692 0.290692 0.290692
0.316977 0.316977 0.316977
0.196854 0.196854 0.196854
0.222353 0.222353 0.222353
0.248100 0.248100 0.248100
0.274071 0.274071 0.274071
0.300241 0.300241 0.300241
0.326588 0.326588 0.326588
0.353087 0.353087 0.353087
0.379715 0.379715 0.379715
0.406448 0.406448 0.406448
0.283577 0.283577 0.283577
0.309814 0.309814 0.309814
0.336219 0.336219 0.336219
0.362768 0.362768 0.362768
0.389437 0.389437 0.389437
0.416202 0.416202 0.416202
0.443039 0.443039 0.443039
0.469925 0.469925 0.469925
0.496835 0.496835 0.496835
0.372464 0.372464 0.372464
0.399171 0.399171 0.399171
0.425965 0.425965 0.425965
0.452823 0.452823 0.452823
0.479720 0.479720 0.479720
0.506634 0.506634 0.506634
0.533540 0.533540 0.533540
0.560415 0.560415 0.560415
0.587234 0.587234 0.587234
0.462612 0.462612 0.462612
0.489518 0.489518 0.489518
0.516432 0.516432 0.516432
0.543329 0.543329 0.543329
0.570187 0.570187 0.570187
0.596980 0.596980 0.596980
0.623686 0.623686 0.623686
0.650281 0.650281 0.650281
0.676740 0.676740 0.676740
0.553113 0.553113 0.553113
0.579950 0.579950 0.579950
0.606714 0.606714 0.606714
0.633382 0.633382 0.633382
0.659930 0.659930 0.659930
0.686334 0.686334 0.686334
0.712571 0.712571 0.712571
0.738616 0.738616 0.738616
0.764446 0.764446 0.764446
0.643063 0.643063 0.643063
0.669561 0.669561 0.669561
0.695907 0.695907 0.695907
0.722076 0.722076 0.722076
0.748046 0.748046 0.748046
0.773792 0.773792 0.773792
0.799290 0.799290 0.799290
0.824516 0.824516 0.824516
0.849447 0.849447 0.849447
0.731555 0.731555 0.731555
0.757446 0.757446 0.757446
0.783104 0.783104 0.783104
0.808506 0.808506 0.808506
0.833628 0.833628 0.833628
0.858446 0.858446 0.858446
0.882936 0.882936 0.882936
0.907075 0.907075 0.907075
0.930839 0.930839 0.930839
0.041361 0.041361 0.041361
0.064718 0.064718 0.064718
0.088474 0.088474 0.088474
0.112606 0.112606 0.112606
0.137090 0.137090 0.137090
0.161902 0.161902 0.161902
0.187018 0.187018 0.187018
0.212415 0.212415 0.212415
0.238069 0.238069 0.238069
0.121480 0.121480 0.121480
0.146086 0.146086 0.146086
0.171012 0.171012 0.171012
0.196233 0.196233 0.196233
0.221726 0.221726 0.221726
0.247467 0.247467 0.247467
0.273433 0.273433 0.273433
0.299599 0.299599 0.299599
0.325942 0.325942 0.325942
0.205484 0.205484 0.205484
0.231070 0.231070 0.231070
0.256896 0.256896 0.256896
0.282937 0.282937 0.282937
0.309170 0.309170 0.309170
0.335572 0.335572 0.335572
0.362117 0.362117 0.362117
0.388783 0.388783 0.388783
0.415546 0.415546 0.415546
0.292467 0.292467 0.292467
0.318764 0.318764 0.318764
0.345220 0.345220 0.345220
0.371812 0.371812 0.371812
0.398517 0.398517 0.398517
0.425309 0.425309 0.425309
0.452165 0.452165 0.452165
0.479062 0.479062 0.479062
0.505976 0.505976 0.505976
0.381523 0.381523 0.381523
0.408262 0.408262 0.408262
0.435080 0.435080 0.435080
0.461954 0.461954 0.461954
0.488860 0.488860 0.488860
0.515773 0.515773 0.515773
0.542672 0.542672 0.542672
0.569530 0.569530 0.569530
0.596326 0.596326 0.596326
0.471747 0.471747 0.471747
0.498658 0.498658 0.498658
0.525569 0.525569 0.525569
0.552456 0.552456 0.552456
0.579294 0.579294 0.579294
0.606061 0.606061 0.606061
0.632731 0.632731 0.632731
0.659283 0.659283 0.659283
0.685691 0.685691 0.685691
0.562233 0.562233 0.562233
0.589048 0.589048 0.589048
0.615783 0.615783 0.615783
0.642413 0.642413 0.642413
0.668915 0.668915 0.668915
0.695265 0.695265 0.695265
0.721439 0.721439 0.721439
0.747413 0.747413 0.747413
0.773165 0.773165 0.773165
0.652077 0.652077 0.652077
0.678526 0.678526 0.678526
0.704815 0.704815 0.704815
0.730919 0.730919 0.730919
0.756816 0.756816 0.756816
0.782480 0.782480 0.782480
0.807888 0.807888 0.807888
0.833017 0.833017 0.833017
0.857843 0.857843 0.857843
0.740373 0.740373 0.740373
0.766187 0.766187 0.766187
0.791761 0.791761 0.791761
0.817070 0.817070 0.817070
0.842092 0.842092 0.842092
0.866801 0.866801 0.866801
0.891175 0.891175 0.891175
0.915189 0.915189 0.915189
0.938820 0.938820 0.938820
0.049247 0.049247 0.049247
0.072742 0.072742 0.072742
0.096629 0.096629 0.096629
0.120883 0.120883 0.120883
0.145481 0.145481 0.145481
0.170399 0.170399 0.170399
0.195613 0.195613 0.195613
0.221100 0.221100 0.221100
0.246835 0.246835 0.246835
0.129799 0.129799 0.129799
0.154517 0.154517 0.154517
0.179545 0.179545 0.179545
0.204861 0.204861 0.204861
0.230442 0.230442 0.230442
0.256262 0.256262 0.256262
0.282298 0.282298 0.282298
0.308527 0.308527 0.308527
0.334924 0.334924 0.334924
0.214145 0.214145 0.214145
0.239815 0.239815 0.239815
0.265717 0.265717 0.265717
0.291826 0.291826 0.291826
0.318119 0.318119 0.318119
0.344572 0.344572 0.344572
0.371161 0.371161 0.371161
0.397862 0.397862 0.397862
0.424652 0.424652 0.424652
0.301378 0.301378 0.301378
0.327732 0.327732 0.327732
0.354237 0.354237 0.354237
0.380870 0.380870 0.380870
0.407607 0.407607 0.407607
0.434423 0.434423 0.434423
0.461296 0.461296 0.461296
0.488201 0.488201 0.488201
0.515115 0.515115 0.515115
0.390593 0.390593 0.390593
0.417362 0.417362 0.417362
0.444201 0.444201 0.444201
0.471089 0.471089 0.471089
0.498000 0.498000 0.498000
0.524911 0.524911 0.524911
0.551799 0.551799 0.551799
0.578638 0.578638 0.578638
0.605407 0.605407 0.605407
0.480885 0.480885 0.480885
0.507799 0.507799 0.507799
0.534704 0.534704 0.534704
0.561577 0.561577 0.561577
0.588393 0.588393 0.588393
0.615130 0.615130 0.615130
0.641763 0.641763 0.641763
0.668268 0.668268 0.668268
0.694622 0.694622 0.694622
0.571348 0.571348 0.571348
0.598138 0.598138 0.598138
0.624839 0.624839 0.624839
0.651428 0.651428 0.651428
0.677881 0.677881 0.677881
0.704174 0.704174 0.704174
0.730283 0.730283 0.730283
0.756185 0.756185 0.756185
0.781855 0.781855 0.781855
0.661076 0.661076 0.661076
0.687473 0.687473 0.687473
0.713702 0.713702 0.713702
0.739738 0.739738 0.739738
0.765558 0.765558 0.765558
0.791139 0.791139 0.791139
0.816455 0.816455 0.816455
0.841483 0.841483 0.841483
0.866201 0.866201 0.866201
0.749165 0.749165 0.749165
0.774900 0.774900 0.774900
0.800387 0.800387 0.800387
0.825601 0.825601 0.825601
0.850519 0.850519 0.850519
0.875117 0.875117 0.875117
0.899371 0.899371 0.899371
0.923258 0.923258 0.923258
0.946753 0.946753 0.946753
0.057180 0.057180 0.057180
0.080811 0.080811 0.080811
0.104825 0.104825 0.104825
0.129199 0.129199 0.129199
0.153908 0.153908 0.153908
0.178930 0.178930 0.178930
0.204239 0.204239 0.204239
0.229813 0.229813 0.229813
0.255627 0.255627 0.255627
0.138157 0.138157 0.138157
0.162983 0.162983 0.162983
0.188112 0.188112 0.188112
0.213520 0.213520 0.213520
0.239184 0.239184 0.239184
0.265081 0.265081 0.265081
0.291185 0.291185 0.291185
0.317474 0.317474 0.317474
0.343923 0.343923 0.343923
0.222835 0.222835 0.222835
0.248587 0.248587 0.248587
0.274561 0.274561 0.274561
0.300735 0.300735 0.300735
0.327085 0.327085 0.327085
0.353587 0.353587 0.353587
0.380217 0.380217 0.380217
0.406952 0.406952 0.406952
0.433767 0.433767 0.433767
0.310309 0.310309 0.310309
0.336717 0.336717 0.336717
0.363269 0.363269 0.363269
0.389939 0.389939 0.389939
0.416706 0.416706 0.416706
0.443544 0.443544 0.443544
0.470431 0.470431 0.470431
0.497342 0.497342 0.497342
0.524253 0.524253 0.524253
0.399674 0.399674 0.399674
0.426470 0.426470 0.426470
0.453328 0.453328 0.453328
0.480227 0.480227 0.480227
0.507140 0.507140 0.507140
0.534046 0.534046 0.534046
0.560920 0.560920 0.560920
0.587738 0.587738 0.587738
0.614477 0.614477 0.614477
0.490024 0.490024 0.490024
0.516938 0.516938 0.516938
0.543835 0.543835 0.543835
0.570691 0.570691 0.570691
0.597483 0.597483 0.597483
0.624187 0.624187 0.624187
0.650780 0.650780 0.650780
0.677236 0.677236 0.677236
0.703533 0.703533 0.703533
0.580454 0.580454 0.580454
0.607217 0.607217 0.607217
0.633883 0.633883 0.633883
0.660428 0.660428 0.660428
0.686830 0.686830 0.686830
0.713063 0.713063 0.713063
0.739104 0.739104 0.739104
0.764930 0.764930 0.764930
0.790516 0.790516 0.790516
0.670058 0.670058 0.670058
0.696401 0.696401 0.696401
0.722567 0.722567 0.722567
0.748533 0.748533 0.748533
0.774274 0.774274 0.774274
0.799767 0.799767 0.799767
0.824988 0.824988 0.824988
0.849914 0.849914 0.849914
0.874520 0.874520 0.874520
0.757931 0.757931 0.757931
0.783585 0.783585 0.783585
0.808982 0.808982 0.808982
0.834098 0.834098 0.834098
0.858910 0.858910 0.858910
0.883394 0.883394 0.883394
0.907526 0.907526 0.907526
0.931282 0.931282 0.931282
0.954639 0.954639 0.954639
0.065161 0.065161 0.065161
0.088925 0.088925 0.088925
0.113064 0.113064 0.113064
0.137554 0.137554 0.137554
0.162372 0.162372 0.162372
0.187494 0.187494 0.187494
0.212896 0.212896 0.212896
0.238554 0.238554 0.238554
0.264445 0.264445 0.264445
0.146553 0.146553 0.146553
0.171484 0.171484 0.171484
0.196710 0.196710 0.196710
0.222208 0.222208 0.222208
0.247954 0.247954 0.247954
0.273924 0.273924 0.273924
0.300093 0.300093 0.300093
0.326439 0.326439 0.326439
0.352937 0.352937 0.352937
0.231554 0.231554 0.231554
0.257384 0.257384 0.257384
0.283429 0.283429 0.283429
0.309666 0.309666 0.309666
0.336070 0.336070 0.336070
0.362618 0.362618 0.362618
0.389286 0.389286 0.389286
0.416050 0.416050 0.416050
0.442887 0.442887 0.442887
0.319260 0.319260 0.319260
0.345719 0.345719 0.345719
0.372314 0.372314 0.372314
0.399020 0.399020 0.399020
0.425813 0.425813 0.425813
0.452671 0.452671 0.452671
0.479568 0.479568 0.479568
0.506482 0.506482 0.506482
0.533388 0.533388 0.533388
0.408766 0.408766 0.408766
0.435585 0.435585 0.435585
0.462460 0.462460 0.462460
0.489366 0.489366 0.489366
0.516280 0.516280 0.516280
0.543177 0.543177 0.543177
0.570035 0.570035 0.570035
0.596829 0.596829 0.596829
0.623536 0.623536 0.623536
0.499165 0.499165 0.499165
0.526075 0.526075 0.526075
0.552961 0.552961 0.552961
0.579798 0.579798 0.579798
0.606563 0.606563 0.606563
0.633232 0.633232 0.633232
0.659781 0.659781 0.659781
0.686186 0.686186 0.686186
0.712423 0.712423 0.712423
0.589552 0.589552 0.589552
0.616285 0.616285 0.616285
0.642913 0.642913 0.642913
0.669412 0.669412 0.669412
0.695759 0.695759 0.695759
0.721929 0.721929 0.721929
0.747900 0.747900 0.747900
0.773647 0.773647 0.773647
0.799146 0.799146 0.799146
0.679023 0.679023 0.679023
0.705308 0.705308 0.705308
0.731409 0.731409 0.731409
0.757301 0.757301 0.757301
0.782960 0.782960 0.782960
0.808364 0.808364 0.808364
0.833487 0.833487 0.833487
0.858307 0.858307 0.858307
0.882799 0.882799 0.882799
0.766671 0.766671 0.766671
0.792240 0.792240 0.792240
0.817544 0.817544 0.817544
0.842560 0.842560 0.842560
0.867263 0.867263 0.867263
0.891630 0.891630 0.891630
0.915637 0.915637 0.915637
0.939260 0.939260 0.939260
0.962476 0.962476 0.962476
0.073188 0.073188 0.073188
0.097082 0.097082 0.097082
0.121342 0.121342 0.121342
0.145947 0.145947 0.145947
0.170870 0.170870 0.170870
0.196090 0.196090 0.196090
0.221582 0.221582 0.221582
0.247322 0.247322 0.247322
0.273286 0.273286 0.273286
0.154985 0.154985 0.154985
0.180019 0.180019 0.180019
0.205340 0.205340 0.205340
0.230925 0.230925 0.230925
0.256749 0.256749 0.256749
0.282790 0.282790 0.282790
0.309022 0.309022 0.309022
0.335422 0.335422 0.335422
0.361967 0.361967 0.361967
0.240300 0.240300 0.240300
0.266206 0.266206 0.266206
0.292319 0.292319 0.292319
0.318615 0.318615 0.318615
0.345071 0.345071 0.345071
0.371662 0.371662 0.371662
0.398366 0.398366 0.398366
0.425157 0.425157 0.425157
0.452013 0.452013 0.452013
0.328229 0.328229 0.328229
0.354737 0.354737 0.354737
0.381372 0.381372 0.381372
0.408110 0.408110 0.408110
0.434928 0.434928 0.434928
0.461802 0.461802 0.461802
0.488708 0.488708 0.488708
0.515622 0.515622 0.515622
0.542520 0.542520 0.542520
0.417866 0.417866 0.417866
0.444707 0.444707 0.444707
0.471595 0.471595 0.471595
0.498506 0.498506 0.498506
0.525417 0.525417 0.525417
0.552304 0.552304 0.552304
0.579143 0.579143 0.579143
0.605910 0.605910 0.605910
0.632581 0.632581 0.632581
0.508305 0.508305 0.508305
0.535210 0.535210 0.535210
0.562082 0.562082 0.562082
0.588897 0.588897 0.588897
0.615632 0.615632 0.615632
0.642263 0.642263 0.642263
0.668765 0.668765 0.668765
0.695116 0.695116 0.695116
0.721291 0.721291 0.721291
0.598641 0.598641 0.598641
0.625341 0.625341 0.625341
0.651928 0.651928 0.651928
0.678378 0.678378 0.678378
0.704667 0.704667 0.704667
0.730773 0.730773 0.730773
0.756670 0.756670 0.756670
0.782336 0.782336 0.782336
0.807746 0.807746 0.807746
0.687969 0.687969 0.687969
0.714194 0.714194 0.714194
0.740226 0.740226 0.740226
0.766042 0.766042 0.766042
0.791617 0.791617 0.791617
0.816928 0.816928 0.816928
0.841951 0.841951 0.841951
0.866662 0.866662 0.866662
0.891038 0.891038 0.891038
0.775382 0.775382 0.775382
0.800864 0.800864 0.800864
0.826073 0.826073 0.826073
0.850985 0.850985 0.850985
0.875577 0.875577 0.875577
0.899824 0.899824 0.899824
0.923704 0.923704 0.923704
0.947191 0.947191 0.947191
0.970263 0.970263 0.970263
0.081260 0.081260 0.081260
0.105281 0.105281 0.105281
0.129661 0.129661 0.129661
0.154376 0.154376 0.154376
0.179403 0.179403 0.179403
0.204718 0.204718 0.204718
0.230296 0.230296 0.230296
0.256115 0.256115 0.256115
0.282150 0.282150 0.282150
0.163453 0.163453 0.163453
0.188587 0.188587 0.188587
0.214001 0.214001 0.214001
0.239670 0.239670 0.239670
0.265570 0.265570 0.265570
0.291678 0.291678 0.291678
0.317970 0.317970 0.317970
0.344422 0.344422 0.344422
0.371010 0.371010 0.371010
0.249073 0.249073 0.249073
0.275052 0.275052 0.275052
0.301230 0.301230 0.301230
0.327583 0.327583 0.327583
0.354087 0.354087 0.354087
0.380719 0.380719 0.380719
0.407455 0.407455 0.407455
0.434272 0.434272 0.434272
0.461144 0.461144 0.461144
0.337216 0.337216 0.337216
0.363769 0.363769 0.363769
0.390442 0.390442 0.390442
0.417210 0.417210 0.417210
0.444050 0.444050 0.444050
0.470937 0.470937 0.470937
0.497848 0.497848 0.497848
0.524759 0.524759 0.524759
0.551647 0.551647 0.551647
0.426975 0.426975 0.426975
0.453834 0.453834 0.453834
0.480733 0.480733 0.480733
0.507647 0.507647 0.507647
0.534552 0.534552 0.534552
0.561425 0.561425 0.561425
0.588242 0.588242 0.588242
0.614979 0.614979 0.614979
0.641613 0.641613 0.641613
0.517444 0.517444 0.517444
0.544341 0.544341 0.544341
0.571196 0.571196 0.571196
0.597987 0.597987 0.597987
0.624689 0.624689 0.624689
0.651279 0.651279 0.651279
0.677733 0.677733 0.677733
0.704026 0.704026 0.704026
0.730137 0.730137 0.730137
0.607720 0.607720 0.607720
0.634384 0.634384 0.634384
0.660927 0.660927 0.660927
0.687325 0.687325 0.687325
0.713555 0.713555 0.713555
0.739592 0.739592 0.739592
0.765413 0.765413 0.765413
0.790995 0.790995 0.790995
0.816313 0.816313 0.816313
0.696895 0.696895 0.696895
0.723057 0.723057 0.723057
0.749019 0.749019 0.749019
0.774756 0.774756 0.774756
0.800244 0.800244 0.800244
0.825460 0.825460 0.825460
0.850380 0.850380 0.850380
0.874979 0.874979 0.874979
0.899236 0.899236 0.899236
0.784065 0.784065 0.784065
0.809457 0.809457 0.809457
0.834568 0.834568 0.834568
0.859374 0.859374 0.859374
0.883851 0.883851 0.883851
0.907976 0.907976 0.907976
0.931725 0.931725 0.931725
0.955075 0.955075 0.955075
0.978000 0.978000 0.978000
