assets/luts/leica_contemporary.cube
TITLE "leica_contemporary"
LUT_3D_SIZE 5
DOMAIN_MIN 0.0 0.0 0.0
DOMAIN_MAX 1.0 1.0 1.0
0.000000 0.000000 0.012000
0.236983 0.004740 0.016683
0.499425 0.009988 0.021869
0.761363 0.015227 0.027045
0.996840 0.019937 0.031698
0.004756 0.237813 0.016699
0.237000 0.237813 0.016699
0.499425 0.243045 0.021869
0.761363 0.248284 0.027045
0.996840 0.252993 0.031698
0.010000 0.500000 0.021880
0.242244 0.500000 0.021880
0.499436 0.500000 0.021880
0.761363 0.505227 0.027045
0.996840 0.509937 0.031698
0.015244 0.762188 0.027061
0.247487 0.762188 0.027061
0.504680 0.762188 0.027061
0.761380 0.762188 0.027061
0.996840 0.766881 0.031698
0.020000 1.000000 0.031760
0.252244 1.000000 0.031760
0.509436 1.000000 0.031760
0.766136 1.000000 0.031760
0.996903 1.000000 0.031760
0.004780 0.004780 0.248150
0.237024 0.004780 0.248150
0.499425 0.009988 0.253296
0.761363 0.015227 0.258472
0.996840 0.019937 0.263125
0.004780 0.237837 0.248150
0.237024 0.237837 0.248150
0.499425 0.243045 0.253296
0.761363 0.248284 0.258472
0.996840 0.252993 0.263125
0.010000 0.500000 0.253307
0.242244 0.500000 0.253307
0.499436 0.500000 0.253307
0.761363 0.505227 0.258472
0.996840 0.509937 0.263125
0.015244 0.762188 0.258488
0.247487 0.762188 0.258488
0.504680 0.762188 0.258488
0.761380 0.762188 0.258488
0.996840 0.766881 0.263125
0.020000 1.000000 0.263187
0.252244 1.000000 0.263187
0.509436 1.000000 0.263187
0.766136 1.000000 0.263187
0.996903 1.000000 0.263187
0.010025 0.010025 0.507231
0.242269 0.010025 0.507231
0.499461 0.010025 0.507231
0.761363 0.015227 0.512371
0.996840 0.019937 0.517024
0.010025 0.243081 0.507231
0.242269 0.243081 0.507231
0.499461 0.243081 0.507231
0.761363 0.248284 0.512371
0.996840 0.252993 0.517024
0.010025 0.500025 0.507231
0.242269 0.500025 0.507231
0.499461 0.500025 0.507231
0.761363 0.505227 0.512371
0.996840 0.509937 0.517024
0.015244 0.762188 0.512387
0.247487 0.762188 0.512387
0.504680 0.762188 0.512387
0.761380 0.762188 0.512387
0.996840 0.766881 0.517024
0.020000 1.000000 0.517087
0.252244 1.000000 0.517087
0.509436 1.000000 0.517087
0.766136 1.000000 0.517087
0.996903 1.000000 0.517087
0.015277 0.015277 0.766703
0.247521 0.015277 0.766703
0.504713 0.015277 0.766703
0.761414 0.015277 0.766703
0.996840 0.019937 0.771307
0.015277 0.248334 0.766703
0.247521 0.248334 0.766703
0.504713 0.248334 0.766703
0.761414 0.248334 0.766703
0.996840 0.252993 0.771307
0.015277 0.505277 0.766703
0.247521 0.505277 0.766703
0.504713 0.505277 0.766703
0.761414 0.505277 0.766703
0.996840 0.509937 0.771307
0.015277 0.762221 0.766703
0.247521 0.762221 0.766703
0.504713 0.762221 0.766703
0.761414 0.762221 0.766703
0.996840 0.766881 0.771307
0.020000 1.000000 0.771369
0.252244 1.000000 0.771369
0.509436 1.000000 0.771369
0.766136 1.000000 0.771369
0.996903 1.000000 0.771369
0.020000 0.020000 1.000000
0.252244 0.020000 1.000000
0.509436 0.020000 1.000000
0.766136 0.020000 1.000000
0.996903 0.020000 1.000000
0.020000 0.253056 1.000000
0.252244 0.253056 1.000000
0.509436 0.253056 1.000000
0.766136 0.253056 1.000000
0.996903 0.253056 1.000000
0.020000 0.510000 1.000000
0.252244 0.510000 1.000000
0.509436 0.510000 1.000000
0.766136 0.510000 1.000000
0.996903 0.510000 1.000000
0.020000 0.766944 1.000000
0.252244 0.766944 1.000000
0.509436 0.766944 1.000000
0.766136 0.766944 1.000000
0.996903 0.766944 1.000000
0.020000 1.000000 1.000000
0.252244 1.000000 1.000000
0.509436 1.000000 1.000000
0.766136 1.000000 1.000000
0.996903 1.000000 1.000000
