assets/luts/leica_classic.cube
TITLE "leica_classic"
LUT_3D_SIZE 33
DOMAIN_MIN 0.0 0.0 0.0
DOMAIN_MAX 1.0 1.0 1.0
0.030184 0.021399 0.011146
0.063865 0.025423 0.015187
0.096689 0.029284 0.019065
0.129130 0.033051 0.022846
0.161369 0.036751 0.026560
0.193490 0.040401 0.030222
0.225534 0.044011 0.033844
0.257520 0.047588 0.037433
0.289452 0.051138 0.040993
0.321329 0.054664 0.044528
0.353144 0.058169 0.048042
0.384884 0.061656 0.051537
0.416537 0.065126 0.055015
0.448087 0.068582 0.058478
0.479516 0.072025 0.061928
0.510808 0.075456 0.065365
0.541943 0.078876 0.068790
0.572903 0.082286 0.072205
0.603669 0.085687 0.075610
0.634221 0.089080 0.079007
0.664539 0.092464 0.082395
0.694603 0.095842 0.085775
0.724394 0.099212 0.089148
0.753890 0.102576 0.092514
0.783073 0.105935 0.095874
0.811921 0.109288 0.099227
0.840415 0.112635 0.102575
0.866497 0.115978 0.105918
0.885357 0.119316 0.109256
0.899362 0.122650 0.112589
0.910162 0.125980 0.115918
0.918736 0.129305 0.119242
0.923930 0.131720 0.121655
0.032701 0.051741 0.013685
0.063865 0.053259 0.015187
0.096689 0.057174 0.019065
0.129130 0.060992 0.022846
0.161369 0.064742 0.026560
0.193490 0.068441 0.030222
0.225534 0.072100 0.033844
0.257520 0.075724 0.037433
0.289452 0.079320 0.040993
0.321329 0.082891 0.044528
0.353144 0.086441 0.048042
0.384884 0.089972 0.051537
0.416537 0.093486 0.055015
0.448087 0.096984 0.058478
0.479516 0.100469 0.061928
0.510808 0.103942 0.065365
0.541943 0.107403 0.068790
0.572903 0.110854 0.072205
0.603669 0.114294 0.075610
0.634221 0.117726 0.079007
0.664539 0.121150 0.082395
0.694603 0.124566 0.085775
0.724394 0.127974 0.089148
0.753890 0.131376 0.092514
0.783073 0.134771 0.095874
0.811921 0.138161 0.099227
0.840415 0.141545 0.102575
0.866497 0.144923 0.105918
0.885357 0.148296 0.109256
0.899362 0.151665 0.112589
0.910162 0.155029 0.115918
0.918736 0.158389 0.119242
0.923930 0.160828 0.121655
0.036338 0.082781 0.017351
0.066047 0.082781 0.017351
0.096689 0.084534 0.019065
0.129130 0.088399 0.022846
0.161369 0.092195 0.026560
0.193490 0.095938 0.030222
0.225534 0.099640 0.033844
0.257520 0.103307 0.037433
0.289452 0.106944 0.040993
0.321329 0.110556 0.044528
0.353144 0.114147 0.048042
0.384884 0.117717 0.051537
0.416537 0.121270 0.055015
0.448087 0.124807 0.058478
0.479516 0.128330 0.061928
0.510808 0.131840 0.065365
0.541943 0.135338 0.068790
0.572903 0.138825 0.072205
0.603669 0.142302 0.075610
0.634221 0.145769 0.079007
0.664539 0.149227 0.082395
0.694603 0.152677 0.085775
0.724394 0.156120 0.089148
0.753890 0.159555 0.092514
0.783073 0.162984 0.095874
0.811921 0.166406 0.099227
0.840415 0.169822 0.102575
0.866497 0.173232 0.105918
0.885357 0.176637 0.109256
0.899362 0.180036 0.112589
0.910162 0.183431 0.115918
0.918736 0.186821 0.119242
0.923930 0.189281 0.121655
0.039915 0.113652 0.020954
0.069682 0.113652 0.020954
0.098622 0.113652 0.020954
0.129130 0.115607 0.022846
0.161369 0.119445 0.026560
0.193490 0.123229 0.030222
0.225534 0.126970 0.033844
0.257520 0.130676 0.037433
0.289452 0.134351 0.040993
0.321329 0.138001 0.044528
0.353144 0.141628 0.048042
0.384884 0.145234 0.051537
0.416537 0.148823 0.055015
0.448087 0.152395 0.058478
0.479516 0.155952 0.061928
0.510808 0.159496 0.065365
0.541943 0.163027 0.068790
0.572903 0.166547 0.072205
0.603669 0.170056 0.075610
0.634221 0.173556 0.079007
0.664539 0.177046 0.082395
0.694603 0.180527 0.085775
0.724394 0.184000 0.089148
0.753890 0.187465 0.092514
0.783073 0.190924 0.095874
0.811921 0.194375 0.099227
0.840415 0.197820 0.102575
0.866497 0.201259 0.105918
0.885357 0.204692 0.109256
0.899362 0.208119 0.112589
0.910162 0.211541 0.115918
0.918736 0.214958 0.119242
0.923930 0.217438 0.121655
0.043451 0.144478 0.024516
0.073275 0.144478 0.024516
0.102265 0.144478 0.024516
0.130860 0.144478 0.024516
0.161369 0.146611 0.026560
0.193490 0.150432 0.030222
0.225534 0.154209 0.033844
0.257520 0.157951 0.037433
0.289452 0.161661 0.040993
0.321329 0.165345 0.044528
0.353144 0.169005 0.048042
0.384884 0.172645 0.051537
0.416537 0.176265 0.055015
0.448087 0.179869 0.058478
0.479516 0.183458 0.061928
0.510808 0.187033 0.065365
0.541943 0.190594 0.068790
0.572903 0.194144 0.072205
0.603669 0.197682 0.075610
0.634221 0.201210 0.079007
0.664539 0.204729 0.082395
0.694603 0.208238 0.085775
0.724394 0.211739 0.089148
0.753890 0.215231 0.092514
0.783073 0.218716 0.095874
0.811921 0.222194 0.099227
0.840415 0.225665 0.102575
0.866497 0.229130 0.105918
0.885357 0.232588 0.109256
0.899362 0.236040 0.112589
0.910162 0.239486 0.115918
0.918736 0.242927 0.119242
0.923930 0.245425 0.121655
0.046958 0.175312 0.028046
0.076837 0.175312 0.028046
0.105877 0.175312 0.028046
0.134516 0.175312 0.028046
0.162926 0.175312 0.028046
0.193490 0.177603 0.030222
0.225534 0.181413 0.033844
0.257520 0.185187 0.037433
0.289452 0.188929 0.040993
0.321329 0.192644 0.044528
0.353144 0.196334 0.048042
0.384884 0.200004 0.051537
0.416537 0.203654 0.055015
0.448087 0.207287 0.058478
0.479516 0.210904 0.061928
0.510808 0.214506 0.065365
0.541943 0.218095 0.068790
0.572903 0.221671 0.072205
0.603669 0.225236 0.075610
0.634221 0.228790 0.079007
0.664539 0.232334 0.082395
0.694603 0.235869 0.085775
0.724394 0.239394 0.089148
0.753890 0.242911 0.092514
0.783073 0.246420 0.095874
0.811921 0.249922 0.099227
0.840415 0.253416 0.102575
0.866497 0.256903 0.105918
0.885357 0.260384 0.109256
0.899362 0.263858 0.112589
0.910162 0.267326 0.115918
0.918736 0.270789 0.119242
0.923930 0.273301 0.121655
0.050441 0.206177 0.031551
0.080375 0.206177 0.031551
0.109464 0.206177 0.031551
0.138147 0.206177 0.031551
0.166596 0.206177 0.031551
0.194895 0.206177 0.031551
0.225534 0.208608 0.033844
0.257520 0.212411 0.037433
0.289452 0.216182 0.040993
0.321329 0.219925 0.044528
0.353144 0.223643 0.048042
0.384884 0.227339 0.051537
0.416537 0.231016 0.055015
0.448087 0.234675 0.058478
0.479516 0.238317 0.061928
0.510808 0.241944 0.065365
0.541943 0.245558 0.068790
0.572903 0.249159 0.072205
0.603669 0.252747 0.075610
0.634221 0.256325 0.079007
0.664539 0.259891 0.082395
0.694603 0.263448 0.085775
0.724394 0.266996 0.089148
0.753890 0.270535 0.092514
0.783073 0.274065 0.095874
0.811921 0.277587 0.099227
0.840415 0.281102 0.102575
0.866497 0.284609 0.105918
0.885357 0.288110 0.109256
0.899362 0.291603 0.112589
0.910162 0.295091 0.115918
0.918736 0.298572 0.119242
0.923930 0.301098 0.121655
0.053906 0.237080 0.035036
0.083894 0.237080 0.035036
0.113030 0.237080 0.035036
0.141757 0.237080 0.035036
0.170245 0.237080 0.035036
0.198579 0.237080 0.035036
0.226805 0.237080 0.035036
0.257520 0.239637 0.037433
0.289452 0.243433 0.040993
0.321329 0.247201 0.044528
0.353144 0.250944 0.048042
0.384884 0.254665 0.051537
0.416537 0.258365 0.055015
0.448087 0.262047 0.058478
0.479516 0.265712 0.061928
0.510808 0.269362 0.065365
0.541943 0.272997 0.068790
0.572903 0.276619 0.072205
0.603669 0.280229 0.075610
0.634221 0.283827 0.079007
0.664539 0.287414 0.082395
0.694603 0.290991 0.085775
0.724394 0.294558 0.089148
0.753890 0.298116 0.092514
0.783073 0.301665 0.095874
0.811921 0.305205 0.099227
0.840415 0.308738 0.102575
0.866497 0.312263 0.105918
0.885357 0.315780 0.109256
0.899362 0.319291 0.112589
0.910162 0.322795 0.115918
0.918736 0.326292 0.119242
0.923930 0.328830 0.121655
0.057355 0.268019 0.038505
0.087396 0.268019 0.038505
0.116580 0.268019 0.038505
0.145349 0.268019 0.038505
0.173875 0.268019 0.038505
0.202244 0.268019 0.038505
0.230501 0.268019 0.038505
0.258671 0.268019 0.038505
0.289452 0.270687 0.040993
0.321329 0.274478 0.044528
0.353144 0.278243 0.048042
0.384884 0.281985 0.051537
0.416537 0.285706 0.055015
0.448087 0.289409 0.058478
0.479516 0.293094 0.061928
0.510808 0.296763 0.065365
0.541943 0.300418 0.068790
0.572903 0.304059 0.072205
0.603669 0.307687 0.075610
0.634221 0.311303 0.079007
0.664539 0.314908 0.082395
0.694603 0.318502 0.085775
0.724394 0.322085 0.089148
0.753890 0.325660 0.092514
0.783073 0.329225 0.095874
0.811921 0.332781 0.099227
0.840415 0.336329 0.102575
0.866497 0.339869 0.105918
0.885357 0.343402 0.109256
0.899362 0.346927 0.112589
0.910162 0.350445 0.115918
0.918736 0.353956 0.119242
0.923930 0.356503 0.121655
0.060792 0.298987 0.041960
0.090885 0.298987 0.041960
0.120116 0.298987 0.041960
0.148926 0.298987 0.041960
0.177490 0.298987 0.041960
0.205893 0.298987 0.041960
0.234180 0.298987 0.041960
0.262377 0.298987 0.041960
0.290496 0.298987 0.041960
0.321329 0.301754 0.044528
0.353144 0.305538 0.048042
0.384884 0.309299 0.051537
0.416537 0.313039 0.055015
0.448087 0.316759 0.058478
0.479516 0.320462 0.061928
0.510808 0.324148 0.065365
0.541943 0.327820 0.068790
0.572903 0.331477 0.072205
0.603669 0.335121 0.075610
0.634221 0.338752 0.079007
0.664539 0.342372 0.082395
0.694603 0.345981 0.085775
0.724394 0.349579 0.089148
0.753890 0.353167 0.092514
0.783073 0.356746 0.095874
0.811921 0.360316 0.099227
0.840415 0.363877 0.102575
0.866497 0.367430 0.105918
0.885357 0.370974 0.109256
0.899362 0.374511 0.112589
0.910162 0.378041 0.115918
0.918736 0.381563 0.119242
0.923930 0.384118 0.121655
0.064217 0.329972 0.045403
0.094363 0.329972 0.045403
0.123639 0.329972 0.045403
0.152491 0.329972 0.045403
0.181092 0.329972 0.045403
0.209528 0.329972 0.045403
0.237845 0.329972 0.045403
0.266068 0.329972 0.045403
0.294211 0.329972 0.045403
0.322278 0.329972 0.045403
0.353144 0.332827 0.048042
0.384884 0.336604 0.051537
0.416537 0.340359 0.055015
0.448087 0.344095 0.058478
0.479516 0.347813 0.061928
0.510808 0.351514 0.065365
0.541943 0.355199 0.068790
0.572903 0.358870 0.072205
0.603669 0.362527 0.075610
0.634221 0.366172 0.079007
0.664539 0.369804 0.082395
0.694603 0.373425 0.085775
0.724394 0.377035 0.089148
0.753890 0.380635 0.092514
0.783073 0.384225 0.095874
0.811921 0.387806 0.099227
0.840415 0.391377 0.102575
0.866497 0.394940 0.105918
0.885357 0.398495 0.109256
0.899362 0.402042 0.112589
0.910162 0.405580 0.115918
0.918736 0.409112 0.119242
0.923930 0.411673 0.121655
0.067634 0.360962 0.048835
0.097830 0.360962 0.048835
0.127152 0.360962 0.048835
0.156044 0.360962 0.048835
0.184682 0.360962 0.048835
0.213150 0.360962 0.048835
0.241496 0.360962 0.048835
0.269745 0.360962 0.048835
0.297911 0.360962 0.048835
0.325998 0.360962 0.048835
0.354007 0.360962 0.048835
0.384884 0.363892 0.051537
0.416537 0.367661 0.055015
0.448087 0.371410 0.058478
0.479516 0.375140 0.061928
0.510808 0.378853 0.065365
0.541943 0.382550 0.068790
0.572903 0.386232 0.072205
0.603669 0.389900 0.075610
0.634221 0.393555 0.079007
0.664539 0.397198 0.082395
0.694603 0.400829 0.085775
0.724394 0.404448 0.089148
0.753890 0.408058 0.092514
0.783073 0.411656 0.095874
0.811921 0.415245 0.099227
0.840415 0.418825 0.102575
0.866497 0.422396 0.105918
0.885357 0.425958 0.109256
0.899362 0.429512 0.112589
0.910162 0.433058 0.115918
0.918736 0.436596 0.119242
0.923930 0.439162 0.121655
0.071042 0.391941 0.052258
0.101289 0.391941 0.052258
0.130656 0.391941 0.052258
0.159588 0.391941 0.052258
0.188261 0.391941 0.052258
0.216762 0.391941 0.052258
0.245137 0.391941 0.052258
0.273411 0.391941 0.052258
0.301599 0.391941 0.052258
0.329705 0.391941 0.052258
0.357730 0.391941 0.052258
0.385671 0.391941 0.052258
0.416537 0.394936 0.055015
0.448087 0.398695 0.058478
0.479516 0.402435 0.061928
0.510808 0.406158 0.065365
0.541943 0.409864 0.068790
0.572903 0.413555 0.072205
0.603669 0.417232 0.075610
0.634221 0.420895 0.079007
0.664539 0.424546 0.082395
0.694603 0.428184 0.085775
0.724394 0.431811 0.089148
0.753890 0.435427 0.092514
0.783073 0.439032 0.095874
0.811921 0.442627 0.099227
0.840415 0.446213 0.102575
0.866497 0.449789 0.105918
0.885357 0.453356 0.109256
0.899362 0.456915 0.112589
0.910162 0.460465 0.115918
0.918736 0.464008 0.119242
0.923930 0.466577 0.121655
0.074444 0.422892 0.055673
0.104740 0.422892 0.055673
0.134151 0.422892 0.055673
0.163123 0.422892 0.055673
0.191831 0.422892 0.055673
0.220364 0.422892 0.055673
0.248767 0.422892 0.055673
0.277066 0.422892 0.055673
0.305275 0.422892 0.055673
0.333400 0.422892 0.055673
0.361441 0.422892 0.055673
0.389394 0.422892 0.055673
0.417256 0.422892 0.055673
0.448087 0.425943 0.058478
0.479516 0.429690 0.061928
0.510808 0.433420 0.065365
0.541943 0.437133 0.068790
0.572903 0.440831 0.072205
0.603669 0.444513 0.075610
0.634221 0.448182 0.079007
0.664539 0.451838 0.082395
0.694603 0.455482 0.085775
0.724394 0.459113 0.089148
0.753890 0.462734 0.092514
0.783073 0.466343 0.095874
0.811921 0.469942 0.099227
0.840415 0.473531 0.102575
0.866497 0.477111 0.105918
0.885357 0.480681 0.109256
0.899362 0.484242 0.112589
0.910162 0.487795 0.115918
0.918736 0.491339 0.119242
0.923930 0.493909 0.121655
0.077839 0.453798 0.059081
0.108185 0.453798 0.059081
0.137639 0.453798 0.059081
0.166649 0.453798 0.059081
0.195393 0.453798 0.059081
0.223957 0.453798 0.059081
0.252387 0.453798 0.059081
0.280711 0.453798 0.059081
0.308941 0.453798 0.059081
0.337084 0.453798 0.059081
0.365140 0.453798 0.059081
0.393106 0.453798 0.059081
0.420977 0.453798 0.059081
0.448745 0.453798 0.059081
0.479516 0.456895 0.061928
0.510808 0.460629 0.065365
0.541943 0.464347 0.068790
0.572903 0.468048 0.072205
0.603669 0.471735 0.075610
0.634221 0.475407 0.079007
0.664539 0.479066 0.082395
0.694603 0.482712 0.085775
0.724394 0.486346 0.089148
0.753890 0.489969 0.092514
0.783073 0.493580 0.095874
0.811921 0.497181 0.099227
0.840415 0.500771 0.102575
0.866497 0.504352 0.105918
0.885357 0.507922 0.109256
0.899362 0.511484 0.112589
0.910162 0.515037 0.115918
0.918736 0.518580 0.119242
0.923930 0.521150 0.121655
0.081229 0.484641 0.062482
0.111624 0.484641 0.062482
0.141120 0.484641 0.062482
0.170169 0.484641 0.062482
0.198947 0.484641 0.062482
0.227541 0.484641 0.062482
0.255999 0.484641 0.062482
0.284347 0.484641 0.062482
0.312598 0.484641 0.062482
0.340759 0.484641 0.062482
0.368829 0.484641 0.062482
0.396807 0.484641 0.062482
0.424687 0.484641 0.062482
0.452462 0.484641 0.062482
0.480122 0.484641 0.062482
0.510808 0.487774 0.065365
0.541943 0.491494 0.068790
0.572903 0.495197 0.072205
0.603669 0.498885 0.075610
0.634221 0.502559 0.079007
0.664539 0.506218 0.082395
0.694603 0.509865 0.085775
0.724394 0.513499 0.089148
0.753890 0.517122 0.092514
0.783073 0.520733 0.095874
0.811921 0.524332 0.099227
0.840415 0.527922 0.102575
0.866497 0.531501 0.105918
0.885357 0.535070 0.109256
0.899362 0.538630 0.112589
0.910162 0.542180 0.115918
0.918736 0.545721 0.119242
0.923930 0.548289 0.121655
0.084615 0.515402 0.065878
0.115057 0.515402 0.065878
0.144596 0.515402 0.065878
0.173683 0.515402 0.065878
0.202495 0.515402 0.065878
0.231119 0.515402 0.065878
0.259604 0.515402 0.065878
0.287975 0.515402 0.065878
0.316246 0.515402 0.065878
0.344424 0.515402 0.065878
0.372509 0.515402 0.065878
0.400498 0.515402 0.065878
0.428387 0.515402 0.065878
0.456167 0.515402 0.065878
0.483831 0.515402 0.065878
0.511368 0.515402 0.065878
0.541943 0.518564 0.068790
0.572903 0.522266 0.072205
0.603669 0.525954 0.075610
0.634221 0.529626 0.079007
0.664539 0.533284 0.082395
0.694603 0.536929 0.085775
0.724394 0.540561 0.089148
0.753890 0.544181 0.092514
0.783073 0.547789 0.095874
0.811921 0.551386 0.099227
0.840415 0.554972 0.102575
0.866497 0.558547 0.105918
0.885357 0.562113 0.109256
0.899362 0.565668 0.112589
0.910162 0.569214 0.115918
0.918736 0.572751 0.119242
0.923930 0.575315 0.121655
0.087996 0.546063 0.069268
0.118485 0.546063 0.069268
0.148066 0.546063 0.069268
0.177190 0.546063 0.069268
0.206036 0.546063 0.069268
0.234690 0.546063 0.069268
0.263201 0.546063 0.069268
0.291595 0.546063 0.069268
0.319886 0.546063 0.069268
0.348081 0.546063 0.069268
0.376180 0.546063 0.069268
0.404180 0.546063 0.069268
0.432077 0.546063 0.069268
0.459863 0.546063 0.069268
0.487529 0.546063 0.069268
0.515066 0.546063 0.069268
0.542464 0.546063 0.069268
0.572903 0.549244 0.072205
0.603669 0.552928 0.075610
0.634221 0.556597 0.079007
0.664539 0.560251 0.082395
0.694603 0.563892 0.085775
0.724394 0.567520 0.089148
0.753890 0.571135 0.092514
0.783073 0.574738 0.095874
0.811921 0.578330 0.099227
0.840415 0.581910 0.102575
0.866497 0.585480 0.105918
0.885357 0.589039 0.109256
0.899362 0.592589 0.112589
0.910162 0.596128 0.115918
0.918736 0.599658 0.119242
0.923930 0.602217 0.121655
0.091373 0.576604 0.072654
0.121910 0.576604 0.072654
0.151532 0.576604 0.072654
0.180693 0.576604 0.072654
0.209571 0.576604 0.072654
0.238254 0.576604 0.072654
0.266791 0.576604 0.072654
0.295208 0.576604 0.072654
0.323519 0.576604 0.072654
0.351730 0.576604 0.072654
0.379842 0.576604 0.072654
0.407853 0.576604 0.072654
0.435758 0.576604 0.072654
0.463549 0.576604 0.072654
0.491217 0.576604 0.072654
0.518754 0.576604 0.072654
0.546149 0.576604 0.072654
0.573391 0.576604 0.072654
0.603669 0.579797 0.075610
0.634221 0.583460 0.079007
0.664539 0.587109 0.082395
0.694603 0.590743 0.085775
0.724394 0.594364 0.089148
0.753890 0.597972 0.092514
0.783073 0.601568 0.095874
0.811921 0.605153 0.099227
0.840415 0.608725 0.102575
0.866497 0.612287 0.105918
0.885357 0.615838 0.109256
0.899362 0.619379 0.112589
0.910162 0.622909 0.115918
0.918736 0.626430 0.119242
0.923930 0.628982 0.121655
0.094747 0.607006 0.076035
0.125330 0.607006 0.076035
0.154993 0.607006 0.076035
0.184191 0.607006 0.076035
0.213101 0.607006 0.076035
0.241813 0.607006 0.076035
0.270375 0.607006 0.076035
0.298814 0.607006 0.076035
0.327144 0.607006 0.076035
0.355371 0.607006 0.076035
0.383497 0.607006 0.076035
0.411518 0.607006 0.076035
0.439430 0.607006 0.076035
0.467226 0.607006 0.076035
0.494896 0.607006 0.076035
0.522433 0.607006 0.076035
0.549824 0.607006 0.076035
0.577060 0.607006 0.076035
0.604129 0.607006 0.076035
0.634221 0.610203 0.079007
0.664539 0.613843 0.082395
0.694603 0.617469 0.085775
0.724394 0.621081 0.089148
0.753890 0.624681 0.092514
0.783073 0.628267 0.095874
0.811921 0.631842 0.099227
0.840415 0.635405 0.102575
0.866497 0.638956 0.105918
0.885357 0.642497 0.109256
0.899362 0.646027 0.112589
0.910162 0.649546 0.115918
0.918736 0.653056 0.119242
0.923930 0.655600 0.121655
0.098119 0.637249 0.079413
0.128747 0.637249 0.079413
0.158451 0.637249 0.079413
0.187684 0.637249 0.079413
0.216626 0.637249 0.079413
0.245367 0.637249 0.079413
0.273954 0.637249 0.079413
0.302415 0.637249 0.079413
0.330763 0.637249 0.079413
0.359006 0.637249 0.079413
0.387144 0.637249 0.079413
0.415175 0.637249 0.079413
0.443094 0.637249 0.079413
0.470894 0.637249 0.079413
0.498567 0.637249 0.079413
0.526102 0.637249 0.079413
0.553490 0.637249 0.079413
0.580719 0.637249 0.079413
0.607780 0.637249 0.079413
0.634658 0.637249 0.079413
0.664539 0.640443 0.082395
0.694603 0.644058 0.085775
0.724394 0.647659 0.089148
0.753890 0.651247 0.092514
0.783073 0.654822 0.095874
0.811921 0.658385 0.099227
0.840415 0.661936 0.102575
0.866497 0.665475 0.105918
0.885357 0.669003 0.109256
0.899362 0.672520 0.112589
0.910162 0.676026 0.115918
0.918736 0.679523 0.119242
0.923930 0.682057 0.121655
0.101488 0.667314 0.082787
0.132162 0.667314 0.082787
0.161905 0.667314 0.082787
0.191173 0.667314 0.082787
0.220147 0.667314 0.082787
0.248915 0.667314 0.082787
0.277527 0.667314 0.082787
0.306009 0.667314 0.082787
0.334376 0.667314 0.082787
0.362634 0.667314 0.082787
0.390785 0.667314 0.082787
0.418825 0.667314 0.082787
0.446751 0.667314 0.082787
0.474555 0.667314 0.082787
0.502228 0.667314 0.082787
0.529762 0.667314 0.082787
0.557146 0.667314 0.082787
0.584369 0.667314 0.082787
0.611420 0.667314 0.082787
0.638288 0.667314 0.082787
0.664959 0.667314 0.082787
0.694603 0.670498 0.085775
0.724394 0.674086 0.089148
0.753890 0.677660 0.092514
0.783073 0.681221 0.095874
0.811921 0.684770 0.099227
0.840415 0.688307 0.102575
0.866497 0.691831 0.105918
0.885357 0.695344 0.109256
0.899362 0.698846 0.112589
0.910162 0.702338 0.115918
0.918736 0.705818 0.119242
0.923930 0.708341 0.121655
0.104854 0.697181 0.086158
0.135573 0.697181 0.086158
0.165355 0.697181 0.086158
0.194659 0.697181 0.086158
0.223664 0.697181 0.086158
0.252459 0.697181 0.086158
0.281095 0.697181 0.086158
0.309598 0.697181 0.086158
0.337983 0.697181 0.086158
0.366256 0.697181 0.086158
0.394418 0.697181 0.086158
0.422468 0.697181 0.086158
0.450400 0.697181 0.086158
0.478208 0.697181 0.086158
0.505882 0.697181 0.086158
0.533414 0.697181 0.086158
0.560794 0.697181 0.086158
0.588010 0.697181 0.086158
0.615052 0.697181 0.086158
0.641907 0.697181 0.086158
0.668564 0.697181 0.086158
0.695010 0.697181 0.086158
0.724394 0.700348 0.089148
0.753890 0.703906 0.092514
0.783073 0.707452 0.095874
0.811921 0.710984 0.099227
0.840415 0.714504 0.102575
0.866497 0.718012 0.105918
0.885357 0.721509 0.109256
0.899362 0.724993 0.112589
0.910162 0.728467 0.115918
0.918736 0.731930 0.119242
0.923930 0.734440 0.121655
0.108219 0.726830 0.089526
0.138982 0.726830 0.089526
0.168803 0.726830 0.089526
0.198141 0.726830 0.089526
0.227176 0.726830 0.089526
0.255999 0.726830 0.089526
0.284659 0.726830 0.089526
0.313182 0.726830 0.089526
0.341584 0.726830 0.089526
0.369872 0.726830 0.089526
0.398046 0.726830 0.089526
0.426104 0.726830 0.089526
0.454042 0.726830 0.089526
0.481853 0.726830 0.089526
0.509528 0.726830 0.089526
0.537058 0.726830 0.089526
0.564433 0.726830 0.089526
0.591642 0.726830 0.089526
0.618674 0.726830 0.089526
0.645517 0.726830 0.089526
0.672160 0.726830 0.089526
0.698589 0.726830 0.089526
0.724792 0.726830 0.089526
0.753890 0.729973 0.092514
0.783073 0.733501 0.095874
0.811921 0.737015 0.099227
0.840415 0.740516 0.102575
0.866497 0.744005 0.105918
0.885357 0.747483 0.109256
0.899362 0.750948 0.112589
0.910162 0.754403 0.115918
0.918736 0.757846 0.119242
0.923930 0.760341 0.121655
0.111582 0.756242 0.092891
0.142388 0.756242 0.092891
0.172248 0.756242 0.092891
0.201620 0.756242 0.092891
0.230685 0.756242 0.092891
0.259535 0.756242 0.092891
0.288218 0.756242 0.092891
0.316761 0.756242 0.092891
0.345180 0.756242 0.092891
0.373482 0.756242 0.092891
0.401667 0.756242 0.092891
0.429734 0.756242 0.092891
0.457677 0.756242 0.092891
0.485491 0.756242 0.092891
0.513166 0.756242 0.092891
0.540694 0.756242 0.092891
0.568064 0.756242 0.092891
0.595266 0.756242 0.092891
0.622288 0.756242 0.092891
0.649118 0.756242 0.092891
0.675746 0.756242 0.092891
0.702157 0.756242 0.092891
0.728341 0.756242 0.092891
0.754285 0.756242 0.092891
0.783073 0.759355 0.095874
0.811921 0.762849 0.099227
0.840415 0.766330 0.102575
0.866497 0.769798 0.105918
0.885357 0.773254 0.109256
0.899362 0.776698 0.112589
0.910162 0.780131 0.115918
0.918736 0.783552 0.119242
0.923930 0.786032 0.121655
0.114943 0.785396 0.096254
0.145793 0.785396 0.096254
0.175690 0.785396 0.096254
0.205096 0.785396 0.096254
0.234191 0.785396 0.096254
0.263067 0.785396 0.096254
0.291772 0.785396 0.096254
0.320336 0.785396 0.096254
0.348771 0.785396 0.096254
0.377086 0.785396 0.096254
0.405282 0.785396 0.096254
0.433357 0.785396 0.096254
0.461306 0.785396 0.096254
0.489122 0.785396 0.096254
0.516798 0.785396 0.096254
0.544323 0.785396 0.096254
0.571687 0.785396 0.096254
0.598881 0.785396 0.096254
0.625893 0.785396 0.096254
0.652710 0.785396 0.096254
0.679322 0.785396 0.096254
0.705717 0.785396 0.096254
0.731880 0.785396 0.096254
0.757801 0.785396 0.096254
0.783467 0.785396 0.096254
0.811921 0.788474 0.099227
0.840415 0.791932 0.102575
0.866497 0.795377 0.105918
0.885357 0.798810 0.109256
0.899362 0.802231 0.112589
0.910162 0.805640 0.115918
0.918736 0.809037 0.119242
0.923930 0.811499 0.121655
0.118303 0.814273 0.099614
0.149196 0.814273 0.099614
0.179130 0.814273 0.099614
0.208569 0.814273 0.099614
0.237693 0.814273 0.099614
0.266595 0.814273 0.099614
0.295323 0.814273 0.099614
0.323906 0.814273 0.099614
0.352358 0.814273 0.099614
0.380686 0.814273 0.099614
0.408892 0.814273 0.099614
0.436975 0.814273 0.099614
0.464929 0.814273 0.099614
0.492747 0.814273 0.099614
0.520422 0.814273 0.099614
0.547944 0.814273 0.099614
0.575303 0.814273 0.099614
0.602489 0.814273 0.099614
0.629489 0.814273 0.099614
0.656294 0.814273 0.099614
0.682890 0.814273 0.099614
0.709266 0.814273 0.099614
0.735410 0.814273 0.099614
0.761308 0.814273 0.099614
0.786948 0.814273 0.099614
0.812318 0.814273 0.099614
0.840415 0.817309 0.102575
