assets/luts/leica_artist.cube
TITLE "leica_artist"
LUT_3D_SIZE 33
DOMAIN_MIN 0.0 0.0 0.0
DOMAIN_MAX 1.0 1.0 1.0
0.005747 0.031127 0.074819
0.005632 0.030501 0.073300
0.009572 0.029874 0.071783
0.036652 0.029249 0.070266
0.064226 0.028623 0.068751
0.094561 0.030228 0.069532
0.125694 0.032119 0.070605
0.157298 0.034012 0.071678
0.189330 0.035908 0.072752
0.221750 0.037805 0.073827
0.254517 0.039704 0.074902
0.287590 0.041606 0.075977
0.320928 0.043509 0.077053
0.354491 0.045415 0.078130
0.388236 0.047323 0.079207
0.422123 0.049233 0.080285
0.456111 0.051144 0.081363
0.490159 0.053058 0.082442
0.524227 0.054974 0.083521
0.558272 0.056892 0.084601
0.592254 0.058812 0.085681
0.626133 0.060734 0.086761
0.659867 0.062658 0.087843
0.693414 0.064584 0.088924
0.726735 0.066512 0.090007
0.759788 0.068441 0.091089
0.792533 0.070373 0.092173
0.824927 0.072307 0.093256
0.856930 0.074243 0.094341
0.888502 0.076180 0.095425
0.919601 0.078120 0.096511
0.950186 0.080061 0.097596
0.980217 0.082005 0.098682
0.005361 0.055771 0.069715
0.005246 0.055136 0.068200
0.012528 0.054501 0.066686
0.039664 0.053866 0.065173
0.067706 0.053647 0.064082
0.098394 0.055564 0.065152
0.129588 0.057482 0.066223
0.161247 0.059403 0.067294
0.193329 0.061325 0.068366
0.225795 0.063250 0.069438
0.258602 0.065176 0.070511
0.291710 0.067105 0.071585
0.325078 0.069035 0.072659
0.358666 0.070968 0.073733
0.392431 0.072902 0.074808
0.426332 0.074838 0.075884
0.460330 0.076776 0.076960
0.494383 0.078717 0.078036
0.528450 0.080659 0.079113
0.562490 0.082602 0.080191
0.596462 0.084548 0.081269
0.630324 0.086496 0.082348
0.664037 0.088446 0.083427
0.697559 0.090397 0.084507
0.730849 0.092350 0.085587
0.763866 0.094305 0.086667
0.796569 0.096262 0.087749
0.828917 0.098221 0.088830
0.860869 0.100182 0.089913
0.892385 0.102144 0.090995
0.923422 0.104108 0.092078
0.953941 0.106074 0.093162
0.983899 0.108042 0.094246
0.006357 0.082213 0.066080
0.006314 0.081644 0.064643
0.017028 0.081076 0.063207
0.044322 0.080508 0.061772
0.072103 0.079940 0.060338
0.102235 0.081256 0.060781
0.133489 0.083201 0.061850
0.165203 0.085147 0.062919
0.197335 0.087095 0.063989
0.229845 0.089045 0.065059
0.262692 0.090997 0.066130
0.295834 0.092951 0.067201
0.329232 0.094907 0.068273
0.362843 0.096864 0.069345
0.396627 0.098824 0.070418
0.430543 0.100785 0.071491
0.464550 0.102748 0.072565
0.498607 0.104712 0.073640
0.532673 0.106679 0.074715
0.566706 0.108647 0.075790
0.600667 0.110617 0.076866
0.634513 0.112589 0.077943
0.668205 0.114563 0.079020
0.701700 0.116538 0.080097
0.734958 0.118515 0.081175
0.767939 0.120494 0.082254
0.800600 0.122474 0.083333
0.832901 0.124456 0.084413
0.864801 0.126440 0.085493
0.896260 0.128426 0.086574
0.927235 0.130413 0.087655
0.957686 0.132402 0.088736
0.987573 0.134392 0.089818
0.008465 0.110195 0.063618
0.008422 0.109619 0.062183
0.022519 0.109043 0.060749
0.049914 0.108468 0.059316
0.077790 0.107892 0.057883
0.106117 0.107317 0.056452
0.137397 0.109253 0.057486
0.169165 0.111223 0.058553
0.201346 0.113196 0.059621
0.233900 0.115170 0.060689
0.266786 0.117146 0.061757
0.299962 0.119123 0.062826
0.333389 0.121102 0.063896
0.367024 0.123083 0.064966
0.400826 0.125066 0.066037
0.434756 0.127050 0.067108
0.468771 0.129036 0.068180
0.502831 0.131024 0.069252
0.536895 0.133014 0.070325
0.570922 0.135005 0.071398
0.604871 0.136997 0.072472
0.638700 0.138992 0.073546
0.672369 0.140987 0.074621
0.705838 0.142985 0.075697
0.739064 0.144984 0.076773
0.772007 0.146985 0.077849
0.804625 0.148987 0.078926
0.836879 0.150991 0.080004
0.868727 0.152997 0.081082
0.900128 0.155004 0.082160
0.931040 0.157012 0.083239
0.961424 0.159022 0.084319
0.991237 0.161034 0.085399
0.010575 0.138536 0.061159
0.010532 0.137953 0.059726
0.028031 0.137371 0.058293
0.055526 0.136788 0.056862
0.083496 0.136205 0.055431
0.111910 0.135623 0.054002
0.141312 0.135617 0.053131
0.173133 0.137610 0.054196
0.205363 0.139605 0.055261
0.237961 0.141601 0.056327
0.270885 0.143599 0.057394
0.304094 0.145599 0.058460
0.337549 0.147600 0.059528
0.371207 0.149603 0.060596
0.405027 0.151607 0.061664
0.438970 0.153613 0.062733
0.472993 0.155621 0.063803
0.507056 0.157630 0.064873
0.541117 0.159641 0.065944
0.575136 0.161653 0.067015
0.609072 0.163666 0.068087
0.642884 0.165681 0.069159
0.676531 0.167698 0.070232
0.709971 0.169716 0.071305
0.743164 0.171736 0.072379
0.776069 0.173757 0.073453
0.808645 0.175779 0.074528
0.840851 0.177803 0.075603
0.872645 0.179829 0.076679
0.903988 0.181856 0.077756
0.934837 0.183884 0.078833
0.965152 0.185914 0.079910
0.994892 0.187945 0.080988
0.012689 0.167210 0.058704
0.012646 0.166620 0.057272
0.033563 0.166031 0.055841
0.061157 0.165442 0.054411
0.089220 0.164853 0.052982
0.117720 0.164264 0.051554
0.146625 0.163675 0.050127
0.177108 0.164286 0.049848
0.209386 0.166301 0.050911
0.242026 0.168318 0.051975
0.274988 0.170337 0.053039
0.308230 0.172357 0.054104
0.341712 0.174379 0.055169
0.375392 0.176402 0.056235
0.409230 0.178426 0.057301
0.443185 0.180452 0.058368
0.477215 0.182479 0.059435
0.511280 0.184508 0.060503
0.545338 0.186538 0.061571
0.579350 0.188570 0.062640
0.613272 0.190603 0.063710
0.647066 0.192637 0.064780
0.680689 0.194673 0.065851
0.714101 0.196710 0.066922
0.747261 0.198748 0.067993
0.780127 0.200788 0.069066
0.812659 0.202829 0.070138
0.844816 0.204872 0.071211
0.876557 0.206916 0.072285
0.907840 0.208961 0.073360
0.938626 0.211007 0.074434
0.968872 0.213055 0.075510
0.998537 0.215104 0.076586
0.014807 0.196189 0.056250
0.014763 0.195593 0.054820
0.039117 0.194998 0.053391
0.066808 0.194402 0.051963
0.094962 0.193807 0.050536
0.123547 0.193212 0.049110
0.152530 0.192617 0.047685
0.181881 0.192023 0.046260
0.213414 0.193263 0.046570
0.246096 0.195299 0.047632
0.279095 0.197336 0.048694
0.312369 0.199375 0.049756
0.345878 0.201416 0.050819
0.379580 0.203457 0.051882
0.413435 0.205500 0.052946
0.447401 0.207544 0.054011
0.481438 0.209590 0.055076
0.515504 0.211637 0.056142
0.549559 0.213685 0.057208
0.583561 0.215734 0.058275
0.617470 0.217785 0.059342
0.651245 0.219837 0.060410
0.684844 0.221890 0.061478
0.718227 0.223944 0.062547
0.751353 0.226000 0.063617
0.784180 0.228057 0.064687
0.816668 0.230115 0.065757
0.848775 0.232174 0.066829
0.880461 0.234235 0.067900
0.911685 0.236296 0.068972
0.942393 0.238365 0.070060
0.971467 0.240888 0.072438
1.000000 0.243412 0.074819
0.016927 0.225445 0.053800
0.017390 0.224844 0.052372
0.044690 0.224244 0.050945
0.072478 0.223643 0.049518
0.100722 0.223042 0.048093
0.129390 0.222442 0.046668
0.158450 0.221841 0.045245
0.187871 0.221241 0.043822
0.217621 0.220641 0.042401
0.250171 0.222521 0.043298
0.283207 0.224576 0.044358
0.316512 0.226632 0.045418
0.350047 0.228689 0.046478
0.383770 0.230748 0.047539
0.417641 0.232808 0.048601
0.451618 0.234868 0.049664
0.485661 0.236930 0.050726
0.519728 0.238994 0.051790
0.553779 0.241058 0.052854
0.587772 0.243124 0.053918
0.621666 0.245190 0.054984
0.655421 0.247258 0.056049
0.688996 0.249327 0.057115
0.722349 0.251397 0.058182
0.755440 0.253469 0.059249
0.788227 0.255541 0.060317
0.820670 0.257614 0.061386
0.852286 0.259862 0.062943
0.882766 0.262399 0.065313
0.912813 0.264938 0.067685
0.942393 0.267478 0.070060
0.971467 0.270019 0.072438
1.000000 0.272563 0.074819
0.019051 0.254953 0.051353
0.022882 0.254347 0.049926
0.050284 0.253742 0.048501
0.078167 0.253136 0.047076
0.106499 0.252531 0.045652
0.135249 0.251925 0.044230
0.164385 0.251320 0.042808
0.193875 0.250715 0.041387
0.223688 0.250110 0.039967
0.254251 0.249964 0.038974
0.287322 0.252034 0.040031
0.320658 0.254106 0.041089
0.354219 0.256178 0.042147
0.387963 0.258252 0.043206
0.421849 0.260327 0.044265
0.455836 0.262403 0.045325
0.489884 0.264480 0.046386
0.523952 0.266558 0.047447
0.557997 0.268637 0.048509
0.591980 0.270717 0.049571
0.625860 0.272798 0.050634
0.659595 0.274880 0.051697
0.693144 0.276964 0.052761
0.726467 0.279048 0.053826
0.758625 0.281476 0.055849
0.790179 0.284026 0.058211
0.821412 0.286577 0.060576
0.852286 0.289130 0.062943
0.882766 0.291684 0.065313
0.912813 0.294240 0.067685
0.942393 0.296797 0.070060
0.971467 0.299355 0.072438
1.000000 0.301915 0.074819
0.021177 0.284685 0.048909
0.028396 0.284075 0.047484
0.055897 0.283465 0.046060
0.083874 0.282855 0.044637
0.112293 0.282245 0.043215
0.141124 0.281636 0.041794
0.170334 0.281026 0.040374
0.199892 0.280416 0.038955
0.229767 0.279807 0.037537
0.259925 0.279197 0.036120
0.291442 0.279689 0.035714
0.324808 0.281774 0.036769
0.358394 0.283861 0.037825
0.392157 0.285948 0.038882
0.426058 0.288036 0.039939
0.460056 0.290126 0.040997
0.494108 0.292216 0.042055
0.528175 0.294307 0.043114
0.562215 0.296399 0.044173
0.596188 0.298492 0.045233
0.629922 0.300635 0.046428
0.662397 0.303195 0.048779
0.694697 0.305757 0.051133
0.726785 0.308320 0.053490
0.758625 0.310884 0.055849
0.790179 0.313449 0.058211
0.821412 0.316016 0.060576
0.852286 0.318584 0.062943
0.882766 0.321153 0.065313
0.912813 0.323724 0.067685
0.942393 0.326295 0.070060
0.971467 0.328868 0.072438
1.000000 0.331442 0.074819
0.023307 0.314614 0.046467
0.033930 0.314001 0.045044
0.061530 0.313387 0.043622
0.089599 0.312773 0.042201
0.118104 0.312159 0.040780
0.147015 0.311546 0.039361
0.176298 0.310932 0.037943
0.205923 0.310319 0.036526
0.235857 0.309706 0.035110
0.266069 0.309092 0.033694
0.296527 0.308479 0.032280
0.328961 0.309616 0.032459
0.362571 0.311714 0.033513
0.396354 0.313814 0.034567
0.430269 0.315914 0.035622
0.464276 0.318015 0.036677
0.498332 0.320117 0.037733
0.531810 0.322438 0.039391
0.564592 0.325009 0.041734
0.597308 0.327582 0.044080
0.629922 0.330155 0.046428
0.662397 0.332729 0.048779
0.694697 0.335305 0.051133
0.726785 0.337882 0.053490
0.758625 0.340460 0.055849
0.790179 0.343038 0.058211
0.821412 0.345618 0.060576
0.852286 0.348199 0.062943
0.882766 0.350781 0.065313
0.912813 0.353364 0.067685
0.942393 0.355948 0.070060
0.971467 0.358533 0.072438
1.000000 0.361119 0.074819
0.025440 0.344714 0.044029
0.039484 0.344097 0.042608
0.067182 0.343480 0.041187
0.095342 0.342863 0.039767
0.123932 0.342246 0.038349
0.152921 0.341629 0.036931
0.182276 0.341012 0.035515
0.211966 0.340396 0.034100
0.241959 0.339779 0.032685
0.272223 0.339162 0.031272
0.302728 0.338546 0.029860
0.333440 0.337929 0.028448
0.366751 0.339718 0.029210
0.400553 0.341828 0.030262
0.433439 0.344328 0.032379
0.466198 0.346909 0.034714
0.499000 0.349490 0.037051
0.531810 0.352073 0.039391
0.564592 0.354656 0.041734
0.597308 0.357241 0.044080
0.629922 0.359826 0.046428
0.662397 0.362413 0.048779
0.694697 0.365000 0.051133
0.726785 0.367588 0.053490
0.758625 0.370178 0.055849
0.790179 0.372768 0.058211
0.821412 0.375358 0.060576
0.852286 0.377950 0.062943
0.882766 0.380543 0.065313
0.912813 0.383136 0.067685
0.942393 0.385730 0.070060
0.971467 0.388325 0.072438
1.000000 0.390921 0.074819
0.027577 0.374956 0.041594
0.045059 0.374337 0.040174
0.072853 0.373717 0.038755
0.101103 0.373097 0.037337
0.129776 0.372478 0.035920
0.158842 0.371858 0.034505
0.188267 0.371239 0.033090
0.218021 0.370619 0.031676
0.248072 0.370000 0.030264
0.278388 0.369381 0.028852
0.308724 0.368883 0.027719
0.338384 0.368883 0.027719
0.368203 0.368883 0.027719
0.400762 0.371472 0.030047
0.433439 0.374063 0.032379
0.466198 0.376654 0.034714
0.499000 0.379246 0.037051
0.531810 0.381839 0.039391
0.564592 0.384433 0.041734
0.597308 0.387028 0.044080
0.629922 0.389623 0.046428
0.662397 0.392219 0.048779
0.694697 0.394816 0.051133
0.726785 0.397414 0.053490
0.758625 0.400012 0.055849
0.790179 0.402611 0.058211
0.821412 0.405210 0.060576
0.852286 0.407811 0.062943
0.882766 0.410412 0.065313
0.912813 0.413013 0.067685
0.942393 0.415615 0.070060
0.971467 0.418218 0.072438
1.000000 0.420821 0.074819
0.029716 0.405315 0.039161
0.050654 0.404693 0.037743
0.078543 0.404071 0.036326
0.106881 0.403450 0.034910
0.135636 0.402828 0.033495
0.164777 0.402206 0.032081
0.194272 0.401584 0.030668
0.223496 0.401311 0.030047
0.252530 0.401311 0.030047
0.281806 0.401311 0.030047
0.311296 0.401311 0.030047
0.340971 0.401311 0.030047
0.370803 0.401311 0.030047
0.400762 0.401311 0.030047
0.433439 0.403910 0.032379
0.466198 0.406510 0.034714
0.499000 0.409111 0.037051
0.531810 0.411712 0.039391
0.564592 0.414314 0.041734
0.597308 0.416916 0.044080
0.629922 0.419519 0.046428
0.662397 0.422123 0.048779
0.694697 0.424727 0.051133
0.726785 0.427332 0.053490
0.758625 0.429937 0.055849
0.790179 0.432543 0.058211
0.821412 0.435149 0.060576
0.852286 0.437755 0.062943
0.882766 0.440362 0.065313
0.912813 0.442970 0.067685
0.942393 0.445577 0.070060
0.971467 0.448186 0.072438
1.000000 0.450794 0.074819
0.031859 0.435763 0.036732
0.056268 0.435139 0.035315
0.084251 0.434516 0.033900
0.112676 0.433893 0.032486
0.140565 0.433846 0.032379
0.168731 0.433846 0.032379
0.197222 0.433846 0.032379
0.226010 0.433846 0.032379
0.255066 0.433846 0.032379
0.284362 0.433846 0.032379
0.313869 0.433846 0.032379
0.343559 0.433846 0.032379
0.373403 0.433846 0.032379
0.403373 0.433846 0.032379
0.433439 0.433846 0.032379
0.466198 0.436452 0.034714
0.499000 0.439059 0.037051
0.531810 0.441666 0.039391
0.564592 0.444273 0.041734
0.597308 0.446881 0.044080
0.629922 0.449490 0.046428
0.662397 0.452099 0.048779
0.694697 0.454708 0.051133
0.726785 0.457317 0.053490
0.758625 0.459927 0.055849
0.790179 0.462537 0.058211
0.821412 0.465147 0.060576
0.852286 0.467758 0.062943
0.882766 0.470369 0.065313
0.912813 0.472980 0.067685
0.942393 0.475591 0.070060
0.971467 0.478203 0.072438
1.000000 0.480815 0.074819
0.034017 0.466453 0.034714
0.060636 0.466453 0.034714
0.087692 0.466453 0.034714
0.115156 0.466453 0.034714
0.143001 0.466453 0.034714
0.171196 0.466453 0.034714
0.199714 0.466453 0.034714
0.228527 0.466453 0.034714
0.257605 0.466453 0.034714
0.286920 0.466453 0.034714
0.316444 0.466453 0.034714
0.346149 0.466453 0.034714
0.376005 0.466453 0.034714
0.405984 0.466453 0.034714
0.436058 0.466453 0.034714
0.466198 0.466453 0.034714
0.499000 0.469064 0.037051
0.531810 0.471674 0.039391
0.564592 0.474286 0.041734
0.597308 0.476897 0.044080
0.629922 0.479509 0.046428
0.662397 0.482120 0.048779
0.694697 0.484732 0.051133
0.726785 0.487344 0.053490
0.758625 0.489957 0.055849
0.790179 0.492569 0.058211
0.821412 0.495181 0.060576
0.852286 0.497794 0.062943
0.882766 0.500406 0.065313
0.912813 0.503019 0.067685
0.942393 0.505631 0.070060
0.971467 0.508244 0.072438
1.000000 0.510856 0.074819
0.036314 0.499100 0.037051
0.062972 0.499100 0.037051
0.090065 0.499100 0.037051
0.117563 0.499100 0.037051
0.145439 0.499100 0.037051
0.173663 0.499100 0.037051
0.202208 0.499100 0.037051
0.231045 0.499100 0.037051
0.260145 0.499100 0.037051
0.289480 0.499100 0.037051
0.319021 0.499100 0.037051
0.348739 0.499100 0.037051
0.378607 0.499100 0.037051
0.408596 0.499100 0.037051
0.438676 0.499100 0.037051
0.468821 0.499100 0.037051
0.499000 0.499100 0.037051
0.531810 0.501713 0.039391
0.564592 0.504325 0.041734
0.597308 0.506938 0.044080
0.629922 0.509550 0.046428
0.662397 0.512163 0.048779
0.694697 0.514775 0.051133
0.726785 0.517388 0.053490
0.758625 0.520000 0.055849
0.790179 0.522612 0.058211
0.821412 0.525224 0.060576
0.852286 0.527836 0.062943
0.882766 0.530448 0.065313
0.912813 0.533060 0.067685
0.942393 0.535672 0.070060
0.971467 0.538283 0.072438
1.000000 0.540894 0.074819
0.038614 0.531754 0.039391
0.065311 0.531754 0.039391
0.092440 0.531754 0.039391
0.119972 0.531754 0.039391
0.147880 0.531754 0.039391
0.176133 0.531754 0.039391
0.204705 0.531754 0.039391
0.233565 0.531754 0.039391
0.262687 0.531754 0.039391
0.292041 0.531754 0.039391
0.321598 0.531754 0.039391
0.351331 0.531754 0.039391
0.381210 0.531754 0.039391
0.411208 0.531754 0.039391
0.441295 0.531754 0.039391
0.471444 0.531754 0.039391
0.501625 0.531754 0.039391
0.531810 0.531754 0.039391
0.564592 0.534366 0.041734
0.597308 0.536977 0.044080
0.629922 0.539589 0.046428
0.662397 0.542200 0.048779
0.694697 0.544811 0.051133
0.726785 0.547421 0.053490
0.758625 0.550031 0.055849
0.790179 0.552641 0.058211
0.821412 0.555251 0.060576
0.852286 0.557861 0.062943
0.882766 0.560470 0.065313
0.912813 0.563078 0.067685
0.942393 0.565687 0.070060
0.971467 0.568295 0.072438
1.000000 0.570902 0.074819
0.040917 0.564383 0.041734
0.067653 0.564383 0.041734
0.094819 0.564383 0.041734
0.122385 0.564383 0.041734
0.150323 0.564383 0.041734
0.178606 0.564383 0.041734
0.207203 0.564383 0.041734
0.236088 0.564383 0.041734
0.265231 0.564383 0.041734
0.294603 0.564383 0.041734
0.324177 0.564383 0.041734
0.353924 0.564383 0.041734
0.383815 0.564383 0.041734
0.413821 0.564383 0.041734
0.443915 0.564383 0.041734
0.474067 0.564383 0.041734
0.504250 0.564383 0.041734
0.534434 0.564383 0.041734
0.564592 0.564383 0.041734
0.597308 0.566991 0.044080
0.629922 0.569599 0.046428
0.662397 0.572206 0.048779
0.694697 0.574813 0.051133
0.726785 0.577419 0.053490
0.758625 0.580025 0.055849
0.790179 0.582631 0.058211
0.821412 0.585236 0.060576
0.852286 0.587840 0.062943
0.882766 0.590444 0.065313
0.912813 0.593048 0.067685
0.942393 0.595651 0.070060
0.971467 0.598253 0.072438
1.000000 0.600855 0.074819
0.043224 0.596952 0.044080
0.069999 0.596952 0.044080
0.097200 0.596952 0.044080
0.124800 0.596952 0.044080
0.152769 0.596952 0.044080
0.181080 0.596952 0.044080
0.209704 0.596952 0.044080
0.238612 0.596952 0.044080
0.267776 0.596952 0.044080
0.297167 0.596952 0.044080
0.326757 0.596952 0.044080
0.356518 0.596952 0.044080
0.386420 0.596952 0.044080
0.416435 0.596952 0.044080
0.446535 0.596952 0.044080
0.476691 0.596952 0.044080
0.506875 0.596952 0.044080
0.537058 0.596952 0.044080
0.567212 0.596952 0.044080
0.597308 0.596952 0.044080
0.629922 0.599554 0.046428
0.662397 0.602156 0.048779
0.694697 0.604756 0.051133
0.726785 0.607356 0.053490
0.758625 0.609956 0.055849
0.790179 0.612555 0.058211
0.821412 0.615153 0.060576
0.852286 0.617750 0.062943
0.882766 0.620347 0.065313
0.912813 0.622943 0.067685
0.942393 0.625538 0.070060
0.971467 0.628133 0.072438
1.000000 0.630726 0.074819
0.045535 0.629430 0.046428
0.072348 0.629430 0.046428
0.099585 0.629430 0.046428
0.127218 0.629430 0.046428
0.155218 0.629430 0.046428
0.183557 0.629430 0.046428
0.212207 0.629430 0.046428
0.241138 0.629430 0.046428
0.270323 0.629430 0.046428
0.299733 0.629430 0.046428
0.329339 0.629430 0.046428
0.359113 0.629430 0.046428
0.389026 0.629430 0.046428
0.419049 0.629430 0.046428
0.449155 0.629430 0.046428
0.479315 0.629430 0.046428
0.509500 0.629430 0.046428
0.539682 0.629430 0.046428
0.569832 0.629430 0.046428
0.599921 0.629430 0.046428
0.629922 0.629430 0.046428
0.662397 0.632023 0.048779
0.694697 0.634615 0.051133
0.726785 0.637207 0.053490
0.758625 0.639798 0.055849
0.790179 0.642388 0.058211
0.821412 0.644977 0.060576
0.852286 0.647565 0.062943
0.882766 0.650152 0.065313
0.912813 0.652738 0.067685
0.942393 0.655324 0.070060
0.971467 0.657908 0.072438
1.000000 0.660491 0.074819
0.047849 0.661782 0.048779
0.074700 0.661782 0.048779
0.101972 0.661782 0.048779
0.129638 0.661782 0.048779
0.157669 0.661782 0.048779
0.186037 0.661782 0.048779
0.214712 0.661782 0.048779
0.243667 0.661782 0.048779
0.272872 0.661782 0.048779
0.302300 0.661782 0.048779
0.331922 0.661782 0.048779
0.361709 0.661782 0.048779
0.391632 0.661782 0.048779
0.421664 0.661782 0.048779
0.451776 0.661782 0.048779
0.481939 0.661782 0.048779
0.512125 0.661782 0.048779
0.542305 0.661782 0.048779
0.572451 0.661782 0.048779
0.602534 0.661782 0.048779
0.632525 0.661782 0.048779
0.662397 0.661782 0.048779
0.694697 0.664364 0.051133
0.726785 0.666945 0.053490
0.758625 0.669525 0.055849
0.790179 0.672104 0.058211
0.821412 0.674681 0.060576
0.852286 0.677258 0.062943
0.882766 0.679833 0.065313
0.912813 0.682408 0.067685
0.942393 0.684981 0.070060
0.971467 0.687553 0.072438
1.000000 0.690124 0.074819
0.050166 0.693978 0.051133
0.077055 0.693978 0.051133
0.104363 0.693978 0.051133
0.132062 0.693978 0.051133
0.160123 0.693978 0.051133
0.188518 0.693978 0.051133
0.217219 0.693978 0.051133
0.246197 0.693978 0.051133
0.275423 0.693978 0.051133
0.304868 0.693978 0.051133
0.334506 0.693978 0.051133
0.364306 0.693978 0.051133
0.394240 0.693978 0.051133
0.424280 0.693978 0.051133
0.454398 0.693978 0.051133
0.484564 0.693978 0.051133
0.514750 0.693978 0.051133
0.544928 0.693978 0.051133
0.575070 0.693978 0.051133
0.605146 0.693978 0.051133
0.635128 0.693978 0.051133
0.664988 0.693978 0.051133
0.694697 0.693978 0.051133
0.726785 0.696545 0.053490
0.758625 0.699112 0.055849
0.790179 0.701677 0.058211
0.821412 0.704241 0.060576
0.852286 0.706804 0.062943
0.882766 0.709365 0.065313
0.912813 0.711926 0.067685
0.942393 0.714484 0.070060
0.971467 0.717042 0.072438
1.000000 0.719865 0.074819
0.052487 0.725982 0.053490
0.079413 0.725982 0.053490
0.106756 0.725982 0.053490
0.134488 0.725982 0.053490
0.162579 0.725982 0.053490
0.191002 0.725982 0.053490
0.219728 0.725982 0.053490
0.248729 0.725982 0.053490
0.277975 0.725982 0.053490
0.307438 0.725982 0.053490
0.337091 0.725982 0.053490
0.366904 0.725982 0.053490
0.396848 0.725982 0.053490
0.426896 0.725982 0.053490
0.457019 0.725982 0.053490
0.487188 0.725982 0.053490
0.517375 0.725982 0.053490
0.547551 0.725982 0.053490
0.577688 0.725982 0.053490
0.607757 0.725982 0.053490
0.637730 0.725982 0.053490
0.667578 0.725982 0.053490
0.697273 0.725982 0.053490
0.726785 0.725982 0.053490
0.758625 0.728533 0.055849
0.790179 0.731083 0.058211
0.821412 0.733631 0.060576
0.852286 0.736178 0.062943
0.882778 0.738728 0.065314
0.913871 0.741772 0.067770
0.944461 0.744813 0.070228
0.974507 0.747851 0.072690
1.000000 0.750531 0.074819
0.054811 0.757763 0.055849
0.081775 0.757763 0.055849
0.109153 0.757763 0.055849
0.136917 0.757763 0.055849
0.165038 0.757763 0.055849
0.193489 0.757763 0.055849
0.222239 0.757763 0.055849
0.251262 0.757763 0.055849
0.280529 0.757763 0.055849
0.310010 0.757763 0.055849
0.339677 0.757763 0.055849
0.369503 0.757763 0.055849
0.399458 0.757763 0.055849
0.429513 0.757763 0.055849
0.459641 0.757763 0.055849
0.489813 0.757763 0.055849
0.520000 0.757763 0.055849
0.550174 0.757763 0.055849
0.580306 0.757763 0.055849
0.610368 0.757763 0.055849
0.640331 0.757763 0.055849
0.670167 0.757763 0.055849
0.699847 0.757763 0.055849
0.729342 0.757763 0.055849
0.758625 0.757763 0.055849
0.790593 0.760481 0.058242
0.822910 0.763508 0.060690
0.854842 0.766532 0.063140
0.886347 0.769554 0.065594
0.917384 0.772574 0.068050
0.947915 0.775591 0.070509
0.977896 0.778605 0.072970
1.000000 0.780966 0.074819
0.057139 0.789286 0.058211
0.084139 0.789286 0.058211
0.111552 0.789286 0.058211
0.139348 0.789286 0.058211
0.167499 0.789286 0.058211
0.195977 0.789286 0.058211
0.224753 0.789286 0.058211
0.253798 0.789286 0.058211
0.283084 0.789286 0.058211
0.312583 0.789286 0.058211
0.342265 0.789286 0.058211
0.372103 0.789286 0.058211
0.402068 0.789286 0.058211
0.432131 0.789286 0.058211
0.462263 0.789286 0.058211
0.492438 0.789286 0.058211
0.522625 0.789286 0.058211
0.552796 0.789286 0.058211
0.582923 0.789286 0.058211
0.612978 0.789286 0.058211
0.642931 0.789286 0.058211
0.672754 0.789286 0.058211
0.703213 0.789612 0.058235
0.733752 0.790052 0.058269
0.764057 0.790493 0.058302
0.794296 0.791130 0.058521
0.826571 0.794131 0.060969
0.858456 0.797130 0.063420
0.889910 0.800125 0.065873
0.920892 0.803118 0.068330
0.951361 0.806108 0.070789
0.981278 0.809095 0.073251
1.000000 0.811140 0.074819
0.059469 0.820521 0.060576
0.086507 0.820521 0.060576
0.113954 0.820521 0.060576
0.141782 0.820521 0.060576
0.169963 0.820521 0.060576
0.198468 0.820521 0.060576
0.227268 0.820521 0.060576
0.256335 0.820521 0.060576
0.285641 0.820521 0.060576
0.315157 0.820521 0.060576
0.344854 0.820521 0.060576
0.374704 0.820521 0.060576
0.404678 0.820521 0.060576
0.434748 0.820521 0.060576
0.464886 0.820521 0.060576
0.495063 0.820521 0.060576
0.525249 0.820521 0.060576
0.555418 0.820521 0.060576
0.585653 0.820566 0.060579
0.616788 0.821002 0.060612
0.647811 0.821438 0.060645
0.678689 0.821874 0.060679
0.709391 0.822310 0.060712
0.739886 0.822746 0.060745
0.770140 0.823181 0.060778
0.800124 0.823617 0.060811
0.830227 0.824476 0.061248
