assets/luts/leica_vivid.cube
TITLE "leica_vivid"
LUT_3D_SIZE 9
DOMAIN_MIN 0.0 0.0 0.0
DOMAIN_MAX 1.0 1.0 1.0
0.000000 0.000000 0.000000
0.106192 0.000000 0.000000
0.227200 0.000000 0.000000
0.354588 0.000000 0.000000
0.484921 0.000000 0.000000
0.614763 0.000000 0.000000
0.740679 0.000000 0.000000
0.859233 0.000000 0.000000
0.965000 0.000000 0.000000
0.000000 0.105216 0.000000
0.106192 0.105216 0.000000
0.227200 0.105216 0.000000
0.354588 0.105216 0.000000
0.484921 0.105216 0.000000
0.614763 0.105216 0.000000
0.740679 0.105216 0.000000
0.859233 0.105216 0.000000
0.965000 0.105216 0.000000
0.000000 0.225860 0.000000
0.106192 0.225860 0.000000
0.227200 0.225860 0.000000
0.354588 0.225860 0.000000
0.484921 0.225860 0.000000
0.614763 0.225860 0.000000
0.740679 0.225860 0.000000
0.859233 0.225860 0.000000
0.965000 0.225860 0.000000
0.000000 0.353294 0.000000
0.106192 0.353294 0.000000
0.227200 0.353294 0.000000
0.354588 0.353294 0.000000
0.484921 0.353294 0.000000
0.614763 0.353294 0.000000
0.740679 0.353294 0.000000
0.859233 0.353294 0.000000
0.965000 0.353294 0.000000
0.000000 0.483880 0.000000
0.106192 0.483880 0.000000
0.227200 0.483880 0.000000
0.354588 0.483880 0.000000
0.484921 0.483880 0.000000
0.614763 0.483880 0.000000
0.740679 0.483880 0.000000
0.859233 0.483880 0.000000
0.965000 0.483880 0.000000
0.000000 0.613981 0.000000
0.106192 0.613981 0.000000
0.227200 0.613981 0.000000
0.354588 0.613981 0.000000
0.484921 0.613981 0.000000
0.614763 0.613981 0.000000
0.740679 0.613981 0.000000
0.859233 0.613981 0.000000
0.965000 0.613981 0.000000
0.000000 0.739960 0.000000
0.106192 0.739960 0.000000
0.227200 0.739960 0.000000
0.354588 0.739960 0.000000
0.484921 0.739960 0.000000
0.614763 0.739960 0.000000
0.740679 0.739960 0.000000
0.859233 0.739960 0.000000
0.965000 0.739960 0.000000
0.000000 0.858179 0.000000
0.106192 0.858179 0.000000
0.227200 0.858179 0.000000
0.354588 0.858179 0.000000
0.484921 0.858179 0.000000
0.614763 0.858179 0.000000
0.740679 0.858179 0.000000
0.859233 0.858179 0.000000
0.965000 0.858179 0.000000
0.000000 0.965000 0.000000
0.106192 0.965000 0.000000
0.227200 0.965000 0.000000
0.354588 0.965000 0.000000
0.484921 0.965000 0.000000
0.614763 0.965000 0.000000
0.740679 0.965000 0.000000
0.859233 0.965000 0.000000
0.965000 0.965000 0.000000
0.000000 0.000000 0.106236
0.106192 0.000000 0.106236
0.227200 0.000000 0.106236
0.354588 0.000000 0.106236
0.484921 0.000000 0.106236
0.614763 0.000000 0.106236
0.740679 0.000000 0.106236
0.859233 0.000000 0.106236
0.965000 0.000000 0.106236
0.000000 0.105216 0.106236
0.106183 0.104992 0.106236
0.227200 0.078380 0.079624
0.354588 0.050354 0.051599
0.484921 0.021681 0.022926
0.614763 0.000000 0.000000
0.740679 0.000000 0.000000
0.859233 0.000000 0.000000
0.965000 0.000000 0.000000
0.000000 0.225860 0.106236
0.079865 0.225860 0.079919
0.227200 0.225565 0.079624
0.354588 0.197540 0.051599
0.484921 0.168867 0.022926
0.614763 0.140790 0.000000
0.740679 0.135597 0.000000
0.859233 0.132295 0.000000
0.965000 0.130118 0.000000
0.000000 0.353294 0.106236
0.051830 0.353294 0.051884
0.199460 0.353294 0.051884
0.354588 0.353009 0.051599
0.484921 0.324336 0.022926
0.614763 0.296099 0.000000
0.740679 0.285374 0.000000
0.859233 0.278554 0.000000
0.965000 0.274059 0.000000
0.000000 0.483880 0.106236
0.023101 0.483880 0.023155
0.170731 0.483880 0.023155
0.326144 0.483880 0.023155
0.484921 0.483651 0.022926
0.614763 0.455250 0.000000
0.740679 0.438856 0.000000
0.859233 0.428431 0.000000
0.965000 0.421560 0.000000
0.000000 0.613981 0.106236
0.000000 0.613981 0.000000
0.142464 0.613981 0.000000
0.297760 0.613981 0.000000
0.456646 0.613981 0.000000
0.614763 0.613810 0.000000
0.740679 0.591767 0.000000
0.859233 0.577751 0.000000
0.965000 0.568513 0.000000
0.000000 0.739960 0.106236
0.000000 0.739960 0.000000
0.137196 0.739960 0.000000
0.286944 0.739960 0.000000
0.440154 0.739960 0.000000
0.592787 0.739960 0.000000
0.740679 0.739834 0.000000
0.859233 0.722340 0.000000
0.965000 0.710810 0.000000
0.000000 0.858179 0.106236
0.000000 0.858179 0.000000
0.133858 0.858179 0.000000
0.280091 0.858179 0.000000
0.429704 0.858179 0.000000
0.578754 0.858179 0.000000
0.723297 0.858179 0.000000
0.859233 0.858023 0.000000
0.965000 0.844342 0.000000
0.000000 0.965000 0.106236
0.000000 0.965000 0.000000
0.131632 0.965000 0.000000
0.275521 0.965000 0.000000
0.422736 0.965000 0.000000
0.569396 0.965000 0.000000
0.711622 0.965000 0.000000
0.845533 0.965000 0.000000
0.965000 0.965000 0.000000
0.000000 0.000000 0.226551
0.106192 0.000000 0.226551
0.227200 0.000000 0.226551
0.354588 0.000000 0.226551
0.484921 0.000000 0.226551
0.614763 0.000000 0.226551
0.740679 0.000000 0.226551
0.859233 0.000000 0.226551
0.965000 0.000000 0.226551
0.000000 0.105216 0.226551
0.079713 0.078523 0.226551
0.227200 0.078380 0.226408
0.354588 0.050354 0.198382
0.484921 0.021681 0.169709
0.614763 0.000000 0.142579
0.740679 0.000000 0.137379
0.859233 0.000000 0.134070
0.965000 0.000000 0.131888
0.000000 0.225860 0.226551
0.079713 0.225708 0.226551
0.227200 0.225565 0.226408
0.354588 0.197540 0.198382
0.484921 0.168867 0.169709
0.614763 0.140301 0.141144
0.740679 0.112600 0.113442
0.859233 0.086518 0.087360
0.965000 0.063249 0.064092
0.000000 0.353294 0.226551
0.051830 0.353294 0.198667
0.199460 0.353294 0.198667
0.354588 0.353009 0.198382
0.484921 0.324336 0.169709
0.614763 0.295771 0.141144
0.740679 0.268069 0.113442
0.859233 0.241987 0.087360
0.965000 0.218718 0.064092
0.000000 0.483880 0.226551
0.023101 0.483880 0.169938
0.170731 0.483880 0.169938
0.326144 0.483880 0.169938
0.484921 0.483651 0.169709
0.614763 0.455086 0.141144
0.740679 0.427384 0.113442
0.859233 0.401302 0.087360
0.965000 0.378034 0.064092
0.000000 0.613981 0.226551
0.000000 0.613981 0.141714
0.142108 0.613981 0.141316
0.297522 0.613981 0.141316
0.456528 0.613981 0.141316
0.614763 0.613809 0.141144
0.740679 0.586108 0.113442
0.859233 0.560026 0.087360
0.965000 0.536757 0.064092
0.000000 0.739960 0.226551
0.000000 0.739960 0.136475
0.114393 0.739960 0.113601
0.269806 0.739960 0.113601
0.428812 0.739960 0.113601
0.587220 0.739960 0.113601
0.740679 0.739802 0.113442
0.859233 0.713720 0.087360
0.965000 0.690451 0.064092
0.000000 0.858179 0.226551
0.000000 0.858179 0.133155
0.088385 0.858179 0.087593
0.243798 0.858179 0.087593
0.402804 0.858179 0.087593
0.561211 0.858179 0.087593
0.714829 0.858179 0.087593
0.859233 0.857947 0.087360
0.965000 0.834678 0.064092
0.000000 0.965000 0.226551
0.000000 0.965000 0.130942
0.064884 0.965000 0.064092
0.220298 0.965000 0.064092
0.379303 0.965000 0.064092
0.537711 0.965000 0.064092
0.691328 0.965000 0.064092
0.835965 0.965000 0.064092
0.965000 0.965000 0.064092
0.000000 0.000000 0.352789
0.106192 0.000000 0.352789
0.227200 0.000000 0.352789
0.354588 0.000000 0.352789
0.484921 0.000000 0.352789
0.614763 0.000000 0.352789
0.740679 0.000000 0.352789
0.859233 0.000000 0.352789
0.965000 0.000000 0.352789
0.000000 0.105216 0.352789
0.051941 0.050750 0.352789
0.199571 0.050750 0.352789
0.354588 0.050354 0.352393
0.484921 0.021681 0.323720
0.614763 0.000000 0.296123
0.740679 0.000000 0.285513
0.859233 0.000000 0.278761
0.965000 0.000000 0.274309
0.000000 0.225860 0.352789
0.051941 0.197936 0.352789
0.199571 0.197936 0.352789
0.354588 0.197540 0.352393
0.484921 0.168867 0.323720
0.614763 0.140301 0.295155
0.740679 0.112600 0.267453
0.859233 0.086518 0.241371
0.965000 0.063249 0.218103
0.000000 0.353294 0.352789
0.051830 0.353294 0.352678
0.199460 0.353294 0.352678
0.354588 0.353009 0.352393
0.484921 0.324336 0.323720
0.614763 0.295771 0.295155
0.740679 0.268069 0.267453
0.859233 0.241987 0.241371
0.965000 0.218718 0.218103
0.000000 0.483880 0.352789
0.023101 0.483880 0.323949
0.170731 0.483880 0.323949
0.326144 0.483880 0.323949
0.484921 0.483651 0.323720
0.614763 0.455086 0.295155
0.740679 0.427384 0.267453
0.859233 0.401302 0.241371
0.965000 0.378034 0.218103
0.000000 0.613981 0.352789
0.000000 0.613981 0.295595
0.142108 0.613981 0.295327
0.297522 0.613981 0.295327
0.456528 0.613981 0.295327
0.614763 0.613809 0.295155
0.740679 0.586108 0.267453
0.859233 0.560026 0.241371
0.965000 0.536757 0.218103
0.000000 0.739960 0.352789
0.000000 0.739960 0.284861
0.114393 0.739960 0.267611
0.269806 0.739960 0.267611
0.428812 0.739960 0.267611
0.587220 0.739960 0.267611
0.740679 0.739802 0.267453
0.859233 0.713720 0.241371
0.965000 0.690451 0.218103
0.000000 0.858179 0.352789
0.000000 0.858179 0.278060
0.088385 0.858179 0.241603
0.243798 0.858179 0.241603
0.402804 0.858179 0.241603
0.561211 0.858179 0.241603
0.714829 0.858179 0.241603
0.859233 0.857947 0.241371
0.965000 0.834678 0.218103
0.000000 0.965000 0.352789
0.000000 0.965000 0.273524
0.064884 0.965000 0.218103
0.220298 0.965000 0.218103
0.379303 0.965000 0.218103
0.537711 0.965000 0.218103
0.691328 0.965000 0.218103
0.835965 0.965000 0.218103
0.965000 0.965000 0.218103
0.000000 0.000000 0.481798
0.106192 0.000000 0.481798
0.227200 0.000000 0.481798
0.354588 0.000000 0.481798
0.484921 0.000000 0.481798
0.614763 0.000000 0.481798
0.740679 0.000000 0.481798
0.859233 0.000000 0.481798
0.965000 0.000000 0.481798
0.000000 0.105216 0.481798
0.023559 0.022368 0.481798
0.171189 0.022368 0.481798
0.326602 0.022368 0.481798
0.484921 0.021681 0.481111
0.614763 0.000000 0.453038
0.740679 0.000000 0.436897
0.859233 0.000000 0.426628
0.965000 0.000000 0.419856
0.000000 0.225860 0.481798
0.023559 0.169554 0.481798
0.171189 0.169554 0.481798
0.326602 0.169554 0.481798
0.484921 0.168867 0.481111
0.614763 0.140301 0.452546
0.740679 0.112600 0.424844
0.859233 0.086518 0.398762
0.965000 0.063249 0.375494
0.000000 0.353294 0.481798
0.023559 0.325023 0.481798
0.171189 0.325023 0.481798
0.326602 0.325023 0.481798
0.484921 0.324336 0.481111
0.614763 0.295771 0.452546
0.740679 0.268069 0.424844
0.859233 0.241987 0.398762
0.965000 0.218718 0.375494
0.000000 0.483880 0.481798
0.023101 0.483880 0.481340
0.170731 0.483880 0.481340
0.326144 0.483880 0.481340
0.484921 0.483651 0.481111
0.614763 0.455086 0.452546
0.740679 0.427384 0.424844
0.859233 0.401302 0.398762
0.965000 0.378034 0.375494
0.000000 0.613981 0.481798
0.000000 0.613981 0.452854
0.142108 0.613981 0.452718
0.297522 0.613981 0.452718
0.456528 0.613981 0.452718
0.614763 0.613809 0.452546
0.740679 0.586108 0.424844
0.859233 0.560026 0.398762
0.965000 0.536757 0.375494
0.000000 0.739960 0.481798
0.000000 0.739960 0.436505
0.114393 0.739960 0.425003
0.269806 0.739960 0.425003
0.428812 0.739960 0.425003
0.587220 0.739960 0.425003
0.740679 0.739802 0.424844
0.859233 0.713720 0.398762
0.965000 0.690451 0.375494
0.000000 0.858179 0.481798
0.000000 0.858179 0.426145
0.088385 0.858179 0.398994
0.243798 0.858179 0.398994
0.402804 0.858179 0.398994
0.561211 0.858179 0.398994
0.714829 0.858179 0.398994
0.859233 0.857947 0.398762
0.965000 0.834678 0.375494
0.000000 0.965000 0.481798
0.000000 0.965000 0.419237
0.064884 0.965000 0.375494
0.220298 0.965000 0.375494
0.379303 0.965000 0.375494
0.537711 0.965000 0.375494
0.691328 0.965000 0.375494
0.835965 0.965000 0.375494
0.965000 0.965000 0.375494
0.000000 0.000000 0.610424
0.106192 0.000000 0.610424
0.227200 0.000000 0.610424
0.354588 0.000000 0.610424
0.484921 0.000000 0.610424
0.614763 0.000000 0.610424
0.740679 0.000000 0.610424
0.859233 0.000000 0.610424
0.965000 0.000000 0.610424
0.000000 0.105216 0.610424
0.000000 0.000000 0.610424
0.143596 0.000000 0.610424
0.298775 0.000000 0.610424
0.457541 0.000000 0.610424
0.614763 0.000000 0.609486
0.740679 0.000000 0.587833
0.859233 0.000000 0.574056
0.965000 0.000000 0.564971
0.000000 0.225860 0.610424
0.000000 0.141256 0.610424
0.142891 0.141256 0.610424
0.298304 0.141256 0.610424
0.457310 0.141256 0.610424
0.614763 0.140301 0.609470
0.740679 0.112600 0.581769
0.859233 0.086518 0.555687
0.965000 0.063249 0.532418
0.000000 0.353294 0.610424
0.000000 0.296725 0.610424
0.142891 0.296725 0.610424
0.298304 0.296725 0.610424
0.457310 0.296725 0.610424
0.614763 0.295771 0.609470
0.740679 0.268069 0.581769
0.859233 0.241987 0.555687
0.965000 0.218718 0.532418
0.000000 0.483880 0.610424
0.000000 0.456040 0.610424
0.142891 0.456040 0.610424
0.298304 0.456040 0.610424
0.457310 0.456040 0.610424
0.614763 0.455086 0.609470
0.740679 0.427384 0.581769
0.859233 0.401302 0.555687
0.965000 0.378034 0.532418
0.000000 0.613981 0.610424
0.000000 0.613981 0.609646
0.142108 0.613981 0.609642
0.297522 0.613981 0.609642
0.456528 0.613981 0.609642
0.614763 0.613809 0.609470
0.740679 0.586108 0.581769
0.859233 0.560026 0.555687
0.965000 0.536757 0.532418
0.000000 0.739960 0.610424
0.000000 0.739960 0.587698
0.114393 0.739960 0.581927
0.269806 0.739960 0.581927
0.428812 0.739960 0.581927
0.587220 0.739960 0.581927
0.740679 0.739802 0.581769
0.859233 0.713720 0.555687
0.965000 0.690451 0.532418
0.000000 0.858179 0.610424
0.000000 0.858179 0.573790
0.088385 0.858179 0.555919
0.243798 0.858179 0.555919
0.402804 0.858179 0.555919
0.561211 0.858179 0.555919
0.714829 0.858179 0.555919
0.859233 0.857947 0.555687
0.965000 0.834678 0.532418
0.000000 0.965000 0.610424
0.000000 0.965000 0.564517
0.064884 0.965000 0.532418
0.220298 0.965000 0.532418
0.379303 0.965000 0.532418
0.537711 0.965000 0.532418
0.691328 0.965000 0.532418
0.835965 0.965000 0.532418
0.965000 0.965000 0.532418
0.000000 0.000000 0.735514
0.106192 0.000000 0.735514
0.227200 0.000000 0.735514
0.354588 0.000000 0.735514
0.484921 0.000000 0.735514
0.614763 0.000000 0.735514
0.740679 0.000000 0.735514
0.859233 0.000000 0.735514
0.965000 0.000000 0.735514
0.000000 0.105216 0.735514
0.000000 0.000000 0.735514
0.138314 0.000000 0.735514
0.287978 0.000000 0.735514
0.441101 0.000000 0.735514
0.593648 0.000000 0.735514
0.740679 0.000000 0.734619
0.859233 0.000000 0.717430
0.965000 0.000000 0.706096
0.000000 0.225860 0.735514
0.000000 0.135811 0.735514
0.115371 0.113736 0.735514
0.270784 0.113736 0.735514
0.429790 0.113736 0.735514
0.588198 0.113736 0.735514
0.740679 0.112600 0.734378
0.859233 0.086518 0.708296
0.965000 0.063249 0.685028
0.000000 0.353294 0.735514
0.000000 0.285761 0.735514
0.115371 0.269205 0.735514
0.270784 0.269205 0.735514
0.429790 0.269205 0.735514
0.588198 0.269205 0.735514
0.740679 0.268069 0.734378
0.859233 0.241987 0.708296
0.965000 0.218718 0.685028
0.000000 0.483880 0.735514
0.000000 0.439420 0.735514
0.115371 0.428520 0.735514
0.270784 0.428520 0.735514
0.429790 0.428520 0.735514
0.588198 0.428520 0.735514
0.740679 0.427384 0.734378
0.859233 0.401302 0.708296
0.965000 0.378034 0.685028
0.000000 0.613981 0.735514
0.000000 0.592508 0.735514
0.115371 0.587244 0.735514
0.270784 0.587244 0.735514
0.429790 0.587244 0.735514
0.588198 0.587244 0.735514
0.740679 0.586108 0.734378
0.859233 0.560026 0.708296
0.965000 0.536757 0.685028
0.000000 0.739960 0.735514
0.000000 0.739960 0.734734
0.114393 0.739960 0.734536
0.269806 0.739960 0.734536
0.428812 0.739960 0.734536
0.587220 0.739960 0.734536
0.740679 0.739802 0.734378
0.859233 0.713720 0.708296
0.965000 0.690451 0.685028
0.000000 0.858179 0.735514
0.000000 0.858179 0.717377
0.088385 0.858179 0.708528
0.243798 0.858179 0.708528
0.402804 0.858179 0.708528
0.561211 0.858179 0.708528
0.714829 0.858179 0.708528
0.859233 0.857947 0.708296
0.965000 0.834678 0.685028
0.000000 0.965000 0.735514
0.000000 0.965000 0.705802
0.064884 0.965000 0.685028
0.220298 0.965000 0.685028
0.379303 0.965000 0.685028
0.537711 0.965000 0.685028
0.691328 0.965000 0.685028
0.835965 0.965000 0.685028
0.965000 0.965000 0.685028
0.000000 0.000000 0.853914
0.106192 0.000000 0.853914
0.227200 0.000000 0.853914
0.354588 0.000000 0.853914
0.484921 0.000000 0.853914
0.614763 0.000000 0.853914
0.740679 0.000000 0.853914
0.859233 0.000000 0.853914
0.965000 0.000000 0.853914
0.000000 0.105216 0.853914
0.000000 0.000000 0.853914
0.134941 0.000000 0.853914
0.281082 0.000000 0.853914
0.430601 0.000000 0.853914
0.579557 0.000000 0.853914
0.724009 0.000000 0.853914
0.859233 0.000000 0.853137
0.965000 0.000000 0.839674
0.000000 0.225860 0.853914
0.000000 0.132463 0.853914
0.089323 0.087688 0.853914
0.244736 0.087688 0.853914
0.403742 0.087688 0.853914
0.562150 0.087688 0.853914
0.715767 0.087688 0.853914
0.859233 0.086518 0.852744
0.965000 0.063249 0.829476
0.000000 0.353294 0.853914
0.000000 0.278847 0.853914
0.089323 0.243157 0.853914
0.244736 0.243157 0.853914
0.403742 0.243157 0.853914
0.562150 0.243157 0.853914
0.715767 0.243157 0.853914
0.859233 0.241987 0.852744
0.965000 0.218718 0.829476
0.000000 0.483880 0.853914
0.000000 0.428853 0.853914
0.089323 0.402472 0.853914
0.244736 0.402472 0.853914
0.403742 0.402472 0.853914
0.562150 0.402472 0.853914
0.715767 0.402472 0.853914
0.859233 0.401302 0.852744
0.965000 0.378034 0.829476
0.000000 0.613981 0.853914
0.000000 0.578301 0.853914
0.089323 0.561196 0.853914
0.244736 0.561196 0.853914
0.403742 0.561196 0.853914
0.562150 0.561196 0.853914
0.715767 0.561196 0.853914
0.859233 0.560026 0.852744
0.965000 0.536757 0.829476
0.000000 0.739960 0.853914
0.000000 0.723014 0.853914
0.089323 0.714890 0.853914
0.244736 0.714890 0.853914
0.403742 0.714890 0.853914
0.562150 0.714890 0.853914
0.715767 0.714890 0.853914
0.859233 0.713720 0.852744
0.965000 0.690451 0.829476
0.000000 0.858179 0.853914
0.000000 0.858179 0.853284
0.088385 0.858179 0.852976
0.243798 0.858179 0.852976
0.402804 0.858179 0.852976
0.561211 0.858179 0.852976
0.714829 0.858179 0.852976
0.859233 0.857947 0.852744
0.965000 0.834678 0.829476
0.000000 0.965000 0.853914
0.000000 0.965000 0.839532
0.064884 0.965000 0.829476
0.220298 0.965000 0.829476
0.379303 0.965000 0.829476
0.537711 0.965000 0.829476
0.691328 0.965000 0.829476
0.835965 0.965000 0.829476
0.965000 0.965000 0.829476
0.000000 0.000000 0.962471
0.106192 0.000000 0.962471
0.227200 0.000000 0.962471
0.354588 0.000000 0.962471
0.484921 0.000000 0.962471
0.614763 0.000000 0.962471
0.740679 0.000000 0.962471
0.859233 0.000000 0.962471
0.965000 0.000000 0.962471
0.000000 0.105216 0.962471
0.000000 0.000000 0.962471
0.132667 0.000000 0.962471
0.276433 0.000000 0.962471
0.423523 0.000000 0.962471
0.570058 0.000000 0.962471
0.712163 0.000000 0.962471
0.845960 0.000000 0.962471
0.965000 0.000000 0.962147
0.000000 0.225860 0.962471
0.000000 0.130207 0.962471
0.065441 0.063806 0.962471
0.220854 0.063806 0.962471
0.379860 0.063806 0.962471
0.538267 0.063806 0.962471
0.691885 0.063806 0.962471
0.836521 0.063806 0.962471
0.965000 0.063249 0.961915
0.000000 0.353294 0.962471
0.000000 0.274189 0.962471
0.065441 0.219275 0.962471
0.220854 0.219275 0.962471
0.379860 0.219275 0.962471
0.538267 0.219275 0.962471
0.691885 0.219275 0.962471
0.836521 0.219275 0.962471
0.965000 0.218718 0.961915
0.000000 0.483880 0.962471
0.000000 0.421732 0.962471
0.065441 0.378590 0.962471
0.220854 0.378590 0.962471
0.379860 0.378590 0.962471
0.538267 0.378590 0.962471
0.691885 0.378590 0.962471
0.836521 0.378590 0.962471
0.965000 0.378034 0.961915
0.000000 0.613981 0.962471
0.000000 0.568728 0.962471
0.065441 0.537313 0.962471
0.220854 0.537313 0.962471
0.379860 0.537313 0.962471
0.538267 0.537313 0.962471
0.691885 0.537313 0.962471
0.836521 0.537313 0.962471
0.965000 0.536757 0.961915
0.000000 0.739960 0.962471
0.000000 0.711066 0.962471
0.065441 0.691008 0.962471
0.220854 0.691008 0.962471
0.379860 0.691008 0.962471
0.538267 0.691008 0.962471
0.691885 0.691008 0.962471
0.836521 0.691008 0.962471
0.965000 0.690451 0.961915
0.000000 0.858179 0.962471
0.000000 0.844636 0.962471
0.065441 0.835234 0.962471
0.220854 0.835234 0.962471
0.379860 0.835234 0.962471
0.538267 0.835234 0.962471
0.691885 0.835234 0.962471
0.836521 0.835234 0.962471
0.965000 0.834678 0.961915
0.000000 0.965000 0.962471
0.000000 0.965000 0.962144
0.064884 0.965000 0.961915
0.220298 0.965000 0.961915
0.379303 0.965000 0.961915
0.537711 0.965000 0.961915
0.691328 0.965000 0.961915
0.835965 0.965000 0.961915
0.965000 0.965000 0.961915
