assets/luts/leica_classic.cube
TITLE "leica_classic"
LUT_3D_SIZE 5
DOMAIN_MIN 0.0 0.0 0.0
DOMAIN_MAX 1.0 1.0 1.0
0.030184 0.021399 0.011146
0.289452 0.051138 0.040993
0.541943 0.078876 0.068790
0.783073 0.105935 0.095874
0.923930 0.131720 0.121655
0.057355 0.268019 0.038505
0.289452 0.270687 0.040993
0.541943 0.300418 0.068790
0.783073 0.329225 0.095874
0.923930 0.356503 0.121655
0.084615 0.515402 0.065878
0.316246 0.515402 0.065878
0.541943 0.518564 0.068790
0.783073 0.547789 0.095874
0.923930 0.575315 0.121655
0.111582 0.756242 0.092891
0.345180 0.756242 0.092891
0.568064 0.756242 0.092891
0.783073 0.759355 0.095874
0.923930 0.786032 0.121655
0.138444 0.919817 0.119741
0.373785 0.919817 0.119741
0.596847 0.919817 0.119741
0.807638 0.919817 0.119741
0.923930 0.920335 0.121655
0.052607 0.043897 0.226427
0.289452 0.051138 0.234150
0.541943 0.078876 0.263605
0.783073 0.105935 0.292153
0.923930 0.131720 0.319195
0.057355 0.268019 0.231506
0.289452 0.270687 0.234150
0.541943 0.300418 0.263605
0.783073 0.329225 0.292153
0.923930 0.356503 0.319195
0.084615 0.515402 0.260526
0.316246 0.515402 0.260526
0.541943 0.518564 0.263605
0.783073 0.547789 0.292153
0.923930 0.575315 0.319195
0.111582 0.756242 0.289016
0.345180 0.756242 0.289016
0.568064 0.756242 0.289016
0.783073 0.759355 0.292153
0.923930 0.786032 0.319195
0.138444 0.919817 0.317192
0.373785 0.919817 0.317192
0.596847 0.919817 0.317192
0.807638 0.919817 0.317192
0.923930 0.920335 0.319195
0.078666 0.070012 0.461511
0.309834 0.070012 0.461511
0.541943 0.078876 0.471113
0.783073 0.105935 0.500209
0.923930 0.131720 0.527646
0.078666 0.290940 0.461511
0.309834 0.290940 0.461511
0.541943 0.300418 0.471113
0.783073 0.329225 0.500209
0.923930 0.356503 0.527646
0.084615 0.515402 0.467967
0.316246 0.515402 0.467967
0.541943 0.518564 0.471113
0.783073 0.547789 0.500209
0.923930 0.575315 0.527646
0.111582 0.756242 0.497019
0.345180 0.756242 0.497019
0.568064 0.756242 0.497019
0.783073 0.759355 0.500209
0.923930 0.786032 0.527646
0.138444 0.919817 0.525618
0.373785 0.919817 0.525618
0.596847 0.919817 0.525618
0.807638 0.919817 0.525618
0.923930 0.920335 0.527646
0.105345 0.096716 0.700697
0.338509 0.096716 0.700697
0.561326 0.096716 0.700697
0.783073 0.105935 0.710415
0.923930 0.131720 0.737325
0.105345 0.319431 0.700697
0.338509 0.319431 0.700697
0.561326 0.319431 0.700697
0.783073 0.329225 0.710415
0.923930 0.356503 0.737325
0.105345 0.537871 0.700697
0.338509 0.537871 0.700697
0.561326 0.537871 0.700697
0.783073 0.547789 0.710415
0.923930 0.575315 0.737325
0.111582 0.756242 0.707277
0.345180 0.756242 0.707277
0.568064 0.756242 0.707277
0.783073 0.759355 0.710415
0.923930 0.786032 0.737325
0.138444 0.919817 0.735340
0.373785 0.919817 0.735340
0.596847 0.919817 0.735340
0.807638 0.919817 0.735340
0.923930 0.920335 0.737325
0.132535 0.123901 0.903262
0.367512 0.123901 0.903262
0.590550 0.123901 0.903262
0.801601 0.123901 0.903262
0.923930 0.131720 0.906347
0.132535 0.348249 0.903262
0.367512 0.348249 0.903262
0.590550 0.348249 0.903262
0.801601 0.348249 0.903262
0.923930 0.356503 0.906347
0.132535 0.567002 0.903262
0.367512 0.567002 0.903262
0.590550 0.567002 0.903262
0.801601 0.567002 0.903262
0.923930 0.575315 0.906347
0.132535 0.777989 0.903262
0.367512 0.777989 0.903262
0.590550 0.777989 0.903262
0.801601 0.777989 0.903262
0.923930 0.786032 0.906347
0.138444 0.919817 0.905611
0.373785 0.919817 0.905611
0.596847 0.919817 0.905611
0.807638 0.919817 0.905611
0.923930 0.920335 0.906347
