assets/luts/leica_bw.cube
TITLE "leica_bw"
LUT_3D_SIZE 33
DOMAIN_MIN 0.0 0.0 0.0
DOMAIN_MAX 1.0 1.0 1.0
0.018000 0.018000 0.018000
0.023690 0.023690 0.023690
0.029408 0.029408 0.029408
0.035153 0.035153 0.035153
0.040925 0.040925 0.040925
0.046724 0.046724 0.046724
0.052549 0.052549 0.052549
0.058399 0.058399 0.058399
0.064275 0.064275 0.064275
0.070175 0.070175 0.070175
0.076101 0.076101 0.076101
0.082050 0.082050 0.082050
0.088024 0.088024 0.088024
0.094021 0.094021 0.094021
0.100041 0.100041 0.100041
0.106084 0.106084 0.106084
0.112149 0.112149 0.112149
0.118236 0.118236 0.118236
0.124345 0.124345 0.124345
0.130475 0.130475 0.130475
0.136626 0.136626 0.136626
0.142798 0.142798 0.142798
0.148990 0.148990 0.148990
0.155201 0.155201 0.155201
0.161432 0.161432 0.161432
0.167682 0.167682 0.167682
0.173951 0.173951 0.173951
0.180238 0.180238 0.180238
0.186543 0.186543 0.186543
0.192866 0.192866 0.192866
0.199205 0.199205 0.199205
0.205562 0.205562 0.205562
0.211935 0.211935 0.211935
0.037252 0.037252 0.037252
0.043033 0.043033 0.043033
0.048841 0.048841 0.048841
0.054675 0.054675 0.054675
0.060535 0.060535 0.060535
0.066420 0.066420 0.066420
0.072330 0.072330 0.072330
0.078264 0.078264 0.078264
0.084222 0.084222 0.084222
0.090204 0.090204 0.090204
0.096210 0.096210 0.096210
0.102238 0.102238 0.102238
0.108289 0.108289 0.108289
0.114362 0.114362 0.114362
0.120458 0.120458 0.120458
0.126574 0.126574 0.126574
0.132712 0.132712 0.132712
0.138871 0.138871 0.138871
0.145050 0.145050 0.145050
0.151249 0.151249 0.151249
0.157468 0.157468 0.157468
0.163706 0.163706 0.163706
0.169962 0.169962 0.169962
0.176238 0.176238 0.176238
0.182532 0.182532 0.182532
0.188843 0.188843 0.188843
0.195172 0.195172 0.195172
0.201518 0.201518 0.201518
0.207880 0.207880 0.207880
0.214259 0.214259 0.214259
0.220654 0.220654 0.220654
0.227064 0.227064 0.227064
0.233490 0.233490 0.233490
0.056806 0.056806 0.056806
0.062675 0.062675 0.062675
0.068569 0.068569 0.068569
0.074487 0.074487 0.074487
0.080430 0.080430 0.080430
0.086397 0.086397 0.086397
0.092388 0.092388 0.092388
0.098402 0.098402 0.098402
0.104438 0.104438 0.104438
0.110498 0.110498 0.110498
0.116579 0.116579 0.116579
0.122682 0.122682 0.122682
0.128806 0.128806 0.128806
0.134952 0.134952 0.134952
0.141118 0.141118 0.141118
0.147304 0.147304 0.147304
0.153511 0.153511 0.153511
0.159736 0.159736 0.159736
0.165981 0.165981 0.165981
0.172245 0.172245 0.172245
0.178527 0.178527 0.178527
0.184827 0.184827 0.184827
0.191145 0.191145 0.191145
0.197480 0.197480 0.197480
0.203832 0.203832 0.203832
0.210201 0.210201 0.210201
0.216585 0.216585 0.216585
0.222986 0.222986 0.222986
0.229402 0.229402 0.229402
0.235833 0.235833 0.235833
0.242279 0.242279 0.242279
0.248739 0.248739 0.248739
0.255213 0.255213 0.255213
0.076648 0.076648 0.076648
0.082600 0.082600 0.082600
0.088576 0.088576 0.088576
0.094575 0.094575 0.094575
0.100597 0.100597 0.100597
0.106642 0.106642 0.106642
0.112709 0.112709 0.112709
0.118798 0.118798 0.118798
0.124909 0.124909 0.124909
0.131041 0.131041 0.131041
0.137194 0.137194 0.137194
0.143368 0.143368 0.143368
0.149562 0.149562 0.149562
0.155775 0.155775 0.155775
0.162008 0.162008 0.162008
0.168260 0.168260 0.168260
0.174530 0.174530 0.174530
0.180819 0.180819 0.180819
0.187125 0.187125 0.187125
0.193449 0.193449 0.193449
0.199791 0.199791 0.199791
0.206149 0.206149 0.206149
0.212523 0.212523 0.212523
0.218914 0.218914 0.218914
0.225320 0.225320 0.225320
0.231742 0.231742 0.231742
0.238178 0.238178 0.238178
0.244629 0.244629 0.244629
0.251094 0.251094 0.251094
0.257573 0.257573 0.257573
0.264065 0.264065 0.264065
0.270571 0.270571 0.270571
0.277089 0.277089 0.277089
0.096764 0.096764 0.096764
0.102795 0.102795 0.102795
0.108848 0.108848 0.108848
0.114923 0.114923 0.114923
0.121021 0.121021 0.121021
0.127139 0.127139 0.127139
0.133279 0.133279 0.133279
0.139440 0.139440 0.139440
0.145620 0.145620 0.145620
0.151821 0.151821 0.151821
0.158042 0.158042 0.158042
0.164282 0.164282 0.164282
0.170540 0.170540 0.170540
0.176817 0.176817 0.176817
0.183113 0.183113 0.183113
0.189426 0.189426 0.189426
0.195756 0.195756 0.195756
0.202104 0.202104 0.202104
0.208468 0.208468 0.208468
0.214848 0.214848 0.214848
0.221244 0.221244 0.221244
0.227656 0.227656 0.227656
0.234083 0.234083 0.234083
0.240525 0.240525 0.240525
0.246981 0.246981 0.246981
0.253451 0.253451 0.253451
0.259935 0.259935 0.259935
0.266432 0.266432 0.266432
0.272943 0.272943 0.272943
0.279465 0.279465 0.279465
0.286000 0.286000 0.286000
0.292547 0.292547 0.292547
0.299105 0.299105 0.299105
0.117141 0.117141 0.117141
0.123246 0.123246 0.123246
0.129372 0.129372 0.129372
0.135520 0.135520 0.135520
0.141687 0.141687 0.141687
0.147876 0.147876 0.147876
0.154084 0.154084 0.154084
0.160311 0.160311 0.160311
0.166558 0.166558 0.166558
0.172823 0.172823 0.172823
0.179107 0.179107 0.179107
0.185409 0.185409 0.185409
0.191728 0.191728 0.191728
0.198065 0.198065 0.198065
0.204419 0.204419 0.204419
0.210789 0.210789 0.210789
0.217175 0.217175 0.217175
0.223577 0.223577 0.223577
0.229994 0.229994 0.229994
0.236427 0.236427 0.236427
0.242874 0.242874 0.242874
0.249335 0.249335 0.249335
0.255810 0.255810 0.255810
0.262299 0.262299 0.262299
0.268801 0.268801 0.268801
0.275316 0.275316 0.275316
0.281843 0.281843 0.281843
0.288382 0.288382 0.288382
0.294933 0.294933 0.294933
0.301495 0.301495 0.301495
0.308069 0.308069 0.308069
0.314652 0.314652 0.314652
0.321246 0.321246 0.321246
0.137763 0.137763 0.137763
0.143938 0.143938 0.143938
0.150134 0.150134 0.150134
0.156349 0.156349 0.156349
0.162583 0.162583 0.162583
0.168837 0.168837 0.168837
0.175109 0.175109 0.175109
0.181399 0.181399 0.181399
0.187708 0.187708 0.187708
0.194033 0.194033 0.194033
0.200376 0.200376 0.200376
0.206736 0.206736 0.206736
0.213112 0.213112 0.213112
0.219504 0.219504 0.219504
0.225911 0.225911 0.225911
0.232334 0.232334 0.232334
0.238772 0.238772 0.238772
0.245224 0.245224 0.245224
0.251691 0.251691 0.251691
0.258171 0.258171 0.258171
0.264665 0.264665 0.264665
0.271171 0.271171 0.271171
0.277691 0.277691 0.277691
0.284222 0.284222 0.284222
0.290766 0.290766 0.290766
0.297321 0.297321 0.297321
0.303887 0.303887 0.303887
0.310464 0.310464 0.310464
0.317052 0.317052 0.317052
0.323649 0.323649 0.323649
0.330257 0.330257 0.330257
0.336873 0.336873 0.336873
0.343499 0.343499 0.343499
0.158616 0.158616 0.158616
0.164858 0.164858 0.164858
0.171118 0.171118 0.171118
0.177397 0.177397 0.177397
0.183694 0.183694 0.183694
0.190009 0.190009 0.190009
0.196341 0.196341 0.196341
0.202690 0.202690 0.202690
0.209055 0.209055 0.209055
0.215437 0.215437 0.215437
0.221835 0.221835 0.221835
0.228248 0.228248 0.228248
0.234676 0.234676 0.234676
0.241119 0.241119 0.241119
0.247577 0.247577 0.247577
0.254048 0.254048 0.254048
0.260534 0.260534 0.260534
0.267032 0.267032 0.267032
0.273543 0.273543 0.273543
0.280067 0.280067 0.280067
0.286603 0.286603 0.286603
0.293151 0.293151 0.293151
0.299710 0.299710 0.299710
0.306280 0.306280 0.306280
0.312861 0.312861 0.312861
0.319453 0.319453 0.319453
0.326054 0.326054 0.326054
0.332664 0.332664 0.332664
0.339284 0.339284 0.339284
0.345913 0.345913 0.345913
0.352550 0.352550 0.352550
0.359195 0.359195 0.359195
0.365848 0.365848 0.365848
0.179687 0.179687 0.179687
0.185991 0.185991 0.185991
0.192312 0.192312 0.192312
0.198650 0.198650 0.198650
0.205005 0.205005 0.205005
0.211377 0.211377 0.211377
0.217764 0.217764 0.217764
0.224168 0.224168 0.224168
0.230587 0.230587 0.230587
0.237020 0.237020 0.237020
0.243469 0.243469 0.243469
0.249931 0.249931 0.249931
0.256408 0.256408 0.256408
0.262898 0.262898 0.262898
0.269401 0.269401 0.269401
0.275917 0.275917 0.275917
0.282445 0.282445 0.282445
0.288986 0.288986 0.288986
0.295538 0.295538 0.295538
0.302101 0.302101 0.302101
0.308675 0.308675 0.308675
0.315260 0.315260 0.315260
0.321855 0.321855 0.321855
0.328459 0.328459 0.328459
0.335073 0.335073 0.335073
0.341696 0.341696 0.341696
0.348328 0.348328 0.348328
0.354968 0.354968 0.354968
0.361616 0.361616 0.361616
0.368272 0.368272 0.368272
0.374935 0.374935 0.374935
0.381604 0.381604 0.381604
0.388280 0.388280 0.388280
0.200962 0.200962 0.200962
0.207323 0.207323 0.207323
0.213700 0.213700 0.213700
0.220094 0.220094 0.220094
0.226503 0.226503 0.226503
0.232927 0.232927 0.232927
0.239366 0.239366 0.239366
0.245820 0.245820 0.245820
0.252288 0.252288 0.252288
0.258769 0.258769 0.258769
0.265264 0.265264 0.265264
0.271772 0.271772 0.271772
0.278292 0.278292 0.278292
0.284825 0.284825 0.284825
0.291370 0.291370 0.291370
0.297926 0.297926 0.297926
0.304493 0.304493 0.304493
0.311071 0.311071 0.311071
0.317660 0.317660 0.317660
0.324258 0.324258 0.324258
0.330866 0.330866 0.330866
0.337484 0.337484 0.337484
0.344110 0.344110 0.344110
0.350745 0.350745 0.350745
0.357388 0.357388 0.357388
0.364039 0.364039 0.364039
0.370697 0.370697 0.370697
0.377362 0.377362 0.377362
0.384034 0.384034 0.384034
0.390712 0.390712 0.390712
0.397397 0.397397 0.397397
0.404087 0.404087 0.404087
0.410782 0.410782 0.410782
0.222425 0.222425 0.222425
0.228840 0.228840 0.228840
0.235270 0.235270 0.235270
0.241714 0.241714 0.241714
0.248173 0.248173 0.248173
0.254646 0.254646 0.254646
0.261132 0.261132 0.261132
0.267632 0.267632 0.267632
0.274144 0.274144 0.274144
0.280669 0.280669 0.280669
0.287206 0.287206 0.287206
0.293755 0.293755 0.293755
0.300315 0.300315 0.300315
0.306887 0.306887 0.306887
0.313469 0.313469 0.313469
0.320061 0.320061 0.320061
0.326663 0.326663 0.326663
0.333274 0.333274 0.333274
0.339895 0.339895 0.339895
0.346524 0.346524 0.346524
0.353162 0.353162 0.353162
0.359808 0.359808 0.359808
0.366462 0.366462 0.366462
0.373123 0.373123 0.373123
0.379790 0.379790 0.379790
0.386465 0.386465 0.386465
0.393145 0.393145 0.393145
0.399832 0.399832 0.399832
0.406523 0.406523 0.406523
0.413220 0.413220 0.413220
0.419922 0.419922 0.419922
0.426627 0.426627 0.426627
0.433337 0.433337 0.433337
0.244064 0.244064 0.244064
0.250528 0.250528 0.250528
0.257006 0.257006 0.257006
0.263497 0.263497 0.263497
0.270001 0.270001 0.270001
0.276518 0.276518 0.276518
0.283048 0.283048 0.283048
0.289589 0.289589 0.289589
0.296142 0.296142 0.296142
0.302707 0.302707 0.302707
0.309282 0.309282 0.309282
0.315867 0.315867 0.315867
0.322463 0.322463 0.322463
0.329069 0.329069 0.329069
0.335684 0.335684 0.335684
0.342308 0.342308 0.342308
0.348940 0.348940 0.348940
0.355581 0.355581 0.355581
0.362230 0.362230 0.362230
0.368886 0.368886 0.368886
0.375549 0.375549 0.375549
0.382220 0.382220 0.382220
0.388896 0.388896 0.388896
0.395579 0.395579 0.395579
0.402267 0.402267 0.402267
0.408961 0.408961 0.408961
0.415659 0.415659 0.415659
0.422362 0.422362 0.422362
0.429070 0.429070 0.429070
0.435781 0.435781 0.435781
0.442495 0.442495 0.442495
0.449213 0.449213 0.449213
0.455933 0.455933 0.455933
0.265863 0.265863 0.265863
0.272372 0.272372 0.272372
0.278894 0.278894 0.278894
0.285428 0.285428 0.285428
0.291974 0.291974 0.291974
0.298531 0.298531 0.298531
0.305099 0.305099 0.305099
0.311678 0.311678 0.311678
0.318267 0.318267 0.318267
0.324867 0.324867 0.324867
0.331476 0.331476 0.331476
0.338094 0.338094 0.338094
0.344721 0.344721 0.344721
0.351357 0.351357 0.351357
0.358001 0.358001 0.358001
0.364652 0.364652 0.364652
0.371311 0.371311 0.371311
0.377977 0.377977 0.377977
0.384650 0.384650 0.384650
0.391328 0.391328 0.391328
0.398013 0.398013 0.398013
0.404704 0.404704 0.404704
0.411399 0.411399 0.411399
0.418099 0.418099 0.418099
0.424804 0.424804 0.424804
0.431513 0.431513 0.431513
0.438225 0.438225 0.438225
0.444941 0.444941 0.444941
0.451659 0.451659 0.451659
0.458381 0.458381 0.458381
0.465104 0.465104 0.465104
0.471829 0.471829 0.471829
0.478556 0.478556 0.478556
0.287810 0.287810 0.287810
0.294360 0.294360 0.294360
0.300921 0.300921 0.300921
0.307493 0.307493 0.307493
0.314076 0.314076 0.314076
0.320669 0.320669 0.320669
0.327272 0.327272 0.327272
0.333884 0.333884 0.333884
0.340506 0.340506 0.340506
0.347136 0.347136 0.347136
0.353775 0.353775 0.353775
0.360421 0.360421 0.360421
0.367076 0.367076 0.367076
0.373737 0.373737 0.373737
0.380406 0.380406 0.380406
0.387080 0.387080 0.387080
0.393761 0.393761 0.393761
0.400448 0.400448 0.400448
0.407141 0.407141 0.407141
0.413838 0.413838 0.413838
0.420540 0.420540 0.420540
0.427246 0.427246 0.427246
0.433956 0.433956 0.433956
0.440670 0.440670 0.440670
0.447386 0.447386 0.447386
0.454106 0.454106 0.454106
0.460828 0.460828 0.460828
0.467552 0.467552 0.467552
0.474278 0.474278 0.474278
0.481005 0.481005 0.481005
0.487733 0.487733 0.487733
0.494462 0.494462 0.494462
0.501190 0.501190 0.501190
0.309888 0.309888 0.309888
0.316475 0.316475 0.316475
0.323072 0.323072 0.323072
0.329678 0.329678 0.329678
0.336294 0.336294 0.336294
0.342919 0.342919 0.342919
0.349552 0.349552 0.349552
0.356194 0.356194 0.356194
0.362843 0.362843 0.362843
0.369500 0.369500 0.369500
0.376164 0.376164 0.376164
0.382835 0.382835 0.382835
0.389512 0.389512 0.389512
0.396195 0.396195 0.396195
0.402884 0.402884 0.402884
0.409578 0.409578 0.409578
0.416277 0.416277 0.416277
0.422981 0.422981 0.422981
0.429688 0.429688 0.429688
0.436400 0.436400 0.436400
0.443115 0.443115 0.443115
0.449832 0.449832 0.449832
0.456553 0.456553 0.456553
0.463276 0.463276 0.463276
0.470001 0.470001 0.470001
0.476727 0.476727 0.476727
0.483454 0.483454 0.483454
0.490183 0.490183 0.490183
0.496911 0.496911 0.496911
0.503640 0.503640 0.503640
0.510368 0.510368 0.510368
0.517096 0.517096 0.517096
0.523823 0.523823 0.523823
0.332086 0.332086 0.332086
0.338705 0.338705 0.338705
0.345333 0.345333 0.345333
0.351969 0.351969 0.351969
0.358614 0.358614 0.358614
0.365266 0.365266 0.365266
0.371925 0.371925 0.371925
0.378592 0.378592 0.378592
0.385265 0.385265 0.385265
0.391944 0.391944 0.391944
0.398630 0.398630 0.398630
0.405321 0.405321 0.405321
0.412016 0.412016 0.412016
0.418717 0.418717 0.418717
0.425422 0.425422 0.425422
0.432131 0.432131 0.432131
0.438844 0.438844 0.438844
0.445560 0.445560 0.445560
0.452279 0.452279 0.452279
0.459000 0.459000 0.459000
0.465724 0.465724 0.465724
0.472449 0.472449 0.472449
0.479176 0.479176 0.479176
0.485904 0.485904 0.485904
0.492632 0.492632 0.492632
0.499361 0.499361 0.499361
0.506090 0.506090 0.506090
0.512818 0.512818 0.512818
0.519545 0.519545 0.519545
0.526272 0.526272 0.526272
0.532996 0.532996 0.532996
0.539719 0.539719 0.539719
0.546439 0.546439 0.546439
0.354387 0.354387 0.354387
0.361034 0.361034 0.361034
0.367689 0.367689 0.367689
0.374352 0.374352 0.374352
0.381021 0.381021 0.381021
0.387696 0.387696 0.387696
0.394378 0.394378 0.394378
0.401065 0.401065 0.401065
0.407758 0.407758 0.407758
0.414455 0.414455 0.414455
0.421158 0.421158 0.421158
0.427864 0.427864 0.427864
0.434575 0.434575 0.434575
0.441289 0.441289 0.441289
0.448006 0.448006 0.448006
0.454726 0.454726 0.454726
0.461448 0.461448 0.461448
0.468172 0.468172 0.468172
0.474898 0.474898 0.474898
0.481625 0.481625 0.481625
0.488353 0.488353 0.488353
0.495082 0.495082 0.495082
0.501811 0.501811 0.501811
0.508539 0.508539 0.508539
0.515267 0.515267 0.515267
0.521994 0.521994 0.521994
0.528720 0.528720 0.528720
0.535444 0.535444 0.535444
0.542166 0.542166 0.542166
0.548885 0.548885 0.548885
0.555602 0.555602 0.555602
0.562316 0.562316 0.562316
0.569025 0.569025 0.569025
0.376779 0.376779 0.376779
0.383450 0.383450 0.383450
0.390128 0.390128 0.390128
0.396812 0.396812 0.396812
0.403501 0.403501 0.403501
0.410196 0.410196 0.410196
0.416895 0.416895 0.416895
0.423599 0.423599 0.423599
0.430307 0.430307 0.430307
0.437019 0.437019 0.437019
0.443734 0.443734 0.443734
0.450452 0.450452 0.450452
0.457173 0.457173 0.457173
0.463896 0.463896 0.463896
0.470621 0.470621 0.470621
0.477347 0.477347 0.477347
0.484075 0.484075 0.484075
0.490803 0.490803 0.490803
0.497532 0.497532 0.497532
0.504260 0.504260 0.504260
0.510989 0.510989 0.510989
0.517716 0.517716 0.517716
0.524443 0.524443 0.524443
0.531168 0.531168 0.531168
0.537891 0.537891 0.537891
0.544612 0.544612 0.544612
0.551331 0.551331 0.551331
0.558047 0.558047 0.558047
0.564759 0.564759 0.564759
0.571467 0.571467 0.571467
0.578172 0.578172 0.578172
0.584872 0.584872 0.584872
0.591567 0.591567 0.591567
0.399246 0.399246 0.399246
0.405938 0.405938 0.405938
0.412634 0.412634 0.412634
0.419335 0.419335 0.419335
0.426041 0.426041 0.426041
0.432750 0.432750 0.432750
0.439463 0.439463 0.439463
0.446179 0.446179 0.446179
0.452898 0.452898 0.452898
0.459620 0.459620 0.459620
0.466344 0.466344 0.466344
0.473069 0.473069 0.473069
0.479796 0.479796 0.479796
0.486524 0.486524 0.486524
0.493253 0.493253 0.493253
0.499981 0.499981 0.499981
0.506710 0.506710 0.506710
0.513438 0.513438 0.513438
0.520165 0.520165 0.520165
0.526892 0.526892 0.526892
0.533616 0.533616 0.533616
0.540339 0.540339 0.540339
0.547059 0.547059 0.547059
0.553776 0.553776 0.553776
0.560491 0.560491 0.560491
0.567202 0.567202 0.567202
0.573909 0.573909 0.573909
0.580612 0.580612 0.580612
0.587310 0.587310 0.587310
0.594003 0.594003 0.594003
0.600692 0.600692 0.600692
0.607374 0.607374 0.607374
0.614050 0.614050 0.614050
0.421776 0.421776 0.421776
0.428483 0.428483 0.428483
0.435194 0.435194 0.435194
0.441908 0.441908 0.441908
0.448625 0.448625 0.448625
0.455345 0.455345 0.455345
0.462068 0.462068 0.462068
0.468792 0.468792 0.468792
0.475518 0.475518 0.475518
0.482245 0.482245 0.482245
0.488974 0.488974 0.488974
0.495702 0.495702 0.495702
0.502431 0.502431 0.502431
0.509160 0.509160 0.509160
0.515887 0.515887 0.515887
0.522614 0.522614 0.522614
0.529340 0.529340 0.529340
0.536064 0.536064 0.536064
0.542785 0.542785 0.542785
0.549505 0.549505 0.549505
0.556221 0.556221 0.556221
0.562934 0.562934 0.562934
0.569644 0.569644 0.569644
0.576350 0.576350 0.576350
0.583051 0.583051 0.583051
0.589747 0.589747 0.589747
0.596439 0.596439 0.596439
0.603125 0.603125 0.603125
0.609805 0.609805 0.609805
0.616479 0.616479 0.616479
0.623147 0.623147 0.623147
0.629807 0.629807 0.629807
0.636461 0.636461 0.636461
0.444353 0.444353 0.444353
0.451071 0.451071 0.451071
0.457792 0.457792 0.457792
0.464516 0.464516 0.464516
0.471241 0.471241 0.471241
0.477967 0.477967 0.477967
0.484695 0.484695 0.484695
0.491423 0.491423 0.491423
0.498152 0.498152 0.498152
0.504881 0.504881 0.504881
0.511609 0.511609 0.511609
0.518337 0.518337 0.518337
0.525063 0.525063 0.525063
0.531788 0.531788 0.531788
0.538511 0.538511 0.538511
0.545232 0.545232 0.545232
0.551950 0.551950 0.551950
0.558666 0.558666 0.558666
0.565377 0.565377 0.565377
0.572086 0.572086 0.572086
0.578790 0.578790 0.578790
0.585489 0.585489 0.585489
0.592184 0.592184 0.592184
0.598874 0.598874 0.598874
0.605558 0.605558 0.605558
0.612236 0.612236 0.612236
0.618908 0.618908 0.618908
0.625573 0.625573 0.625573
0.632231 0.632231 0.632231
0.638881 0.638881 0.638881
0.645524 0.645524 0.645524
0.652158 0.652158 0.652158
0.658784 0.658784 0.658784
0.466964 0.466964 0.466964
0.473689 0.473689 0.473689
0.480416 0.480416 0.480416
0.487144 0.487144 0.487144
0.493873 0.493873 0.493873
0.500602 0.500602 0.500602
0.507330 0.507330 0.507330
0.514058 0.514058 0.514058
0.520786 0.520786 0.520786
0.527512 0.527512 0.527512
0.534236 0.534236 0.534236
0.540958 0.540958 0.540958
0.547678 0.547678 0.547678
0.554395 0.554395 0.554395
0.561110 0.561110 0.561110
0.567820 0.567820 0.567820
0.574527 0.574527 0.574527
0.581229 0.581229 0.581229
0.587927 0.587927 0.587927
0.594620 0.594620 0.594620
0.601308 0.601308 0.601308
0.607990 0.607990 0.607990
0.614666 0.614666 0.614666
0.621335 0.621335 0.621335
0.627997 0.627997 0.627997
0.634653 0.634653 0.634653
0.641300 0.641300 0.641300
0.647940 0.647940 0.647940
0.654572 0.654572 0.654572
0.661194 0.661194 0.661194
0.667808 0.667808 0.667808
0.674412 0.674412 0.674412
0.681007 0.681007 0.681007
0.489594 0.489594 0.489594
0.496323 0.496323 0.496323
0.503051 0.503051 0.503051
0.509780 0.509780 0.509780
0.516508 0.516508 0.516508
0.523234 0.523234 0.523234
0.529960 0.529960 0.529960
0.536684 0.536684 0.536684
0.543405 0.543405 0.543405
0.550124 0.550124 0.550124
0.556840 0.556840 0.556840
0.563553 0.563553 0.563553
0.570262 0.570262 0.570262
0.576968 0.576968 0.576968
0.583668 0.583668 0.583668
0.590365 0.590365 0.590365
0.597056 0.597056 0.597056
0.603741 0.603741 0.603741
0.610421 0.610421 0.610421
0.617094 0.617094 0.617094
0.623761 0.623761 0.623761
0.630421 0.630421 0.630421
0.637074 0.637074 0.637074
0.643719 0.643719 0.643719
0.650355 0.650355 0.650355
0.656984 0.656984 0.656984
0.663603 0.663603 0.663603
0.670214 0.670214 0.670214
0.676814 0.676814 0.676814
0.683405 0.683405 0.683405
0.689986 0.689986 0.689986
0.696555 0.696555 0.696555
0.703114 0.703114 0.703114
0.512229 0.512229 0.512229
0.518957 0.518957 0.518957
0.525683 0.525683 0.525683
0.532408 0.532408 0.532408
0.539131 0.539131 0.539131
0.545851 0.545851 0.545851
0.552569 0.552569 0.552569
0.559284 0.559284 0.559284
0.565996 0.565996 0.565996
0.572704 0.572704 0.572704
0.579408 0.579408 0.579408
0.586107 0.586107 0.586107
0.592801 0.592801 0.592801
0.599490 0.599490 0.599490
0.606174 0.606174 0.606174
0.612851 0.612851 0.612851
0.619522 0.619522 0.619522
0.626187 0.626187 0.626187
0.632844 0.632844 0.632844
0.639494 0.639494 0.639494
0.646136 0.646136 0.646136
0.652770 0.652770 0.652770
0.659395 0.659395 0.659395
0.666011 0.666011 0.666011
0.672618 0.672618 0.672618
0.679215 0.679215 0.679215
0.685802 0.685802 0.685802
0.692379 0.692379 0.692379
0.698944 0.698944 0.698944
0.705499 0.705499 0.705499
0.712042 0.712042 0.712042
0.718573 0.718573 0.718573
0.725092 0.725092 0.725092
0.534856 0.534856 0.534856
0.541578 0.541578 0.541578
0.548298 0.548298 0.548298
0.555015 0.555015 0.555015
0.561728 0.561728 0.561728
0.568439 0.568439 0.568439
0.575145 0.575145 0.575145
0.581847 0.581847 0.581847
0.588545 0.588545 0.588545
0.595237 0.595237 0.595237
0.601924 0.601924 0.601924
0.608605 0.608605 0.608605
0.615281 0.615281 0.615281
0.621949 0.621949 0.621949
0.628611 0.628611 0.628611
0.635266 0.635266 0.635266
0.641913 0.641913 0.641913
0.648552 0.648552 0.648552
0.655183 0.655183 0.655183
0.661804 0.661804 0.661804
0.668417 0.668417 0.668417
0.675021 0.675021 0.675021
0.681614 0.681614 0.681614
0.688198 0.688198 0.688198
0.694770 0.694770 0.694770
0.701332 0.701332 0.701332
0.707883 0.707883 0.707883
0.714421 0.714421 0.714421
0.720948 0.720948 0.720948
0.727462 0.727462 0.727462
0.733964 0.733964 0.733964
0.740452 0.740452 0.740452
0.746927 0.746927 0.746927
0.557459 0.557459 0.557459
0.564172 0.564172 0.564172
0.570881 0.570881 0.570881
0.577585 0.577585 0.577585
0.584286 0.584286 0.584286
0.590982 0.590982 0.590982
0.597672 0.597672 0.597672
0.604357 0.604357 0.604357
0.611036 0.611036 0.611036
0.617709 0.617709 0.617709
0.624376 0.624376 0.624376
0.631035 0.631035 0.631035
0.637687 0.637687 0.637687
0.644331 0.644331 0.644331
0.650967 0.650967 0.650967
0.657594 0.657594 0.657594
0.664213 0.664213 0.664213
0.670822 0.670822 0.670822
0.677422 0.677422 0.677422
0.684012 0.684012 0.684012
0.690592 0.690592 0.690592
0.697160 0.697160 0.697160
0.703718 0.703718 0.703718
0.710264 0.710264 0.710264
0.716799 0.716799 0.716799
0.723321 0.723321 0.723321
0.729831 0.729831 0.729831
0.736327 0.736327 0.736327
0.742811 0.742811 0.742811
0.749280 0.749280 0.749280
0.755736 0.755736 0.755736
0.762177 0.762177 0.762177
0.768604 0.768604 0.768604
0.580025 0.580025 0.580025
0.586724 0.586724 0.586724
0.593418 0.593418 0.593418
0.600107 0.600107 0.600107
0.606790 0.606790 0.606790
0.613466 0.613466 0.613466
0.620137 0.620137 0.620137
0.626801 0.626801 0.626801
0.633457 0.633457 0.633457
0.640106 0.640106 0.640106
0.646748 0.646748 0.646748
0.653381 0.653381 0.653381
0.660005 0.660005 0.660005
0.666620 0.666620 0.666620
0.673226 0.673226 0.673226
0.679823 0.679823 0.679823
0.686409 0.686409 0.686409
0.692984 0.692984 0.692984
0.699549 0.699549 0.699549
0.706103 0.706103 0.706103
0.712645 0.712645 0.712645
0.719175 0.719175 0.719175
0.725692 0.725692 0.725692
0.732197 0.732197 0.732197
0.738689 0.738689 0.738689
0.745168 0.745168 0.745168
0.751632 0.751632 0.751632
0.758083 0.758083 0.758083
