assets/luts/leica_artist.cube
TITLE "leica_artist"
LUT_3D_SIZE 5
DOMAIN_MIN 0.0 0.0 0.0
DOMAIN_MAX 1.0 1.0 1.0
0.005747 0.031127 0.074819
0.189330 0.035908 0.072752
0.456111 0.051144 0.081363
0.726735 0.066512 0.090007
0.980217 0.082005 0.098682
0.019051 0.254953 0.051353
0.223688 0.250110 0.039967
0.489884 0.264480 0.046386
0.758625 0.281476 0.055849
1.000000 0.301915 0.074819
0.036314 0.499100 0.037051
0.260145 0.499100 0.037051
0.499000 0.499100 0.037051
0.758625 0.520000 0.055849
1.000000 0.540894 0.074819
0.054811 0.757763 0.055849
0.280529 0.757763 0.055849
0.520000 0.757763 0.055849
0.758625 0.757763 0.055849
1.000000 0.780966 0.074819
0.075695 1.000000 0.074819
0.311682 1.000000 0.074819
0.560340 1.000000 0.074819
0.805475 1.000000 0.074819
1.000000 1.000000 0.074819
0.023547 0.047996 0.318840
0.201334 0.042942 0.305788
0.459518 0.049990 0.306015
0.730058 0.065348 0.315252
0.983192 0.080832 0.324502
0.020421 0.254967 0.275058
0.227570 0.249478 0.262116
0.493296 0.263226 0.268432
0.758625 0.281476 0.282423
1.000000 0.301915 0.302813
0.036314 0.499100 0.262116
0.260145 0.499100 0.262116
0.499000 0.499100 0.262116
0.758625 0.520000 0.282423
1.000000 0.540894 0.302813
0.054811 0.757763 0.282423
0.280529 0.757763 0.282423
0.520000 0.757763 0.282423
0.760951 0.758803 0.280034
1.000000 0.782069 0.290351
0.078278 1.000000 0.296630
0.314503 1.000000 0.286761
0.563212 1.000000 0.276911
0.808213 1.000000 0.267081
1.000000 1.000000 0.257272
0.041569 0.065026 0.573348
0.224015 0.059925 0.560102
0.469657 0.054838 0.546848
0.733378 0.064185 0.549565
0.986160 0.079659 0.558947
0.038406 0.273408 0.528760
0.250444 0.267893 0.515495
0.497135 0.262387 0.502229
0.758625 0.281476 0.520000
1.000000 0.301915 0.540795
0.036314 0.499100 0.499200
0.260145 0.499100 0.499200
0.499000 0.499100 0.499200
0.758625 0.520000 0.520000
1.000000 0.540894 0.540795
0.054811 0.757763 0.520000
0.280529 0.757763 0.520000
0.520000 0.757763 0.520000
0.763969 0.760154 0.514386
1.000000 0.783172 0.524678
0.080865 1.000000 0.531080
0.317326 1.000000 0.521012
0.566084 1.000000 0.510943
0.810948 1.000000 0.500874
1.000000 1.000000 0.490805
0.059806 0.082212 0.824109
0.246864 0.077066 0.811408
0.493425 0.071932 0.798661
0.740798 0.066813 0.785869
0.989123 0.078487 0.790895
0.056605 0.291928 0.781201
0.273469 0.286391 0.768352
0.520000 0.281476 0.756900
0.758625 0.281476 0.756900
1.000000 0.301915 0.777084
0.054811 0.520000 0.756900
0.280529 0.520000 0.756900
0.520000 0.520000 0.756900
0.758625 0.520000 0.756900
1.000000 0.540894 0.777084
0.054811 0.757763 0.756900
0.280529 0.757763 0.756900
0.520000 0.757763 0.756900
0.766985 0.761505 0.748346
1.000000 0.784275 0.758124
0.083455 1.000000 0.764346
0.320150 1.000000 0.754558
0.568955 1.000000 0.744748
0.813680 1.000000 0.734917
1.000000 1.000000 0.725066
0.073523 0.094747 1.000000
0.265799 0.090542 1.000000
0.514078 0.086346 1.000000
0.761831 0.082158 1.000000
0.992715 0.077979 1.000000
0.073523 0.308901 1.000000
0.296057 0.304390 1.000000
0.540994 0.301915 1.000000
0.778855 0.301915 1.000000
1.000000 0.301915 1.000000
0.073523 0.540894 1.000000
0.301016 0.540894 1.000000
0.540994 0.540894 1.000000
0.778855 0.540894 1.000000
1.000000 0.540894 1.000000
0.073523 0.777969 1.000000
0.301016 0.777969 1.000000
0.543119 0.778643 0.997274
0.788171 0.781045 0.987518
1.000000 0.785377 0.979504
0.086050 1.000000 0.985243
0.322976 1.000000 0.976211
0.571826 1.000000 0.967138
0.816410 1.000000 0.958023
1.000000 1.000000 0.948868
