assets/luts/leica_contemporary.cube
TITLE "leica_contemporary"
LUT_3D_SIZE 9
DOMAIN_MIN 0.0 0.0 0.0
DOMAIN_MAX 1.0 1.0 1.0
0.000000 0.000000 0.012000
0.113687 0.002274 0.014246
0.236983 0.004740 0.016683
0.366644 0.007333 0.019245
0.499425 0.009988 0.021869
0.632079 0.012642 0.024490
0.761363 0.015227 0.027045
0.884032 0.017681 0.029468
0.996840 0.019937 0.031698
0.002287 0.114336 0.014259
0.113700 0.114336 0.014259
0.236983 0.116789 0.016683
0.366644 0.119382 0.019245
0.499425 0.122038 0.021869
0.632079 0.124691 0.024490
0.761363 0.127276 0.027045
0.884032 0.129730 0.029468
0.996840 0.131986 0.031698
0.004756 0.237813 0.016699
0.116169 0.237813 0.016699
0.237000 0.237813 0.016699
0.366644 0.240389 0.019245
0.499425 0.243045 0.021869
0.632079 0.245698 0.024490
0.761363 0.248284 0.027045
0.884032 0.250737 0.029468
0.996840 0.252993 0.031698
0.007348 0.367383 0.019259
0.118761 0.367383 0.019259
0.239591 0.367383 0.019259
0.366659 0.367383 0.019259
0.499425 0.370024 0.021869
0.632079 0.372677 0.024490
0.761363 0.375262 0.027045
0.884032 0.377716 0.029468
0.996840 0.379972 0.031698
0.010000 0.500000 0.021880
0.121413 0.500000 0.021880
0.242244 0.500000 0.021880
0.369311 0.500000 0.021880
0.499436 0.500000 0.021880
0.632079 0.502642 0.024490
0.761363 0.505227 0.027045
0.884032 0.507681 0.029468
0.996840 0.509937 0.031698
0.012652 0.632617 0.024501
0.124066 0.632617 0.024501
0.244896 0.632617 0.024501
0.371964 0.632617 0.024501
0.502088 0.632617 0.024501
0.632090 0.632617 0.024501
0.761363 0.635192 0.027045
0.884032 0.637645 0.029468
0.996840 0.639902 0.031698
0.015244 0.762188 0.027061
0.126657 0.762188 0.027061
0.247487 0.762188 0.027061
0.374555 0.762188 0.027061
0.504680 0.762188 0.027061
0.634681 0.762188 0.027061
0.761380 0.762188 0.027061
0.884032 0.764624 0.029468
0.996840 0.766881 0.031698
0.017713 0.885664 0.029501
0.129126 0.885664 0.029501
0.249957 0.885664 0.029501
0.377025 0.885664 0.029501
0.507149 0.885664 0.029501
0.637151 0.885664 0.029501
0.763849 0.885664 0.029501
0.884064 0.885664 0.029501
0.996840 0.887888 0.031698
0.020000 1.000000 0.031760
0.131413 1.000000 0.031760
0.252244 1.000000 0.031760
0.379311 1.000000 0.031760
0.509436 1.000000 0.031760
0.639438 1.000000 0.031760
0.766136 1.000000 0.031760
0.886351 1.000000 0.031760
0.996903 1.000000 0.031760
0.002304 0.002304 0.125800
0.113717 0.002304 0.125800
0.236983 0.004740 0.128207
0.366644 0.007333 0.130769
0.499425 0.009988 0.133393
0.632079 0.012642 0.136014
0.761363 0.015227 0.138569
0.884032 0.017681 0.140993
0.996840 0.019937 0.143222
0.002304 0.114353 0.125800
0.113717 0.114353 0.125800
0.236983 0.116789 0.128207
0.366644 0.119382 0.130769
0.499425 0.122038 0.133393
0.632079 0.124691 0.136014
0.761363 0.127276 0.138569
0.884032 0.129730 0.140993
0.996840 0.131986 0.143222
0.004756 0.237813 0.128223
0.116169 0.237813 0.128223
0.237000 0.237813 0.128223
0.366644 0.240389 0.130769
0.499425 0.243045 0.133393
0.632079 0.245698 0.136014
0.761363 0.248284 0.138569
0.884032 0.250737 0.140993
0.996840 0.252993 0.143222
0.007348 0.367383 0.130784
0.118761 0.367383 0.130784
0.239591 0.367383 0.130784
0.366659 0.367383 0.130784
0.499425 0.370024 0.133393
0.632079 0.372677 0.136014
0.761363 0.375262 0.138569
0.884032 0.377716 0.140993
0.996840 0.379972 0.143222
0.010000 0.500000 0.133404
0.121413 0.500000 0.133404
0.242244 0.500000 0.133404
0.369311 0.500000 0.133404
0.499436 0.500000 0.133404
0.632079 0.502642 0.136014
0.761363 0.505227 0.138569
0.884032 0.507681 0.140993
0.996840 0.509937 0.143222
0.012652 0.632617 0.136025
0.124066 0.632617 0.136025
0.244896 0.632617 0.136025
0.371964 0.632617 0.136025
0.502088 0.632617 0.136025
0.632090 0.632617 0.136025
0.761363 0.635192 0.138569
0.884032 0.637645 0.140993
0.996840 0.639902 0.143222
0.015244 0.762188 0.138585
0.126657 0.762188 0.138585
0.247487 0.762188 0.138585
0.374555 0.762188 0.138585
0.504680 0.762188 0.138585
0.634681 0.762188 0.138585
0.761380 0.762188 0.138585
0.884032 0.764624 0.140993
0.996840 0.766881 0.143222
0.017713 0.885664 0.141025
0.129126 0.885664 0.141025
0.249957 0.885664 0.141025
0.377025 0.885664 0.141025
0.507149 0.885664 0.141025
0.637151 0.885664 0.141025
0.763849 0.885664 0.141025
0.884064 0.885664 0.141025
0.996840 0.887888 0.143222
0.020000 1.000000 0.143284
0.131413 1.000000 0.143284
0.252244 1.000000 0.143284
0.379311 1.000000 0.143284
0.509436 1.000000 0.143284
0.639438 1.000000 0.143284
0.766136 1.000000 0.143284
0.886351 1.000000 0.143284
0.996903 1.000000 0.143284
0.004780 0.004780 0.248150
0.116194 0.004780 0.248150
0.237024 0.004780 0.248150
0.366644 0.007333 0.250672
0.499425 0.009988 0.253296
0.632079 0.012642 0.255917
0.761363 0.015227 0.258472
0.884032 0.017681 0.260896
0.996840 0.019937 0.263125
0.004780 0.116830 0.248150
0.116194 0.116830 0.248150
0.237024 0.116830 0.248150
0.366644 0.119382 0.250672
0.499425 0.122038 0.253296
0.632079 0.124691 0.255917
0.761363 0.127276 0.258472
0.884032 0.129730 0.260896
0.996840 0.131986 0.263125
0.004780 0.237837 0.248150
0.116194 0.237837 0.248150
0.237024 0.237837 0.248150
0.366644 0.240389 0.250672
0.499425 0.243045 0.253296
0.632079 0.245698 0.255917
0.761363 0.248284 0.258472
0.884032 0.250737 0.260896
0.996840 0.252993 0.263125
0.007348 0.367383 0.250687
0.118761 0.367383 0.250687
0.239591 0.367383 0.250687
0.366659 0.367383 0.250687
0.499425 0.370024 0.253296
0.632079 0.372677 0.255917
0.761363 0.375262 0.258472
0.884032 0.377716 0.260896
0.996840 0.379972 0.263125
0.010000 0.500000 0.253307
0.121413 0.500000 0.253307
0.242244 0.500000 0.253307
0.369311 0.500000 0.253307
0.499436 0.500000 0.253307
0.632079 0.502642 0.255917
0.761363 0.505227 0.258472
0.884032 0.507681 0.260896
0.996840 0.509937 0.263125
0.012652 0.632617 0.255928
0.124066 0.632617 0.255928
0.244896 0.632617 0.255928
0.371964 0.632617 0.255928
0.502088 0.632617 0.255928
0.632090 0.632617 0.255928
0.761363 0.635192 0.258472
0.884032 0.637645 0.260896
0.996840 0.639902 0.263125
0.015244 0.762188 0.258488
0.126657 0.762188 0.258488
0.247487 0.762188 0.258488
0.374555 0.762188 0.258488
0.504680 0.762188 0.258488
0.634681 0.762188 0.258488
0.761380 0.762188 0.258488
0.884032 0.764624 0.260896
0.996840 0.766881 0.263125
0.017713 0.885664 0.260928
0.129126 0.885664 0.260928
0.249957 0.885664 0.260928
0.377025 0.885664 0.260928
0.507149 0.885664 0.260928
0.637151 0.885664 0.260928
0.763849 0.885664 0.260928
0.884064 0.885664 0.260928
0.996840 0.887888 0.263125
0.020000 1.000000 0.263187
0.131413 1.000000 0.263187
0.252244 1.000000 0.263187
0.379311 1.000000 0.263187
0.509436 1.000000 0.263187
0.639438 1.000000 0.263187
0.766136 1.000000 0.263187
0.886351 1.000000 0.263187
0.996903 1.000000 0.263187
0.007373 0.007373 0.376233
0.118786 0.007373 0.376233
0.239617 0.007373 0.376233
0.366685 0.007373 0.376233
0.499425 0.009988 0.378817
0.632079 0.012642 0.381438
0.761363 0.015227 0.383993
0.884032 0.017681 0.386417
0.996840 0.019937 0.388646
0.007373 0.119422 0.376233
0.118786 0.119422 0.376233
0.239617 0.119422 0.376233
0.366685 0.119422 0.376233
0.499425 0.122038 0.378817
0.632079 0.124691 0.381438
0.761363 0.127276 0.383993
0.884032 0.129730 0.386417
0.996840 0.131986 0.388646
0.007373 0.240429 0.376233
0.118786 0.240429 0.376233
0.239617 0.240429 0.376233
0.366685 0.240429 0.376233
0.499425 0.243045 0.378817
0.632079 0.245698 0.381438
0.761363 0.248284 0.383993
0.884032 0.250737 0.386417
0.996840 0.252993 0.388646
0.007373 0.367408 0.376233
0.118786 0.367408 0.376233
0.239617 0.367408 0.376233
0.366685 0.367408 0.376233
0.499425 0.370024 0.378817
0.632079 0.372677 0.381438
0.761363 0.375262 0.383993
0.884032 0.377716 0.386417
0.996840 0.379972 0.388646
0.010000 0.500000 0.378829
0.121413 0.500000 0.378829
0.242244 0.500000 0.378829
0.369311 0.500000 0.378829
0.499436 0.500000 0.378829
0.632079 0.502642 0.381438
0.761363 0.505227 0.383993
0.884032 0.507681 0.386417
0.996840 0.509937 0.388646
0.012652 0.632617 0.381449
0.124066 0.632617 0.381449
0.244896 0.632617 0.381449
0.371964 0.632617 0.381449
0.502088 0.632617 0.381449
0.632090 0.632617 0.381449
0.761363 0.635192 0.383993
0.884032 0.637645 0.386417
0.996840 0.639902 0.388646
0.015244 0.762188 0.384009
0.126657 0.762188 0.384009
0.247487 0.762188 0.384009
0.374555 0.762188 0.384009
0.504680 0.762188 0.384009
0.634681 0.762188 0.384009
0.761380 0.762188 0.384009
0.884032 0.764624 0.386417
0.996840 0.766881 0.388646
0.017713 0.885664 0.386449
0.129126 0.885664 0.386449
0.249957 0.885664 0.386449
0.377025 0.885664 0.386449
0.507149 0.885664 0.386449
0.637151 0.885664 0.386449
0.763849 0.885664 0.386449
0.884064 0.885664 0.386449
0.996840 0.887888 0.388646
0.020000 1.000000 0.388709
0.131413 1.000000 0.388709
0.252244 1.000000 0.388709
0.379311 1.000000 0.388709
0.509436 1.000000 0.388709
0.639438 1.000000 0.388709
0.766136 1.000000 0.388709
0.886351 1.000000 0.388709
0.996903 1.000000 0.388709
0.010025 0.010025 0.507231
0.121438 0.010025 0.507231
0.242269 0.010025 0.507231
0.369336 0.010025 0.507231
0.499461 0.010025 0.507231
0.632079 0.012642 0.509816
0.761363 0.015227 0.512371
0.884032 0.017681 0.514795
0.996840 0.019937 0.517024
0.010025 0.122074 0.507231
0.121438 0.122074 0.507231
0.242269 0.122074 0.507231
0.369336 0.122074 0.507231
0.499461 0.122074 0.507231
0.632079 0.124691 0.509816
0.761363 0.127276 0.512371
0.884032 0.129730 0.514795
0.996840 0.131986 0.517024
0.010025 0.243081 0.507231
0.121438 0.243081 0.507231
0.242269 0.243081 0.507231
0.369336 0.243081 0.507231
0.499461 0.243081 0.507231
0.632079 0.245698 0.509816
0.761363 0.248284 0.512371
0.884032 0.250737 0.514795
0.996840 0.252993 0.517024
0.010025 0.370060 0.507231
0.121438 0.370060 0.507231
0.242269 0.370060 0.507231
0.369336 0.370060 0.507231
0.499461 0.370060 0.507231
0.632079 0.372677 0.509816
0.761363 0.375262 0.512371
0.884032 0.377716 0.514795
0.996840 0.379972 0.517024
0.010025 0.500025 0.507231
0.121438 0.500025 0.507231
0.242269 0.500025 0.507231
0.369336 0.500025 0.507231
0.499461 0.500025 0.507231
0.632079 0.502642 0.509816
0.761363 0.505227 0.512371
0.884032 0.507681 0.514795
0.996840 0.509937 0.517024
0.012652 0.632617 0.509827
0.124066 0.632617 0.509827
0.244896 0.632617 0.509827
0.371964 0.632617 0.509827
0.502088 0.632617 0.509827
0.632090 0.632617 0.509827
0.761363 0.635192 0.512371
0.884032 0.637645 0.514795
0.996840 0.639902 0.517024
0.015244 0.762188 0.512387
0.126657 0.762188 0.512387
0.247487 0.762188 0.512387
0.374555 0.762188 0.512387
0.504680 0.762188 0.512387
0.634681 0.762188 0.512387
0.761380 0.762188 0.512387
0.884032 0.764624 0.514795
0.996840 0.766881 0.517024
0.017713 0.885664 0.514827
0.129126 0.885664 0.514827
0.249957 0.885664 0.514827
0.377025 0.885664 0.514827
0.507149 0.885664 0.514827
0.637151 0.885664 0.514827
0.763849 0.885664 0.514827
0.884064 0.885664 0.514827
0.996840 0.887888 0.517024
0.020000 1.000000 0.517087
0.131413 1.000000 0.517087
0.252244 1.000000 0.517087
0.379311 1.000000 0.517087
0.509436 1.000000 0.517087
0.639438 1.000000 0.517087
0.766136 1.000000 0.517087
0.886351 1.000000 0.517087
0.996903 1.000000 0.517087
0.012679 0.012679 0.638327
0.124092 0.012679 0.638327
0.244922 0.012679 0.638327
0.371990 0.012679 0.638327
0.502115 0.012679 0.638327
0.632116 0.012679 0.638327
0.761363 0.015227 0.640845
0.884032 0.017681 0.643269
0.996840 0.019937 0.645498
0.012679 0.124728 0.638327
0.124092 0.124728 0.638327
0.244922 0.124728 0.638327
0.371990 0.124728 0.638327
0.502115 0.124728 0.638327
0.632116 0.124728 0.638327
0.761363 0.127276 0.640845
0.884032 0.129730 0.643269
0.996840 0.131986 0.645498
0.012679 0.245735 0.638327
0.124092 0.245735 0.638327
0.244922 0.245735 0.638327
0.371990 0.245735 0.638327
0.502115 0.245735 0.638327
0.632116 0.245735 0.638327
0.761363 0.248284 0.640845
0.884032 0.250737 0.643269
0.996840 0.252993 0.645498
0.012679 0.372714 0.638327
0.124092 0.372714 0.638327
0.244922 0.372714 0.638327
0.371990 0.372714 0.638327
0.502115 0.372714 0.638327
0.632116 0.372714 0.638327
0.761363 0.375262 0.640845
0.884032 0.377716 0.643269
0.996840 0.379972 0.645498
0.012679 0.502679 0.638327
0.124092 0.502679 0.638327
0.244922 0.502679 0.638327
0.371990 0.502679 0.638327
0.502115 0.502679 0.638327
0.632116 0.502679 0.638327
0.761363 0.505227 0.640845
0.884032 0.507681 0.643269
0.996840 0.509937 0.645498
0.012679 0.632644 0.638327
0.124092 0.632644 0.638327
0.244922 0.632644 0.638327
0.371990 0.632644 0.638327
0.502115 0.632644 0.638327
0.632116 0.632644 0.638327
0.761363 0.635192 0.640845
0.884032 0.637645 0.643269
0.996840 0.639902 0.645498
0.015244 0.762188 0.640861
0.126657 0.762188 0.640861
0.247487 0.762188 0.640861
0.374555 0.762188 0.640861
0.504680 0.762188 0.640861
0.634681 0.762188 0.640861
0.761380 0.762188 0.640861
0.884032 0.764624 0.643269
0.996840 0.766881 0.645498
0.017713 0.885664 0.643301
0.129126 0.885664 0.643301
0.249957 0.885664 0.643301
0.377025 0.885664 0.643301
0.507149 0.885664 0.643301
0.637151 0.885664 0.643301
0.763849 0.885664 0.643301
0.884064 0.885664 0.643301
0.996840 0.887888 0.645498
0.020000 1.000000 0.645560
0.131413 1.000000 0.645560
0.252244 1.000000 0.645560
0.379311 1.000000 0.645560
0.509436 1.000000 0.645560
0.639438 1.000000 0.645560
0.766136 1.000000 0.645560
0.886351 1.000000 0.645560
0.996903 1.000000 0.645560
0.015277 0.015277 0.766703
0.126691 0.015277 0.766703
0.247521 0.015277 0.766703
0.374589 0.015277 0.766703
0.504713 0.015277 0.766703
0.634715 0.015277 0.766703
0.761414 0.015277 0.766703
0.884032 0.017681 0.769078
0.996840 0.019937 0.771307
0.015277 0.127327 0.766703
0.126691 0.127327 0.766703
0.247521 0.127327 0.766703
0.374589 0.127327 0.766703
0.504713 0.127327 0.766703
0.634715 0.127327 0.766703
0.761414 0.127327 0.766703
0.884032 0.129730 0.769078
0.996840 0.131986 0.771307
0.015277 0.248334 0.766703
0.126691 0.248334 0.766703
0.247521 0.248334 0.766703
0.374589 0.248334 0.766703
0.504713 0.248334 0.766703
0.634715 0.248334 0.766703
0.761414 0.248334 0.766703
0.884032 0.250737 0.769078
0.996840 0.252993 0.771307
0.015277 0.375313 0.766703
0.126691 0.375313 0.766703
0.247521 0.375313 0.766703
0.374589 0.375313 0.766703
0.504713 0.375313 0.766703
0.634715 0.375313 0.766703
0.761414 0.375313 0.766703
0.884032 0.377716 0.769078
0.996840 0.379972 0.771307
0.015277 0.505277 0.766703
0.126691 0.505277 0.766703
0.247521 0.505277 0.766703
0.374589 0.505277 0.766703
0.504713 0.505277 0.766703
0.634715 0.505277 0.766703
0.761414 0.505277 0.766703
0.884032 0.507681 0.769078
0.996840 0.509937 0.771307
0.015277 0.635242 0.766703
0.126691 0.635242 0.766703
0.247521 0.635242 0.766703
0.374589 0.635242 0.766703
0.504713 0.635242 0.766703
0.634715 0.635242 0.766703
0.761414 0.635242 0.766703
0.884032 0.637645 0.769078
0.996840 0.639902 0.771307
0.015277 0.762221 0.766703
0.126691 0.762221 0.766703
0.247521 0.762221 0.766703
0.374589 0.762221 0.766703
0.504713 0.762221 0.766703
0.634715 0.762221 0.766703
0.761414 0.762221 0.766703
0.884032 0.764624 0.769078
0.996840 0.766881 0.771307
0.017713 0.885664 0.769110
0.129126 0.885664 0.769110
0.249957 0.885664 0.769110
0.377025 0.885664 0.769110
0.507149 0.885664 0.769110
0.637151 0.885664 0.769110
0.763849 0.885664 0.769110
0.884064 0.885664 0.769110
0.996840 0.887888 0.771307
0.020000 1.000000 0.771369
0.131413 1.000000 0.771369
0.252244 1.000000 0.771369
0.379311 1.000000 0.771369
0.509436 1.000000 0.771369
0.639438 1.000000 0.771369
0.766136 1.000000 0.771369
0.886351 1.000000 0.771369
0.996903 1.000000 0.771369
0.017764 0.017764 0.889542
0.129177 0.017764 0.889542
0.250008 0.017764 0.889542
0.377075 0.017764 0.889542
0.507200 0.017764 0.889542
0.637202 0.017764 0.889542
0.763900 0.017764 0.889542
0.884115 0.017764 0.889542
0.996840 0.019937 0.891689
0.017764 0.129813 0.889542
0.129177 0.129813 0.889542
0.250008 0.129813 0.889542
0.377075 0.129813 0.889542
0.507200 0.129813 0.889542
0.637202 0.129813 0.889542
0.763900 0.129813 0.889542
0.884115 0.129813 0.889542
0.996840 0.131986 0.891689
0.017764 0.250820 0.889542
0.129177 0.250820 0.889542
0.250008 0.250820 0.889542
0.377075 0.250820 0.889542
0.507200 0.250820 0.889542
0.637202 0.250820 0.889542
0.763900 0.250820 0.889542
0.884115 0.250820 0.889542
0.996840 0.252993 0.891689
0.017764 0.377799 0.889542
0.129177 0.377799 0.889542
0.250008 0.377799 0.889542
0.377075 0.377799 0.889542
0.507200 0.377799 0.889542
0.637202 0.377799 0.889542
0.763900 0.377799 0.889542
0.884115 0.377799 0.889542
0.996840 0.379972 0.891689
0.017764 0.507764 0.889542
0.129177 0.507764 0.889542
0.250008 0.507764 0.889542
0.377075 0.507764 0.889542
0.507200 0.507764 0.889542
0.637202 0.507764 0.889542
0.763900 0.507764 0.889542
0.884115 0.507764 0.889542
0.996840 0.509937 0.891689
0.017764 0.637729 0.889542
0.129177 0.637729 0.889542
0.250008 0.637729 0.889542
0.377075 0.637729 0.889542
0.507200 0.637729 0.889542
0.637202 0.637729 0.889542
0.763900 0.637729 0.889542
0.884115 0.637729 0.889542
0.996840 0.639902 0.891689
0.017764 0.764708 0.889542
0.129177 0.764708 0.889542
0.250008 0.764708 0.889542
0.377075 0.764708 0.889542
0.507200 0.764708 0.889542
0.637202 0.764708 0.889542
0.763900 0.764708 0.889542
0.884115 0.764708 0.889542
0.996840 0.766881 0.891689
0.017764 0.885715 0.889542
0.129177 0.885715 0.889542
0.250008 0.885715 0.889542
0.377075 0.885715 0.889542
0.507200 0.885715 0.889542
0.637202 0.885715 0.889542
0.763900 0.885715 0.889542
0.884115 0.885715 0.889542
0.996840 0.887888 0.891689
0.020000 1.000000 0.891752
0.131413 1.000000 0.891752
0.252244 1.000000 0.891752
0.379311 1.000000 0.891752
0.509436 1.000000 0.891752
0.639438 1.000000 0.891752
0.766136 1.000000 0.891752
0.886351 1.000000 0.891752
0.996903 1.000000 0.891752
0.020000 0.020000 1.000000
0.131413 0.020000 1.000000
0.252244 0.020000 1.000000
0.379311 0.020000 1.000000
0.509436 0.020000 1.000000
0.639438 0.020000 1.000000
0.766136 0.020000 1.000000
0.886351 0.020000 1.000000
0.996903 0.020000 1.000000
0.020000 0.132049 1.000000
0.131413 0.132049 1.000000
0.252244 0.132049 1.000000
0.379311 0.132049 1.000000
0.509436 0.132049 1.000000
0.639438 0.132049 1.000000
0.766136 0.132049 1.000000
0.886351 0.132049 1.000000
0.996903 0.132049 1.000000
0.020000 0.253056 1.000000
0.131413 0.253056 1.000000
0.252244 0.253056 1.000000
0.379311 0.253056 1.000000
0.509436 0.253056 1.000000
0.639438 0.253056 1.000000
0.766136 0.253056 1.000000
0.886351 0.253056 1.000000
0.996903 0.253056 1.000000
0.020000 0.380035 1.000000
0.131413 0.380035 1.000000
0.252244 0.380035 1.000000
0.379311 0.380035 1.000000
0.509436 0.380035 1.000000
0.639438 0.380035 1.000000
0.766136 0.380035 1.000000
0.886351 0.380035 1.000000
0.996903 0.380035 1.000000
0.020000 0.510000 1.000000
0.131413 0.510000 1.000000
0.252244 0.510000 1.000000
0.379311 0.510000 1.000000
0.509436 0.510000 1.000000
0.639438 0.510000 1.000000
0.766136 0.510000 1.000000
0.886351 0.510000 1.000000
0.996903 0.510000 1.000000
0.020000 0.639965 1.000000
0.131413 0.639965 1.000000
0.252244 0.639965 1.000000
0.379311 0.639965 1.000000
0.509436 0.639965 1.000000
0.639438 0.639965 1.000000
0.766136 0.639965 1.000000
0.886351 0.639965 1.000000
0.996903 0.639965 1.000000
0.020000 0.766944 1.000000
0.131413 0.766944 1.000000
0.252244 0.766944 1.000000
0.379311 0.766944 1.000000
0.509436 0.766944 1.000000
0.639438 0.766944 1.000000
0.766136 0.766944 1.000000
0.886351 0.766944 1.000000
0.996903 0.766944 1.000000
0.020000 0.887951 1.000000
0.131413 0.887951 1.000000
0.252244 0.887951 1.000000
0.379311 0.887951 1.000000
0.509436 0.887951 1.000000
0.639438 0.887951 1.000000
0.766136 0.887951 1.000000
0.886351 0.887951 1.000000
0.996903 0.887951 1.000000
0.020000 1.000000 1.000000
0.131413 1.000000 1.000000
0.252244 1.000000 1.000000
0.379311 1.000000 1.000000
0.509436 1.000000 1.000000
0.639438 1.000000 1.000000
0.766136 1.000000 1.000000
0.886351 1.000000 1.000000
0.996903 1.000000 1.000000
