assets/luts/leica_vivid.cube
TITLE "leica_vivid"
LUT_3D_SIZE 33
DOMAIN_MIN 0.0 0.0 0.0
DOMAIN_MAX 1.0 1.0 1.0
0.000000 0.000000 0.000000
0.021690 0.000000 0.000000
0.049155 0.000000 0.000000
0.077340 0.000000 0.000000
0.106192 0.000000 0.000000
0.135658 0.000000 0.000000
0.165684 0.000000 0.000000
0.196216 0.000000 0.000000
0.227200 0.000000 0.000000
0.258583 0.000000 0.000000
0.290311 0.000000 0.000000
0.322331 0.000000 0.000000
0.354588 0.000000 0.000000
0.387029 0.000000 0.000000
0.419601 0.000000 0.000000
0.452249 0.000000 0.000000
0.484921 0.000000 0.000000
0.517562 0.000000 0.000000
0.550118 0.000000 0.000000
0.582536 0.000000 0.000000
0.614763 0.000000 0.000000
0.646744 0.000000 0.000000
0.678426 0.000000 0.000000
0.709756 0.000000 0.000000
0.740679 0.000000 0.000000
0.771142 0.000000 0.000000
0.801091 0.000000 0.000000
0.830473 0.000000 0.000000
0.859233 0.000000 0.000000
0.887319 0.000000 0.000000
0.914676 0.000000 0.000000
0.941252 0.000000 0.000000
0.965000 0.000000 0.000000
0.000000 0.021378 0.000000
0.021690 0.021378 0.000000
0.049155 0.021378 0.000000
0.077340 0.021378 0.000000
0.106192 0.021378 0.000000
0.135658 0.021378 0.000000
0.165684 0.021378 0.000000
0.196216 0.021378 0.000000
0.227200 0.021378 0.000000
0.258583 0.021378 0.000000
0.290311 0.021378 0.000000
0.322331 0.021378 0.000000
0.354588 0.021378 0.000000
0.387029 0.021378 0.000000
0.419601 0.021378 0.000000
0.452249 0.021378 0.000000
0.484921 0.021378 0.000000
0.517562 0.021378 0.000000
0.550118 0.021378 0.000000
0.582536 0.021378 0.000000
0.614763 0.021378 0.000000
0.646744 0.021378 0.000000
0.678426 0.021378 0.000000
0.709756 0.021378 0.000000
0.740679 0.021378 0.000000
0.771142 0.021378 0.000000
0.801091 0.021378 0.000000
0.830473 0.021378 0.000000
0.859233 0.021378 0.000000
0.887319 0.021378 0.000000
0.914676 0.021378 0.000000
0.941252 0.021378 0.000000
0.965000 0.021378 0.000000
0.000000 0.048577 0.000000
0.021690 0.048577 0.000000
0.049155 0.048577 0.000000
0.077340 0.048577 0.000000
0.106192 0.048577 0.000000
0.135658 0.048577 0.000000
0.165684 0.048577 0.000000
0.196216 0.048577 0.000000
0.227200 0.048577 0.000000
0.258583 0.048577 0.000000
0.290311 0.048577 0.000000
0.322331 0.048577 0.000000
0.354588 0.048577 0.000000
0.387029 0.048577 0.000000
0.419601 0.048577 0.000000
0.452249 0.048577 0.000000
0.484921 0.048577 0.000000
0.517562 0.048577 0.000000
0.550118 0.048577 0.000000
0.582536 0.048577 0.000000
0.614763 0.048577 0.000000
0.646744 0.048577 0.000000
0.678426 0.048577 0.000000
0.709756 0.048577 0.000000
0.740679 0.048577 0.000000
0.771142 0.048577 0.000000
0.801091 0.048577 0.000000
0.830473 0.048577 0.000000
0.859233 0.048577 0.000000
0.887319 0.048577 0.000000
0.914676 0.048577 0.000000
0.941252 0.048577 0.000000
0.965000 0.048577 0.000000
0.000000 0.076543 0.000000
0.021690 0.076543 0.000000
0.049155 0.076543 0.000000
0.077340 0.076543 0.000000
0.106192 0.076543 0.000000
0.135658 0.076543 0.000000
0.165684 0.076543 0.000000
0.196216 0.076543 0.000000
0.227200 0.076543 0.000000
0.258583 0.076543 0.000000
0.290311 0.076543 0.000000
0.322331 0.076543 0.000000
0.354588 0.076543 0.000000
0.387029 0.076543 0.000000
0.419601 0.076543 0.000000
0.452249 0.076543 0.000000
0.484921 0.076543 0.000000
0.517562 0.076543 0.000000
0.550118 0.076543 0.000000
0.582536 0.076543 0.000000
0.614763 0.076543 0.000000
0.646744 0.076543 0.000000
0.678426 0.076543 0.000000
0.709756 0.076543 0.000000
0.740679 0.076543 0.000000
0.771142 0.076543 0.000000
0.801091 0.076543 0.000000
0.830473 0.076543 0.000000
0.859233 0.076543 0.000000
0.887319 0.076543 0.000000
0.914676 0.076543 0.000000
0.941252 0.076543 0.000000
0.965000 0.076543 0.000000
0.000000 0.105216 0.000000
0.021690 0.105216 0.000000
0.049155 0.105216 0.000000
0.077340 0.105216 0.000000
0.106192 0.105216 0.000000
0.135658 0.105216 0.000000
0.165684 0.105216 0.000000
0.196216 0.105216 0.000000
0.227200 0.105216 0.000000
0.258583 0.105216 0.000000
0.290311 0.105216 0.000000
0.322331 0.105216 0.000000
0.354588 0.105216 0.000000
0.387029 0.105216 0.000000
0.419601 0.105216 0.000000
0.452249 0.105216 0.000000
0.484921 0.105216 0.000000
0.517562 0.105216 0.000000
0.550118 0.105216 0.000000
0.582536 0.105216 0.000000
0.614763 0.105216 0.000000
0.646744 0.105216 0.000000
0.678426 0.105216 0.000000
0.709756 0.105216 0.000000
0.740679 0.105216 0.000000
0.771142 0.105216 0.000000
0.801091 0.105216 0.000000
0.830473 0.105216 0.000000
0.859233 0.105216 0.000000
0.887319 0.105216 0.000000
0.914676 0.105216 0.000000
0.941252 0.105216 0.000000
0.965000 0.105216 0.000000
0.000000 0.134542 0.000000
0.021690 0.134542 0.000000
0.049155 0.134542 0.000000
0.077340 0.134542 0.000000
0.106192 0.134542 0.000000
0.135658 0.134542 0.000000
0.165684 0.134542 0.000000
0.196216 0.134542 0.000000
0.227200 0.134542 0.000000
0.258583 0.134542 0.000000
0.290311 0.134542 0.000000
0.322331 0.134542 0.000000
0.354588 0.134542 0.000000
0.387029 0.134542 0.000000
0.419601 0.134542 0.000000
0.452249 0.134542 0.000000
0.484921 0.134542 0.000000
0.517562 0.134542 0.000000
0.550118 0.134542 0.000000
0.582536 0.134542 0.000000
0.614763 0.134542 0.000000
0.646744 0.134542 0.000000
0.678426 0.134542 0.000000
0.709756 0.134542 0.000000
0.740679 0.134542 0.000000
0.771142 0.134542 0.000000
0.801091 0.134542 0.000000
0.830473 0.134542 0.000000
0.859233 0.134542 0.000000
0.887319 0.134542 0.000000
0.914676 0.134542 0.000000
0.941252 0.134542 0.000000
0.965000 0.134542 0.000000
0.000000 0.164462 0.000000
0.021690 0.164462 0.000000
0.049155 0.164462 0.000000
0.077340 0.164462 0.000000
0.106192 0.164462 0.000000
0.135658 0.164462 0.000000
0.165684 0.164462 0.000000
0.196216 0.164462 0.000000
0.227200 0.164462 0.000000
0.258583 0.164462 0.000000
0.290311 0.164462 0.000000
0.322331 0.164462 0.000000
0.354588 0.164462 0.000000
0.387029 0.164462 0.000000
0.419601 0.164462 0.000000
0.452249 0.164462 0.000000
0.484921 0.164462 0.000000
0.517562 0.164462 0.000000
0.550118 0.164462 0.000000
0.582536 0.164462 0.000000
0.614763 0.164462 0.000000
0.646744 0.164462 0.000000
0.678426 0.164462 0.000000
0.709756 0.164462 0.000000
0.740679 0.164462 0.000000
0.771142 0.164462 0.000000
0.801091 0.164462 0.000000
0.830473 0.164462 0.000000
0.859233 0.164462 0.000000
0.887319 0.164462 0.000000
0.914676 0.164462 0.000000
0.941252 0.164462 0.000000
0.965000 0.164462 0.000000
0.000000 0.194920 0.000000
0.021690 0.194920 0.000000
0.049155 0.194920 0.000000
0.077340 0.194920 0.000000
0.106192 0.194920 0.000000
0.135658 0.194920 0.000000
0.165684 0.194920 0.000000
0.196216 0.194920 0.000000
0.227200 0.194920 0.000000
0.258583 0.194920 0.000000
0.290311 0.194920 0.000000
0.322331 0.194920 0.000000
0.354588 0.194920 0.000000
0.387029 0.194920 0.000000
0.419601 0.194920 0.000000
0.452249 0.194920 0.000000
0.484921 0.194920 0.000000
0.517562 0.194920 0.000000
0.550118 0.194920 0.000000
0.582536 0.194920 0.000000
0.614763 0.194920 0.000000
0.646744 0.194920 0.000000
0.678426 0.194920 0.000000
0.709756 0.194920 0.000000
0.740679 0.194920 0.000000
0.771142 0.194920 0.000000
0.801091 0.194920 0.000000
0.830473 0.194920 0.000000
0.859233 0.194920 0.000000
0.887319 0.194920 0.000000
0.914676 0.194920 0.000000
0.941252 0.194920 0.000000
0.965000 0.194920 0.000000
0.000000 0.225860 0.000000
0.021690 0.225860 0.000000
0.049155 0.225860 0.000000
0.077340 0.225860 0.000000
0.106192 0.225860 0.000000
0.135658 0.225860 0.000000
0.165684 0.225860 0.000000
0.196216 0.225860 0.000000
0.227200 0.225860 0.000000
0.258583 0.225860 0.000000
0.290311 0.225860 0.000000
0.322331 0.225860 0.000000
0.354588 0.225860 0.000000
0.387029 0.225860 0.000000
0.419601 0.225860 0.000000
0.452249 0.225860 0.000000
0.484921 0.225860 0.000000
0.517562 0.225860 0.000000
0.550118 0.225860 0.000000
0.582536 0.225860 0.000000
0.614763 0.225860 0.000000
0.646744 0.225860 0.000000
0.678426 0.225860 0.000000
0.709756 0.225860 0.000000
0.740679 0.225860 0.000000
0.771142 0.225860 0.000000
0.801091 0.225860 0.000000
0.830473 0.225860 0.000000
0.859233 0.225860 0.000000
0.887319 0.225860 0.000000
0.914676 0.225860 0.000000
0.941252 0.225860 0.000000
0.965000 0.225860 0.000000
0.000000 0.257224 0.000000
0.021690 0.257224 0.000000
0.049155 0.257224 0.000000
0.077340 0.257224 0.000000
0.106192 0.257224 0.000000
0.135658 0.257224 0.000000
0.165684 0.257224 0.000000
0.196216 0.257224 0.000000
0.227200 0.257224 0.000000
0.258583 0.257224 0.000000
0.290311 0.257224 0.000000
0.322331 0.257224 0.000000
0.354588 0.257224 0.000000
0.387029 0.257224 0.000000
0.419601 0.257224 0.000000
0.452249 0.257224 0.000000
0.484921 0.257224 0.000000
0.517562 0.257224 0.000000
0.550118 0.257224 0.000000
0.582536 0.257224 0.000000
0.614763 0.257224 0.000000
0.646744 0.257224 0.000000
0.678426 0.257224 0.000000
0.709756 0.257224 0.000000
0.740679 0.257224 0.000000
0.771142 0.257224 0.000000
0.801091 0.257224 0.000000
0.830473 0.257224 0.000000
0.859233 0.257224 0.000000
0.887319 0.257224 0.000000
0.914676 0.257224 0.000000
0.941252 0.257224 0.000000
0.965000 0.257224 0.000000
0.000000 0.288955 0.000000
0.021690 0.288955 0.000000
0.049155 0.288955 0.000000
0.077340 0.288955 0.000000
0.106192 0.288955 0.000000
0.135658 0.288955 0.000000
0.165684 0.288955 0.000000
0.196216 0.288955 0.000000
0.227200 0.288955 0.000000
0.258583 0.288955 0.000000
0.290311 0.288955 0.000000
0.322331 0.288955 0.000000
0.354588 0.288955 0.000000
0.387029 0.288955 0.000000
0.419601 0.288955 0.000000
0.452249 0.288955 0.000000
0.484921 0.288955 0.000000
0.517562 0.288955 0.000000
0.550118 0.288955 0.000000
0.582536 0.288955 0.000000
0.614763 0.288955 0.000000
0.646744 0.288955 0.000000
0.678426 0.288955 0.000000
0.709756 0.288955 0.000000
0.740679 0.288955 0.000000
0.771142 0.288955 0.000000
0.801091 0.288955 0.000000
0.830473 0.288955 0.000000
0.859233 0.288955 0.000000
0.887319 0.288955 0.000000
0.914676 0.288955 0.000000
0.941252 0.288955 0.000000
0.965000 0.288955 0.000000
0.000000 0.320998 0.000000
0.021690 0.320998 0.000000
0.049155 0.320998 0.000000
0.077340 0.320998 0.000000
0.106192 0.320998 0.000000
0.135658 0.320998 0.000000
0.165684 0.320998 0.000000
0.196216 0.320998 0.000000
0.227200 0.320998 0.000000
0.258583 0.320998 0.000000
0.290311 0.320998 0.000000
0.322331 0.320998 0.000000
0.354588 0.320998 0.000000
0.387029 0.320998 0.000000
0.419601 0.320998 0.000000
0.452249 0.320998 0.000000
0.484921 0.320998 0.000000
0.517562 0.320998 0.000000
0.550118 0.320998 0.000000
0.582536 0.320998 0.000000
0.614763 0.320998 0.000000
0.646744 0.320998 0.000000
0.678426 0.320998 0.000000
0.709756 0.320998 0.000000
0.740679 0.320998 0.000000
0.771142 0.320998 0.000000
0.801091 0.320998 0.000000
0.830473 0.320998 0.000000
0.859233 0.320998 0.000000
0.887319 0.320998 0.000000
0.914676 0.320998 0.000000
0.941252 0.320998 0.000000
0.965000 0.320998 0.000000
0.000000 0.353294 0.000000
0.021690 0.353294 0.000000
0.049155 0.353294 0.000000
0.077340 0.353294 0.000000
0.106192 0.353294 0.000000
0.135658 0.353294 0.000000
0.165684 0.353294 0.000000
0.196216 0.353294 0.000000
0.227200 0.353294 0.000000
0.258583 0.353294 0.000000
0.290311 0.353294 0.000000
0.322331 0.353294 0.000000
0.354588 0.353294 0.000000
0.387029 0.353294 0.000000
0.419601 0.353294 0.000000
0.452249 0.353294 0.000000
0.484921 0.353294 0.000000
0.517562 0.353294 0.000000
0.550118 0.353294 0.000000
0.582536 0.353294 0.000000
0.614763 0.353294 0.000000
0.646744 0.353294 0.000000
0.678426 0.353294 0.000000
0.709756 0.353294 0.000000
0.740679 0.353294 0.000000
0.771142 0.353294 0.000000
0.801091 0.353294 0.000000
0.830473 0.353294 0.000000
0.859233 0.353294 0.000000
0.887319 0.353294 0.000000
0.914676 0.353294 0.000000
0.941252 0.353294 0.000000
0.965000 0.353294 0.000000
0.000000 0.385787 0.000000
0.021690 0.385787 0.000000
0.049155 0.385787 0.000000
0.077340 0.385787 0.000000
0.106192 0.385787 0.000000
0.135658 0.385787 0.000000
0.165684 0.385787 0.000000
0.196216 0.385787 0.000000
0.227200 0.385787 0.000000
0.258583 0.385787 0.000000
0.290311 0.385787 0.000000
0.322331 0.385787 0.000000
0.354588 0.385787 0.000000
0.387029 0.385787 0.000000
0.419601 0.385787 0.000000
0.452249 0.385787 0.000000
0.484921 0.385787 0.000000
0.517562 0.385787 0.000000
0.550118 0.385787 0.000000
0.582536 0.385787 0.000000
0.614763 0.385787 0.000000
0.646744 0.385787 0.000000
0.678426 0.385787 0.000000
0.709756 0.385787 0.000000
0.740679 0.385787 0.000000
0.771142 0.385787 0.000000
0.801091 0.385787 0.000000
0.830473 0.385787 0.000000
0.859233 0.385787 0.000000
0.887319 0.385787 0.000000
0.914676 0.385787 0.000000
0.941252 0.385787 0.000000
0.965000 0.385787 0.000000
0.000000 0.418420 0.000000
0.021690 0.418420 0.000000
0.049155 0.418420 0.000000
0.077340 0.418420 0.000000
0.106192 0.418420 0.000000
0.135658 0.418420 0.000000
0.165684 0.418420 0.000000
0.196216 0.418420 0.000000
0.227200 0.418420 0.000000
0.258583 0.418420 0.000000
0.290311 0.418420 0.000000
0.322331 0.418420 0.000000
0.354588 0.418420 0.000000
0.387029 0.418420 0.000000
0.419601 0.418420 0.000000
0.452249 0.418420 0.000000
0.484921 0.418420 0.000000
0.517562 0.418420 0.000000
0.550118 0.418420 0.000000
0.582536 0.418420 0.000000
0.614763 0.418420 0.000000
0.646744 0.418420 0.000000
0.678426 0.418420 0.000000
0.709756 0.418420 0.000000
0.740679 0.418420 0.000000
0.771142 0.418420 0.000000
0.801091 0.418420 0.000000
0.830473 0.418420 0.000000
0.859233 0.418420 0.000000
0.887319 0.418420 0.000000
0.914676 0.418420 0.000000
0.941252 0.418420 0.000000
0.965000 0.418420 0.000000
0.000000 0.451137 0.000000
0.021690 0.451137 0.000000
0.049155 0.451137 0.000000
0.077340 0.451137 0.000000
0.106192 0.451137 0.000000
0.135658 0.451137 0.000000
0.165684 0.451137 0.000000
0.196216 0.451137 0.000000
0.227200 0.451137 0.000000
0.258583 0.451137 0.000000
0.290311 0.451137 0.000000
0.322331 0.451137 0.000000
0.354588 0.451137 0.000000
0.387029 0.451137 0.000000
0.419601 0.451137 0.000000
0.452249 0.451137 0.000000
0.484921 0.451137 0.000000
0.517562 0.451137 0.000000
0.550118 0.451137 0.000000
0.582536 0.451137 0.000000
0.614763 0.451137 0.000000
0.646744 0.451137 0.000000
0.678426 0.451137 0.000000
0.709756 0.451137 0.000000
0.740679 0.451137 0.000000
0.771142 0.451137 0.000000
0.801091 0.451137 0.000000
0.830473 0.451137 0.000000
0.859233 0.451137 0.000000
0.887319 0.451137 0.000000
0.914676 0.451137 0.000000
0.941252 0.451137 0.000000
0.965000 0.451137 0.000000
0.000000 0.483880 0.000000
0.021690 0.483880 0.000000
0.049155 0.483880 0.000000
0.077340 0.483880 0.000000
0.106192 0.483880 0.000000
0.135658 0.483880 0.000000
0.165684 0.483880 0.000000
0.196216 0.483880 0.000000
0.227200 0.483880 0.000000
0.258583 0.483880 0.000000
0.290311 0.483880 0.000000
0.322331 0.483880 0.000000
0.354588 0.483880 0.000000
0.387029 0.483880 0.000000
0.419601 0.483880 0.000000
0.452249 0.483880 0.000000
0.484921 0.483880 0.000000
0.517562 0.483880 0.000000
0.550118 0.483880 0.000000
0.582536 0.483880 0.000000
0.614763 0.483880 0.000000
0.646744 0.483880 0.000000
0.678426 0.483880 0.000000
0.709756 0.483880 0.000000
0.740679 0.483880 0.000000
0.771142 0.483880 0.000000
0.801091 0.483880 0.000000
0.830473 0.483880 0.000000
0.859233 0.483880 0.000000
0.887319 0.483880 0.000000
0.914676 0.483880 0.000000
0.941252 0.483880 0.000000
0.965000 0.483880 0.000000
0.000000 0.516593 0.000000
0.021690 0.516593 0.000000
0.049155 0.516593 0.000000
0.077340 0.516593 0.000000
0.106192 0.516593 0.000000
0.135658 0.516593 0.000000
0.165684 0.516593 0.000000
0.196216 0.516593 0.000000
0.227200 0.516593 0.000000
0.258583 0.516593 0.000000
0.290311 0.516593 0.000000
0.322331 0.516593 0.000000
0.354588 0.516593 0.000000
0.387029 0.516593 0.000000
0.419601 0.516593 0.000000
0.452249 0.516593 0.000000
0.484921 0.516593 0.000000
0.517562 0.516593 0.000000
0.550118 0.516593 0.000000
0.582536 0.516593 0.000000
0.614763 0.516593 0.000000
0.646744 0.516593 0.000000
0.678426 0.516593 0.000000
0.709756 0.516593 0.000000
0.740679 0.516593 0.000000
0.771142 0.516593 0.000000
0.801091 0.516593 0.000000
0.830473 0.516593 0.000000
0.859233 0.516593 0.000000
0.887319 0.516593 0.000000
0.914676 0.516593 0.000000
0.941252 0.516593 0.000000
0.965000 0.516593 0.000000
0.000000 0.549219 0.000000
0.021690 0.549219 0.000000
0.049155 0.549219 0.000000
0.077340 0.549219 0.000000
0.106192 0.549219 0.000000
0.135658 0.549219 0.000000
0.165684 0.549219 0.000000
0.196216 0.549219 0.000000
0.227200 0.549219 0.000000
0.258583 0.549219 0.000000
0.290311 0.549219 0.000000
0.322331 0.549219 0.000000
0.354588 0.549219 0.000000
0.387029 0.549219 0.000000
0.419601 0.549219 0.000000
0.452249 0.549219 0.000000
0.484921 0.549219 0.000000
0.517562 0.549219 0.000000
0.550118 0.549219 0.000000
0.582536 0.549219 0.000000
0.614763 0.549219 0.000000
0.646744 0.549219 0.000000
0.678426 0.549219 0.000000
0.709756 0.549219 0.000000
0.740679 0.549219 0.000000
0.771142 0.549219 0.000000
0.801091 0.549219 0.000000
0.830473 0.549219 0.000000
0.859233 0.549219 0.000000
0.887319 0.549219 0.000000
0.914676 0.549219 0.000000
0.941252 0.549219 0.000000
0.965000 0.549219 0.000000
0.000000 0.581700 0.000000
0.021690 0.581700 0.000000
0.049155 0.581700 0.000000
0.077340 0.581700 0.000000
0.106192 0.581700 0.000000
0.135658 0.581700 0.000000
0.165684 0.581700 0.000000
0.196216 0.581700 0.000000
0.227200 0.581700 0.000000
0.258583 0.581700 0.000000
0.290311 0.581700 0.000000
0.322331 0.581700 0.000000
0.354588 0.581700 0.000000
0.387029 0.581700 0.000000
0.419601 0.581700 0.000000
0.452249 0.581700 0.000000
0.484921 0.581700 0.000000
0.517562 0.581700 0.000000
0.550118 0.581700 0.000000
0.582536 0.581700 0.000000
0.614763 0.581700 0.000000
0.646744 0.581700 0.000000
0.678426 0.581700 0.000000
0.709756 0.581700 0.000000
0.740679 0.581700 0.000000
0.771142 0.581700 0.000000
0.801091 0.581700 0.000000
0.830473 0.581700 0.000000
0.859233 0.581700 0.000000
0.887319 0.581700 0.000000
0.914676 0.581700 0.000000
0.941252 0.581700 0.000000
0.965000 0.581700 0.000000
0.000000 0.613981 0.000000
0.021690 0.613981 0.000000
0.049155 0.613981 0.000000
0.077340 0.613981 0.000000
0.106192 0.613981 0.000000
0.135658 0.613981 0.000000
0.165684 0.613981 0.000000
0.196216 0.613981 0.000000
0.227200 0.613981 0.000000
0.258583 0.613981 0.000000
0.290311 0.613981 0.000000
0.322331 0.613981 0.000000
0.354588 0.613981 0.000000
0.387029 0.613981 0.000000
0.419601 0.613981 0.000000
0.452249 0.613981 0.000000
0.484921 0.613981 0.000000
0.517562 0.613981 0.000000
0.550118 0.613981 0.000000
0.582536 0.613981 0.000000
0.614763 0.613981 0.000000
0.646744 0.613981 0.000000
0.678426 0.613981 0.000000
0.709756 0.613981 0.000000
0.740679 0.613981 0.000000
0.771142 0.613981 0.000000
0.801091 0.613981 0.000000
0.830473 0.613981 0.000000
0.859233 0.613981 0.000000
0.887319 0.613981 0.000000
0.914676 0.613981 0.000000
0.941252 0.613981 0.000000
0.965000 0.613981 0.000000
0.000000 0.646005 0.000000
0.021690 0.646005 0.000000
0.049155 0.646005 0.000000
0.077340 0.646005 0.000000
0.106192 0.646005 0.000000
0.135658 0.646005 0.000000
0.165684 0.646005 0.000000
0.196216 0.646005 0.000000
0.227200 0.646005 0.000000
0.258583 0.646005 0.000000
0.290311 0.646005 0.000000
0.322331 0.646005 0.000000
0.354588 0.646005 0.000000
0.387029 0.646005 0.000000
0.419601 0.646005 0.000000
0.452249 0.646005 0.000000
0.484921 0.646005 0.000000
0.517562 0.646005 0.000000
0.550118 0.646005 0.000000
0.582536 0.646005 0.000000
0.614763 0.646005 0.000000
0.646744 0.646005 0.000000
0.678426 0.646005 0.000000
0.709756 0.646005 0.000000
0.740679 0.646005 0.000000
0.771142 0.646005 0.000000
0.801091 0.646005 0.000000
0.830473 0.646005 0.000000
0.859233 0.646005 0.000000
0.887319 0.646005 0.000000
0.914676 0.646005 0.000000
0.941252 0.646005 0.000000
0.965000 0.646005 0.000000
0.000000 0.677713 0.000000
0.021690 0.677713 0.000000
0.049155 0.677713 0.000000
0.077340 0.677713 0.000000
0.106192 0.677713 0.000000
0.135658 0.677713 0.000000
0.165684 0.677713 0.000000
0.196216 0.677713 0.000000
0.227200 0.677713 0.000000
0.258583 0.677713 0.000000
0.290311 0.677713 0.000000
0.322331 0.677713 0.000000
0.354588 0.677713 0.000000
0.387029 0.677713 0.000000
0.419601 0.677713 0.000000
0.452249 0.677713 0.000000
0.484921 0.677713 0.000000
0.517562 0.677713 0.000000
0.550118 0.677713 0.000000
0.582536 0.677713 0.000000
0.614763 0.677713 0.000000
0.646744 0.677713 0.000000
0.678426 0.677713 0.000000
0.709756 0.677713 0.000000
0.740679 0.677713 0.000000
0.771142 0.677713 0.000000
0.801091 0.677713 0.000000
0.830473 0.677713 0.000000
0.859233 0.677713 0.000000
0.887319 0.677713 0.000000
0.914676 0.677713 0.000000
0.941252 0.677713 0.000000
0.965000 0.677713 0.000000
0.000000 0.709051 0.000000
0.021690 0.709051 0.000000
0.049155 0.709051 0.000000
0.077340 0.709051 0.000000
0.106192 0.709051 0.000000
0.135658 0.709051 0.000000
0.165684 0.709051 0.000000
0.196216 0.709051 0.000000
0.227200 0.709051 0.000000
0.258583 0.709051 0.000000
0.290311 0.709051 0.000000
0.322331 0.709051 0.000000
0.354588 0.709051 0.000000
0.387029 0.709051 0.000000
0.419601 0.709051 0.000000
0.452249 0.709051 0.000000
0.484921 0.709051 0.000000
0.517562 0.709051 0.000000
0.550118 0.709051 0.000000
0.582536 0.709051 0.000000
0.614763 0.709051 0.000000
0.646744 0.709051 0.000000
0.678426 0.709051 0.000000
0.709756 0.709051 0.000000
0.740679 0.709051 0.000000
0.771142 0.709051 0.000000
0.801091 0.709051 0.000000
0.830473 0.709051 0.000000
0.859233 0.709051 0.000000
0.887319 0.709051 0.000000
0.914676 0.709051 0.000000
0.941252 0.709051 0.000000
0.965000 0.709051 0.000000
0.000000 0.739960 0.000000
0.021690 0.739960 0.000000
0.049155 0.739960 0.000000
0.077340 0.739960 0.000000
0.106192 0.739960 0.000000
0.135658 0.739960 0.000000
0.165684 0.739960 0.000000
0.196216 0.739960 0.000000
0.227200 0.739960 0.000000
0.258583 0.739960 0.000000
0.290311 0.739960 0.000000
0.322331 0.739960 0.000000
0.354588 0.739960 0.000000
0.387029 0.739960 0.000000
0.419601 0.739960 0.000000
0.452249 0.739960 0.000000
0.484921 0.739960 0.000000
0.517562 0.739960 0.000000
0.550118 0.739960 0.000000
0.582536 0.739960 0.000000
0.614763 0.739960 0.000000
0.646744 0.739960 0.000000
0.678426 0.739960 0.000000
0.709756 0.739960 0.000000
0.740679 0.739960 0.000000
0.771142 0.739960 0.000000
0.801091 0.739960 0.000000
0.830473 0.739960 0.000000
0.859233 0.739960 0.000000
0.887319 0.739960 0.000000
0.914676 0.739960 0.000000
0.941252 0.739960 0.000000
0.965000 0.739960 0.000000
0.000000 0.770384 0.000000
0.021690 0.770384 0.000000
0.049155 0.770384 0.000000
0.077340 0.770384 0.000000
0.106192 0.770384 0.000000
0.135658 0.770384 0.000000
0.165684 0.770384 0.000000
0.196216 0.770384 0.000000
0.227200 0.770384 0.000000
0.258583 0.770384 0.000000
0.290311 0.770384 0.000000
0.322331 0.770384 0.000000
0.354588 0.770384 0.000000
0.387029 0.770384 0.000000
0.419601 0.770384 0.000000
0.452249 0.770384 0.000000
0.484921 0.770384 0.000000
0.517562 0.770384 0.000000
0.550118 0.770384 0.000000
0.582536 0.770384 0.000000
0.614763 0.770384 0.000000
0.646744 0.770384 0.000000
0.678426 0.770384 0.000000
0.709756 0.770384 0.000000
0.740679 0.770384 0.000000
0.771142 0.770384 0.000000
0.801091 0.770384 0.000000
0.830473 0.770384 0.000000
0.859233 0.770384 0.000000
0.887319 0.770384 0.000000
0.914676 0.770384 0.000000
0.941252 0.770384 0.000000
0.965000 0.770384 0.000000
0.000000 0.800267 0.000000
0.021690 0.800267 0.000000
0.049155 0.800267 0.000000
0.077340 0.800267 0.000000
0.106192 0.800267 0.000000
0.135658 0.800267 0.000000
0.165684 0.800267 0.000000
0.196216 0.800267 0.000000
0.227200 0.800267 0.000000
0.258583 0.800267 0.000000
0.290311 0.800267 0.000000
0.322331 0.800267 0.000000
0.354588 0.800267 0.000000
0.387029 0.800267 0.000000
0.419601 0.800267 0.000000
0.452249 0.800267 0.000000
0.484921 0.800267 0.000000
0.517562 0.800267 0.000000
0.550118 0.800267 0.000000
0.582536 0.800267 0.000000
0.614763 0.800267 0.000000
0.646744 0.800267 0.000000
0.678426 0.800267 0.000000
0.709756 0.800267 0.000000
0.740679 0.800267 0.000000
0.771142 0.800267 0.000000
0.801091 0.800267 0.000000
