assets/luts/leica_vivid.cube
TITLE "leica_vivid"
LUT_3D_SIZE 5
DOMAIN_MIN 0.0 0.0 0.0
DOMAIN_MAX 1.0 1.0 1.0
0.000000 0.000000 0.000000
0.227200 0.000000 0.000000
0.484921 0.000000 0.000000
0.740679 0.000000 0.000000
0.965000 0.000000 0.000000
0.000000 0.225860 0.000000
0.227200 0.225860 0.000000
0.484921 0.225860 0.000000
0.740679 0.225860 0.000000
0.965000 0.225860 0.000000
0.000000 0.483880 0.000000
0.227200 0.483880 0.000000
0.484921 0.483880 0.000000
0.740679 0.483880 0.000000
0.965000 0.483880 0.000000
0.000000 0.739960 0.000000
0.227200 0.739960 0.000000
0.484921 0.739960 0.000000
0.740679 0.739960 0.000000
0.965000 0.739960 0.000000
0.000000 0.965000 0.000000
0.227200 0.965000 0.000000
0.484921 0.965000 0.000000
0.740679 0.965000 0.000000
0.965000 0.965000 0.000000
0.000000 0.000000 0.226551
0.227200 0.000000 0.226551
0.484921 0.000000 0.226551
0.740679 0.000000 0.226551
0.965000 0.000000 0.226551
0.000000 0.225860 0.226551
0.227200 0.225565 0.226408
0.484921 0.168867 0.169709
0.740679 0.112600 0.113442
0.965000 0.063249 0.064092
0.000000 0.483880 0.226551
0.170731 0.483880 0.169938
0.484921 0.483651 0.169709
0.740679 0.427384 0.113442
0.965000 0.378034 0.064092
0.000000 0.739960 0.226551
0.114393 0.739960 0.113601
0.428812 0.739960 0.113601
0.740679 0.739802 0.113442
0.965000 0.690451 0.064092
0.000000 0.965000 0.226551
0.064884 0.965000 0.064092
0.379303 0.965000 0.064092
0.691328 0.965000 0.064092
0.965000 0.965000 0.064092
0.000000 0.000000 0.481798
0.227200 0.000000 0.481798
0.484921 0.000000 0.481798
0.740679 0.000000 0.481798
0.965000 0.000000 0.481798
0.000000 0.225860 0.481798
0.171189 0.169554 0.481798
0.484921 0.168867 0.481111
0.740679 0.112600 0.424844
0.965000 0.063249 0.375494
0.000000 0.483880 0.481798
0.170731 0.483880 0.481340
0.484921 0.483651 0.481111
0.740679 0.427384 0.424844
0.965000 0.378034 0.375494
0.000000 0.739960 0.481798
0.114393 0.739960 0.425003
0.428812 0.739960 0.425003
0.740679 0.739802 0.424844
0.965000 0.690451 0.375494
0.000000 0.965000 0.481798
0.064884 0.965000 0.375494
0.379303 0.965000 0.375494
0.691328 0.965000 0.375494
0.965000 0.965000 0.375494
0.000000 0.000000 0.735514
0.227200 0.000000 0.735514
0.484921 0.000000 0.735514
0.740679 0.000000 0.735514
0.965000 0.000000 0.735514
0.000000 0.225860 0.735514
0.115371 0.113736 0.735514
0.429790 0.113736 0.735514
0.740679 0.112600 0.734378
0.965000 0.063249 0.685028
0.000000 0.483880 0.735514
0.115371 0.428520 0.735514
0.429790 0.428520 0.735514
0.740679 0.427384 0.734378
0.965000 0.378034 0.685028
0.000000 0.739960 0.735514
0.114393 0.739960 0.734536
0.428812 0.739960 0.734536
0.740679 0.739802 0.734378
0.965000 0.690451 0.685028
0.000000 0.965000 0.735514
0.064884 0.965000 0.685028
0.379303 0.965000 0.685028
0.691328 0.965000 0.685028
0.965000 0.965000 0.685028
0.000000 0.000000 0.962471
0.227200 0.000000 0.962471
0.484921 0.000000 0.962471
0.740679 0.000000 0.962471
0.965000 0.000000 0.962471
0.000000 0.225860 0.962471
0.065441 0.063806 0.962471
0.379860 0.063806 0.962471
0.691885 0.063806 0.962471
0.965000 0.063249 0.961915
0.000000 0.483880 0.962471
0.065441 0.378590 0.962471
0.379860 0.378590 0.962471
0.691885 0.378590 0.962471
0.965000 0.378034 0.961915
0.000000 0.739960 0.962471
0.065441 0.691008 0.962471
0.379860 0.691008 0.962471
0.691885 0.691008 0.962471
0.965000 0.690451 0.961915
0.000000 0.965000 0.962471
0.064884 0.965000 0.961915
0.379303 0.965000 0.961915
0.691328 0.965000 0.961915
0.965000 0.965000 0.961915
